; generated by Slic3r 0.9.10b on 2013-10-19 at 00:21:41

; layer_height = 0.21
; perimeters = 2
; top_solid_layers = 3
; bottom_solid_layers = 3
; fill_density = 0.2
; perimeter_speed = 50
; infill_speed = 60
; travel_speed = 130
; nozzle_diameter = 0.4
; filament_diameter = 2.9
; extrusion_multiplier = 1.0088
; perimeters extrusion width = 0.64mm
; infill extrusion width = 0.64mm
; solid infill extrusion width = 0.64mm
; top infill extrusion width = 0.64mm
; first layer extrusion width = 0.70mm

G21 ; set units to millimeters
M107
M190 S60 ; wait for bed temperature to be reached
M104 S200 ; set temperature
G28 ; home all axes
G1 Z5 F5000 ; lift nozzle
M109 S200 ; wait for temperature to be reached
G90 ; use absolute coordinates
G92 E0
M82 ; use absolute distances for extrusion
G1 F1800.000 E-1.00000
G92 E0
G1 Z0.350 F7800.000
G1 X74.410 Y62.290
G1 F1800.000 E1.00000
G1 X75.450 Y61.350 F1200.000 E1.04763
G1 X76.650 Y60.650 E1.09483
G1 X77.980 Y60.210 E1.14243
G1 X79.370 Y60.060 E1.18993
G1 X111.350 Y60.060 E2.27652
G1 X112.720 Y60.210 E2.32334
G1 X114.030 Y60.630 E2.37008
G1 X115.220 Y61.310 E2.41665
G1 X116.250 Y62.220 E2.46335
G1 X117.060 Y63.330 E2.51004
G1 X117.640 Y64.580 E2.55686
G1 X117.940 Y65.920 E2.60352
G1 X121.400 Y95.020 E3.59921
G1 X121.450 Y95.800 E3.62577
G1 X121.450 Y110.800 E4.13542
G1 X121.320 Y112.090 E4.17947
G1 X120.940 Y113.340 E4.22386
G1 X120.330 Y114.490 E4.26809
G1 X119.500 Y115.490 E4.31225
G1 X118.500 Y116.320 E4.35640
G1 X117.350 Y116.930 E4.40063
G1 X116.110 Y117.310 E4.44470
G1 X103.550 Y119.810 E4.87982
G1 X102.900 Y119.900 E4.90212
G1 X102.250 Y119.940 E4.92424
G1 X64.270 Y119.940 E6.21469
G1 X62.980 Y119.810 E6.25874
G1 X61.730 Y119.430 E6.30313
G1 X60.580 Y118.820 E6.34736
G1 X59.580 Y117.990 E6.39152
G1 X58.750 Y116.990 E6.43567
G1 X58.140 Y115.840 E6.47990
G1 X57.760 Y114.590 E6.52429
G1 X57.630 Y113.300 E6.56835
G1 X57.630 Y93.300 E7.24788
G1 X57.850 Y91.610 E7.30579
G1 X58.500 Y90.020 E7.36415
G1 X73.600 Y63.420 E8.40341
G1 X74.354 Y62.367 E8.44741
G1 F1800.000 E7.44741
G92 E0
G1 X81.203 Y106.226 F7800.000
G1 F1800.000 E1.00000
G1 X101.297 Y106.226 F1200.000 E1.68270
G1 X101.297 Y112.347 E1.89067
G1 X81.203 Y112.347 E2.57337
G1 X81.203 Y106.321 E2.77809
G1 X80.568 Y105.590 F7800.000
G1 X101.932 Y105.590 F840.000 E3.50399
G1 X101.932 Y112.982 E3.75514
G1 X64.594 Y112.982 E5.02379
G1 X64.594 Y111.118 E5.08713
G1 X80.568 Y111.118 E5.62988
G1 X80.568 Y105.686 E5.81445
G1 X81.118 Y105.908 F7800.000
G1 X81.803 Y111.886
G1 X81.664 Y111.747 F1440.000 E5.82115
G1 X81.664 Y110.845 E5.85187
G1 X82.705 Y111.886 E5.90202
G1 X83.606 Y111.886 E5.93274
G1 X81.664 Y109.944 E6.02634
G1 X81.664 Y109.042 E6.05706
G1 X84.508 Y111.886 E6.19411
G1 X85.409 Y111.886 E6.22483
G1 X81.664 Y108.141 E6.40533
G1 X81.664 Y107.239 E6.43605
G1 X86.311 Y111.886 E6.65999
G1 X87.213 Y111.886 E6.69072
G1 X82.013 Y106.687 E6.94128
G1 X82.915 Y106.687 E6.97201
G1 X88.114 Y111.886 E7.22257
G1 X89.016 Y111.886 E7.25330
G1 X83.816 Y106.687 E7.50387
G1 X84.718 Y106.687 E7.53459
G1 X89.917 Y111.886 E7.78516
G1 X90.819 Y111.886 E7.81588
G1 X85.619 Y106.687 E8.06645
G1 X86.521 Y106.687 E8.09717
G1 X91.720 Y111.886 E8.34774
G1 X92.622 Y111.886 E8.37846
G1 X87.423 Y106.687 E8.62903
G1 X88.324 Y106.687 E8.65975
G1 X93.523 Y111.886 E8.91032
G1 X94.425 Y111.886 E8.94104
G1 X89.226 Y106.687 E9.19161
G1 X90.127 Y106.687 E9.22234
G1 X95.327 Y111.886 E9.47290
G1 X96.228 Y111.886 E9.50363
G1 X91.029 Y106.687 E9.75420
G1 X91.930 Y106.687 E9.78492
G1 X97.130 Y111.886 E10.03549
G1 X98.031 Y111.886 E10.06621
G1 X92.832 Y106.687 E10.31678
G1 X93.734 Y106.687 E10.34750
G1 X98.933 Y111.886 E10.59807
G1 X99.834 Y111.886 E10.62879
G1 X94.635 Y106.687 E10.87936
G1 X95.537 Y106.687 E10.91008
G1 X100.736 Y111.886 E11.16065
G1 X100.836 Y111.084 E11.18818
G1 X96.438 Y106.687 E11.40012
G1 X97.340 Y106.687 E11.43084
G1 X100.836 Y110.183 E11.59932
G1 X100.836 Y109.281 E11.63005
G1 X98.241 Y106.687 E11.75509
G1 X99.143 Y106.687 E11.78581
G1 X100.836 Y108.380 E11.86740
G1 X100.836 Y107.478 E11.89812
G1 X100.044 Y106.687 E11.93626
G1 F1800.000 E10.93626
G92 E0
G1 X102.444 Y116.300 F7800.000
G1 X60.508 Y116.300
G1 X66.175 Y112.139
G1 F1800.000 E1.00000
G1 X65.996 Y111.961 F480.000 E1.01327
G1 X67.383 Y111.961 E1.08599
G1 X67.562 Y112.139 E1.09925
G1 X68.770 Y111.961 E1.16328
G1 X68.949 Y112.139 E1.17655
G1 X70.157 Y111.961 E1.24058
G1 X70.336 Y112.139 E1.25384
G1 X71.544 Y111.961 E1.31787
G1 X71.723 Y112.139 E1.33114
G1 X72.932 Y111.961 E1.39516
G1 X73.110 Y112.139 E1.40843
G1 X74.319 Y111.961 E1.47246
G1 X74.497 Y112.139 E1.48573
G1 X75.706 Y111.961 E1.54975
G1 X75.885 Y112.139 E1.56302
G1 X77.093 Y111.961 E1.62705
G1 X77.272 Y112.139 E1.64032
G1 X78.480 Y111.961 E1.70434
G1 X78.659 Y112.139 E1.71761
G1 X79.867 Y111.961 E1.78164
G1 X80.046 Y112.139 E1.79491
G1 F1800.000 E0.79491
G92 E0
G1 X80.750 Y111.300 F7800.000
G1 X101.750 Y105.772
G1 X105.187 Y106.148
G1 X106.946 Y105.599
G1 F1800.000 E1.00000
G1 X107.409 Y105.395 F720.000 E1.01719
G1 X107.842 Y105.231 E1.03292
G1 X108.251 Y105.104 E1.04749
G1 X108.642 Y105.010 E1.06115
G1 X109.019 Y104.944 E1.07415
G1 X109.387 Y104.906 E1.08671
G1 X109.750 Y104.893 E1.09906
G1 X110.113 Y104.906 E1.11140
G1 X110.481 Y104.944 E1.12396
G1 X110.858 Y105.010 E1.13696
G1 X111.248 Y105.104 E1.15062
G1 X111.658 Y105.231 E1.16520
G1 X112.091 Y105.395 E1.18093
G1 X112.554 Y105.599 E1.19812
G1 X113.052 Y105.850 E1.21707
G1 X113.594 Y106.157 E1.23821
G1 X113.859 Y106.323 E1.24885
G1 X113.859 Y109.847 E1.36858
G1 X105.641 Y109.847 E1.64783
G1 X105.641 Y106.323 E1.76756
G1 X106.448 Y105.850 E1.79934
G1 X106.861 Y105.642 E1.81505
G1 X106.624 Y105.049 F7800.000
G1 X107.168 Y104.806 F720.000 E1.83530
G1 X107.636 Y104.630 E1.85227
G1 X108.082 Y104.491 E1.86816
G1 X108.513 Y104.387 E1.88322
G1 X108.932 Y104.314 E1.89766
G1 X109.343 Y104.271 E1.91170
G1 X109.750 Y104.257 E1.92555
G1 X110.157 Y104.271 E1.93940
G1 X110.568 Y104.314 E1.95344
G1 X110.987 Y104.387 E1.96788
G1 X111.418 Y104.491 E1.98294
G1 X111.864 Y104.630 E1.99883
G1 X112.332 Y104.806 E2.01580
G1 X112.826 Y105.024 E2.03414
G1 X113.352 Y105.290 E2.05418
G1 X113.919 Y105.610 E2.07629
G1 X114.495 Y105.970 E2.09938
G1 X114.495 Y110.482 E2.25268
G1 X105.005 Y110.482 E2.57512
G1 X105.005 Y105.970 E2.72842
G1 X105.581 Y105.610 E2.75151
G1 X106.539 Y105.092 E2.78850
G1 X107.115 Y105.387 F7800.000
G1 X107.382 Y105.910
G1 X110.858 Y109.386 F1440.000 E2.95552
G1 X111.759 Y109.386 F7800.000
G1 X108.030 Y105.657 F1440.000 E3.13471
G1 X108.736 Y105.461 F7800.000
G1 X112.661 Y109.386 F1440.000 E3.32329
G1 X113.399 Y109.222 F7800.000
G1 X109.544 Y105.367 F1440.000 E3.50852
G1 X110.492 Y105.414 F7800.000
G1 X113.399 Y108.320 F1440.000 E3.64819
G1 X113.399 Y107.419 F7800.000
G1 X111.731 Y105.751 F1440.000 E3.72833
G1 X109.956 Y109.386 F7800.000
G1 X106.773 Y106.202 F1440.000 E3.88131
G1 X106.193 Y106.524 F7800.000
G1 X109.055 Y109.386 F1440.000 E4.01883
G1 X108.153 Y109.386 F7800.000
G1 X106.101 Y107.334 F1440.000 E4.11741
G1 X106.101 Y108.236 F7800.000
G1 X107.252 Y109.386 F1440.000 E4.17268
G1 X106.350 Y109.386 F7800.000
G1 X106.101 Y109.137 F1440.000 E4.18463
G1 F1800.000 E3.18463
G92 E0
G1 X105.187 Y110.300 F7800.000
G1 X109.722 Y104.461
G1 X109.750 Y102.128
G1 X105.187 Y96.300
G1 X105.641 Y96.753
G1 F1800.000 E1.00000
G1 X113.859 Y96.753 F720.000 E1.27925
G1 X113.859 Y100.277 E1.39898
G1 X113.052 Y100.750 E1.43075
G1 X112.554 Y101.001 E1.44971
G1 X112.091 Y101.205 E1.46690
G1 X111.658 Y101.369 E1.48263
G1 X111.248 Y101.496 E1.49720
G1 X110.858 Y101.590 E1.51086
G1 X110.481 Y101.656 E1.52386
G1 X110.113 Y101.694 E1.53642
G1 X109.750 Y101.707 E1.54877
G1 X109.387 Y101.694 E1.56111
G1 X109.019 Y101.656 E1.57367
G1 X108.642 Y101.590 E1.58667
G1 X108.251 Y101.496 E1.60033
G1 X107.842 Y101.369 E1.61490
G1 X107.409 Y101.205 E1.63064
G1 X106.946 Y101.001 E1.64782
G1 X106.448 Y100.750 E1.66678
G1 X105.641 Y100.277 E1.69855
G1 X105.641 Y96.849 E1.81505
G1 X105.005 Y96.118 F7800.000
G1 X114.495 Y96.118 F720.000 E2.13749
G1 X114.495 Y100.630 E2.29079
G1 X113.919 Y100.990 E2.31387
G1 X113.352 Y101.310 E2.33599
G1 X112.826 Y101.576 E2.35602
G1 X112.332 Y101.794 E2.37437
G1 X111.864 Y101.970 E2.39134
G1 X111.418 Y102.109 E2.40723
G1 X110.987 Y102.213 E2.42228
G1 X110.568 Y102.286 E2.43673
G1 X110.157 Y102.329 E2.45077
G1 X109.750 Y102.343 E2.46462
G1 X109.343 Y102.329 E2.47846
G1 X108.932 Y102.286 E2.49251
G1 X108.513 Y102.213 E2.50695
G1 X108.082 Y102.109 E2.52200
G1 X107.636 Y101.970 E2.53789
G1 X107.168 Y101.794 E2.55487
G1 X106.674 Y101.576 E2.57321
G1 X106.148 Y101.310 E2.59324
G1 X105.581 Y100.990 E2.61536
G1 X105.005 Y100.630 E2.63845
G1 X105.005 Y96.213 E2.78851
G1 X105.556 Y96.436 F7800.000
G1 X106.101 Y97.417
G1 X109.918 Y101.234 F1440.000 E2.97192
G1 X110.731 Y101.145 F7800.000
G1 X106.800 Y97.214 F1440.000 E3.16080
G1 X107.702 Y97.214 F7800.000
G1 X111.439 Y100.952 F1440.000 E3.34039
G1 X112.091 Y100.702 F7800.000
G1 X108.603 Y97.214 F1440.000 E3.50798
G1 X109.505 Y97.214 F7800.000
G1 X112.701 Y100.411 F1440.000 E3.66158
G1 X113.282 Y100.090 F7800.000
G1 X110.406 Y97.214 F1440.000 E3.79978
G1 X111.308 Y97.214 F7800.000
G1 X113.399 Y99.305 F1440.000 E3.90024
G1 X113.399 Y98.403 F7800.000
G1 X112.209 Y97.214 F1440.000 E3.95737
G1 X113.111 Y97.214 F7800.000
G1 X113.399 Y97.502 F1440.000 E3.97119
G1 X108.961 Y101.178 F7800.000
G1 X106.101 Y98.318 F1440.000 E4.10860
G1 X106.101 Y99.220 F7800.000
G1 X107.707 Y100.825 F1440.000 E4.18574
G1 F1800.000 E3.18574
G92 E0
G1 X109.750 Y102.128 F7800.000
G1 X105.187 Y100.451
G1 X101.750 Y100.828
G1 X101.750 Y93.800
G1 X101.297 Y94.253
G1 F1800.000 E1.00000
G1 X101.297 Y100.374 F1200.000 E1.20796
G1 X81.203 Y100.374 E1.89067
G1 X81.203 Y94.253 E2.09863
G1 X101.201 Y94.253 E2.77809
G1 X101.932 Y93.618 F7800.000
G1 X101.932 Y101.010 F840.000 E3.02925
G1 X80.568 Y101.010 E3.75514
G1 X80.568 Y95.482 E3.94295
G1 X64.594 Y95.482 E4.48570
G1 X64.594 Y93.618 E4.54905
G1 X101.837 Y93.618 E5.81445
G1 X101.614 Y94.168 F7800.000
G1 X100.836 Y94.856
G1 X100.694 Y94.714 F1440.000 E5.82127
G1 X99.792 Y94.714 F7800.000
G1 X100.836 Y95.758 F1440.000 E5.87142
G1 X100.836 Y96.659 F7800.000
G1 X98.891 Y94.714 F1440.000 E5.96488
G1 X97.989 Y94.714 F7800.000
G1 X100.836 Y97.561 F1440.000 E6.10167
G1 X100.836 Y98.462 F7800.000
G1 X97.088 Y94.714 F1440.000 E6.28177
G1 X96.186 Y94.714 F7800.000
G1 X100.836 Y99.364 F1440.000 E6.50520
G1 X100.484 Y99.913 F7800.000
G1 X95.284 Y94.714 F1440.000 E6.75503
G1 X94.383 Y94.714 F7800.000
G1 X99.582 Y99.913 F1440.000 E7.00486
G1 X98.681 Y99.913 F7800.000
G1 X93.481 Y94.714 F1440.000 E7.25468
G1 X92.580 Y94.714 F7800.000
G1 X97.779 Y99.913 F1440.000 E7.50451
G1 X96.878 Y99.913 F7800.000
G1 X91.678 Y94.714 F1440.000 E7.75434
G1 X90.777 Y94.714 F7800.000
G1 X95.976 Y99.913 F1440.000 E8.00417
G1 X95.074 Y99.913 F7800.000
G1 X89.875 Y94.714 F1440.000 E8.25400
G1 X88.974 Y94.714 F7800.000
G1 X94.173 Y99.913 F1440.000 E8.50383
G1 X93.271 Y99.913 F7800.000
G1 X88.072 Y94.714 F1440.000 E8.75366
G1 X87.170 Y94.714 F7800.000
G1 X92.370 Y99.913 F1440.000 E9.00349
G1 X91.468 Y99.913 F7800.000
G1 X86.269 Y94.714 F1440.000 E9.25332
G1 X85.367 Y94.714 F7800.000
G1 X90.567 Y99.913 F1440.000 E9.50315
G1 X89.665 Y99.913 F7800.000
G1 X84.466 Y94.714 F1440.000 E9.75297
G1 X83.564 Y94.714 F7800.000
G1 X88.763 Y99.913 F1440.000 E10.00280
G1 X87.862 Y99.913 F7800.000
G1 X82.663 Y94.714 F1440.000 E10.25263
G1 X81.761 Y94.714 F7800.000
G1 X86.960 Y99.913 F1440.000 E10.50246
G1 X86.059 Y99.913 F7800.000
G1 X81.664 Y95.519 F1440.000 E10.71363
G1 X81.664 Y96.420 F7800.000
G1 X85.157 Y99.913 F1440.000 E10.88147
G1 X84.256 Y99.913 F7800.000
G1 X81.664 Y97.322 F1440.000 E11.00600
G1 X81.664 Y98.223 F7800.000
G1 X83.354 Y99.913 F1440.000 E11.08720
G1 X82.453 Y99.913 F7800.000
G1 X81.664 Y99.125 F1440.000 E11.12509
G1 X80.750 Y100.828 F7800.000
G1 X80.750 Y95.300
G1 X79.011 Y94.461
G1 X79.190 Y94.639 F480.000 E11.13828
G1 X77.624 Y94.461 F7800.000
G1 X77.803 Y94.639 F480.000 E11.15147
G1 X76.237 Y94.461 F7800.000
G1 X76.416 Y94.639 F480.000 E11.16465
G1 X74.850 Y94.461 F7800.000
G1 X75.029 Y94.639 F480.000 E11.17784
G1 X73.463 Y94.461 F7800.000
G1 X73.642 Y94.639 F480.000 E11.19103
G1 X72.076 Y94.461 F7800.000
G1 X72.255 Y94.639 F480.000 E11.20422
G1 X70.689 Y94.461 F7800.000
G1 X70.868 Y94.639 F480.000 E11.21741
G1 X69.302 Y94.461 F7800.000
G1 X69.481 Y94.639 F480.000 E11.23060
G1 X67.915 Y94.461 F7800.000
G1 X68.094 Y94.639 F480.000 E11.24379
G1 X66.707 Y94.639 F7800.000
G1 X66.528 Y94.461 F480.000 E11.25698
G1 F1800.000 E10.25698
G92 E0
G1 X60.508 Y90.300 F7800.000
G1 X112.593 Y89.700
G1 X114.350 Y87.943
G1 X105.084 Y76.766
G1 F1800.000 E1.00000
G1 X104.925 Y76.323 F720.000 E1.01601
G1 X104.851 Y75.857 E1.03203
G1 X104.866 Y75.386 E1.04804
G1 X104.969 Y74.926 E1.06405
G1 X105.156 Y74.494 E1.08006
G1 X105.421 Y74.104 E1.09608
G1 X105.636 Y73.875 E1.10676
G1 X105.878 Y73.674 E1.11744
G1 X106.284 Y73.434 E1.13346
G1 X106.727 Y73.275 E1.14947
G1 X107.193 Y73.201 E1.16548
G1 X107.664 Y73.216 E1.18149
G1 X108.124 Y73.319 E1.19751
G1 X108.556 Y73.506 E1.21352
G1 X108.946 Y73.771 E1.22954
G1 X109.175 Y73.986 E1.24021
G1 X109.376 Y74.228 E1.25090
G1 X109.616 Y74.634 E1.26691
G1 X109.731 Y74.926 E1.27760
G1 X109.956 Y75.700 E1.30497
G1 X109.678 Y76.621 E1.33768
G1 X109.464 Y77.042 E1.35370
G1 X109.175 Y77.414 E1.36972
G1 X108.822 Y77.726 E1.38573
G1 X108.416 Y77.966 E1.40173
G1 X107.973 Y78.125 E1.41775
G1 X107.507 Y78.199 E1.43377
G1 X107.036 Y78.184 E1.44978
G1 X106.576 Y78.081 E1.46579
G1 X106.144 Y77.894 E1.48180
G1 X105.754 Y77.629 E1.49781
G1 X105.421 Y77.296 E1.51382
G1 X105.236 Y77.042 E1.52451
G1 X105.128 Y76.851 E1.53196
G1 X105.713 Y76.600 F7800.000
G1 X105.573 Y76.277 F720.000 E1.54390
G1 X105.497 Y75.934 E1.55585
G1 X105.482 Y75.700 E1.56382
G1 X105.497 Y75.466 E1.57179
G1 X105.573 Y75.123 E1.58373
G1 X105.713 Y74.800 E1.59568
G1 X105.911 Y74.509 E1.60763
G1 X106.159 Y74.261 E1.61957
G1 X106.450 Y74.063 E1.63152
G1 X106.773 Y73.923 E1.64346
G1 X107.116 Y73.847 E1.65541
G1 X107.350 Y73.832 E1.66338
G1 X107.584 Y73.847 E1.67135
G1 X107.927 Y73.923 E1.68330
G1 X108.250 Y74.063 E1.69524
G1 X108.541 Y74.261 E1.70719
G1 X108.789 Y74.509 E1.71913
G1 X108.987 Y74.800 E1.73108
G1 X109.127 Y75.123 E1.74303
G1 X109.203 Y75.466 E1.75497
G1 X109.214 Y75.817 E1.76691
G1 X109.159 Y76.165 E1.77886
G1 X109.040 Y76.495 E1.79081
G1 X108.861 Y76.798 E1.80275
G1 X108.712 Y76.979 E1.81072
G1 X108.541 Y77.139 E1.81869
G1 X108.250 Y77.337 E1.83064
G1 X107.927 Y77.477 E1.84258
G1 X107.584 Y77.553 E1.85453
G1 X107.233 Y77.564 E1.86648
G1 X106.885 Y77.509 E1.87842
G1 X106.555 Y77.390 E1.89037
G1 X106.252 Y77.211 E1.90231
G1 X105.988 Y76.979 E1.91426
G1 X105.762 Y76.682 E1.92695
G1 X105.901 Y76.303 F7800.000
G1 X97.303 Y67.653
G1 X110.397 Y67.653 F1200.000 E2.37181
G1 X110.397 Y85.747 E2.98656
G1 X97.303 Y85.747 E3.43143
G1 X97.303 Y67.749 E4.04294
G1 X96.668 Y67.018 F7800.000
G1 X111.032 Y67.018 F840.000 E4.53099
G1 X111.032 Y86.382 E5.18894
G1 X96.668 Y86.382 E5.67699
G1 X96.668 Y67.113 E6.33170
G1 X97.218 Y67.336 F7800.000
G1 X104.386 Y68.114
G1 X109.936 Y73.664 F1440.000 E6.60073
G1 X109.936 Y72.758 F7800.000
G1 X105.292 Y68.114 F1440.000 E6.82581
G1 X106.199 Y68.114 E6.85688
G1 X109.936 Y71.851 E7.03801
G1 X109.936 Y70.944 E7.06909
G1 X107.106 Y68.114 E7.20626
G1 X108.013 Y68.114 E7.23734
G1 X109.936 Y70.037 E7.33057
G1 X109.936 Y69.131 E7.36164
G1 X108.919 Y68.114 E7.41092
G1 X109.826 Y68.114 E7.44199
G1 X109.936 Y68.224 E7.44731
G1 X108.243 Y72.879 F7800.000
G1 X103.479 Y68.114 F1440.000 E7.67826
G1 X102.572 Y68.114 E7.70934
G1 X107.209 Y72.751 E7.93408
G1 X106.441 Y72.890 E7.96083
G1 X101.665 Y68.114 E8.19230
G1 X100.758 Y68.114 E8.22338
G1 X105.813 Y73.168 E8.46836
G1 X105.306 Y73.569 E8.49048
G1 X99.852 Y68.114 E8.75487
G1 X98.945 Y68.114 E8.78594
G1 X104.893 Y74.063 E9.07427
G1 X104.583 Y74.659 E9.09732
G1 X98.038 Y68.114 E9.41457
G1 X97.764 Y68.747 E9.43821
G1 X104.405 Y75.387 E9.76008
G1 X104.473 Y76.362 E9.79358
G1 X97.764 Y69.654 E10.11876
