; generated by Slic3r 0.9.10b on 2013-10-13 at 00:50:07

; layer_height = 0.21
; perimeters = 2
; top_solid_layers = 3
; bottom_solid_layers = 3
; fill_density = 0.2
; perimeter_speed = 50
; infill_speed = 60
; travel_speed = 130
; nozzle_diameter = 0.4
; filament_diameter = 2.9
; extrusion_multiplier = 1.0088
; perimeters extrusion width = 0.64mm
; infill extrusion width = 0.64mm
; solid infill extrusion width = 0.64mm
; top infill extrusion width = 0.64mm
; support material extrusion width = 0.64mm
; first layer extrusion width = 0.70mm

G21 ; set units to millimeters
M107
M190 S60 ; wait for bed temperature to be reached
M104 S200 ; set temperature
G28 ; home all axes
G1 Z5 F5000 ; lift nozzle
M109 S200 ; wait for temperature to be reached
G90 ; use absolute coordinates
G92 E0
M82 ; use absolute distances for extrusion
G1 F1800.000 E-1.00000
G92 E0
G1 Z0.350 F7800.000
G1 X67.871 Y79.466
G1 F1800.000 E1.00000
G1 X68.341 Y79.076 F1200.000 E1.02075
G1 X68.961 Y78.606 E1.04719
G1 X69.341 Y78.346 E1.06283
G1 X70.451 Y77.686 E1.10671
G1 X71.281 Y77.286 E1.13801
G1 X72.431 Y76.826 E1.18010
G1 X73.431 Y76.526 E1.21557
G1 X74.191 Y76.346 E1.24211
G1 X74.921 Y76.216 E1.26730
G1 X75.511 Y76.136 E1.28753
G1 X104.061 Y74.086 E2.26007
G1 X105.131 Y74.066 E2.29643
G1 X106.181 Y74.106 E2.33213
G1 X107.361 Y74.266 E2.37259
G1 X108.271 Y74.456 E2.40418
G1 X109.381 Y74.776 E2.44343
G1 X109.821 Y74.926 E2.45922
G1 X110.491 Y75.196 E2.48377
G1 X111.471 Y75.666 E2.52069
G1 X112.091 Y76.006 E2.54472
G1 X112.651 Y76.346 E2.56698
G1 X113.031 Y76.606 E2.58262
G1 X113.711 Y77.126 E2.61171
G1 X114.391 Y77.706 E2.64208
G1 X115.351 Y78.676 E2.68845
G1 X116.071 Y79.546 E2.72682
G1 X116.441 Y80.056 E2.74822
G1 X117.041 Y80.996 E2.78611
G1 X117.511 Y81.856 E2.81941
G1 X117.881 Y82.696 E2.85060
G1 X118.201 Y83.546 E2.88146
G1 X118.521 Y84.716 E2.92267
G1 X118.641 Y85.226 E2.94047
G1 X118.831 Y86.356 E2.97941
G1 X118.881 Y86.816 E2.99513
G1 X118.911 Y87.396 E3.01486
G1 X118.921 Y88.296 E3.04544
G1 X118.891 Y88.956 E3.06789
G1 X118.831 Y89.586 E3.08939
G1 X118.731 Y90.296 E3.11375
G1 X118.541 Y91.256 E3.14700
G1 X118.201 Y92.446 E3.18905
G1 X118.051 Y92.876 E3.20453
G1 X117.791 Y93.496 E3.22737
G1 X117.281 Y94.546 E3.26703
G1 X116.691 Y95.556 E3.30678
G1 X116.071 Y96.446 E3.34363
G1 X115.351 Y97.316 E3.38200
G1 X115.001 Y97.686 E3.39930
G1 X114.391 Y98.286 E3.42838
G1 X113.711 Y98.866 E3.45874
G1 X113.031 Y99.386 E3.48783
G1 X112.271 Y99.886 E3.51874
G1 X111.541 Y100.306 E3.54735
G1 X110.711 Y100.706 E3.57866
G1 X109.821 Y101.066 E3.61128
G1 X108.681 Y101.426 E3.65190
G1 X108.271 Y101.536 E3.66632
G1 X107.361 Y101.726 E3.69791
G1 X106.181 Y101.886 E3.73837
G1 X78.081 Y103.886 E4.69553
G1 X77.371 Y103.926 E4.71970
G1 X76.621 Y103.916 E4.74518
G1 X75.921 Y103.876 E4.76900
G1 X75.421 Y103.836 E4.78605
G1 X74.751 Y103.746 E4.80901
G1 X73.741 Y103.546 E4.84400
G1 X72.551 Y103.206 E4.88605
G1 X72.121 Y103.056 E4.90152
G1 X71.501 Y102.796 E4.92436
G1 X70.451 Y102.286 E4.96403
G1 X69.441 Y101.696 E5.00377
G1 X68.711 Y101.196 E5.03383
G1 X68.341 Y100.916 E5.04960
G1 X67.791 Y100.456 E5.07396
G1 X67.281 Y99.976 E5.09776
G1 X66.491 Y99.136 E5.13694
G1 X65.851 Y98.356 E5.17122
G1 X65.351 Y97.656 E5.20044
G1 X64.881 Y96.886 E5.23110
G1 X64.481 Y96.136 E5.25998
G1 X64.111 Y95.296 E5.29116
G1 X63.911 Y94.786 E5.30978
G1 X63.701 Y94.156 E5.33234
G1 X63.561 Y93.646 E5.35031
G1 X63.391 Y92.956 E5.37445
G1 X63.261 Y92.266 E5.39831
G1 X63.171 Y91.606 E5.42094
G1 X63.111 Y91.076 E5.43907
G1 X63.071 Y90.366 E5.46323
G1 X63.071 Y89.856 E5.48056
G1 X63.101 Y88.966 E5.51081
G1 X63.221 Y87.916 E5.54672
G1 X63.451 Y86.736 E5.58757
G1 X63.651 Y85.986 E5.61394
G1 X63.831 Y85.426 E5.63393
G1 X64.201 Y84.496 E5.66793
G1 X64.671 Y83.516 E5.70486
G1 X65.011 Y82.896 E5.72889
G1 X65.351 Y82.336 E5.75115
G1 X65.611 Y81.956 E5.76679
G1 X66.081 Y81.336 E5.79323
G1 X66.471 Y80.866 E5.81398
G1 X66.991 Y80.306 E5.83994
G1 X67.800 Y79.530 E5.87804
G1 F1800.000 E4.87804
G92 E0
G1 X96.375 Y85.819 F7800.000
G1 F1800.000 E1.00000
G1 X96.532 Y85.272 F1200.000 E1.01932
G1 X96.718 Y84.750 E1.03817
G1 X97.045 Y84.025 E1.06518
G1 X97.463 Y83.275 E1.09436
G1 X97.789 Y82.791 E1.11418
G1 X98.131 Y82.349 E1.13316
G1 X98.492 Y81.936 E1.15180
G1 X98.922 Y81.506 E1.17248
G1 X99.311 Y81.163 E1.19010
G1 X99.744 Y80.826 E1.20874
G1 X100.255 Y80.478 E1.22975
G1 X100.728 Y80.200 E1.24839
G1 X101.190 Y79.964 E1.26601
G1 X101.702 Y79.741 E1.28499
G1 X102.218 Y79.554 E1.30363
G1 X102.812 Y79.382 E1.32464
G1 X103.348 Y79.264 E1.34328
G1 X103.850 Y79.184 E1.36056
G1 X104.466 Y79.126 E1.38157
G1 X105.014 Y79.110 E1.40021
G1 X105.532 Y79.126 E1.41783
G1 X106.138 Y79.184 E1.43851
G1 X106.680 Y79.271 E1.45714
G1 X107.186 Y79.384 E1.47477
G1 X107.723 Y79.539 E1.49374
G1 X108.245 Y79.725 E1.51259
G1 X108.970 Y80.052 E1.53961
G1 X109.720 Y80.470 E1.56879
G1 X110.236 Y80.820 E1.58997
G1 X110.646 Y81.137 E1.60759
G1 X111.059 Y81.499 E1.62623
G1 X111.489 Y81.929 E1.64690
G1 X111.832 Y82.318 E1.66452
G1 X112.169 Y82.751 E1.68316
G1 X112.517 Y83.262 E1.70418
G1 X112.776 Y83.700 E1.72146
G1 X113.026 Y84.188 E1.74010
G1 X113.272 Y84.756 E1.76111
G1 X113.463 Y85.296 E1.78057
G1 X113.663 Y86.041 E1.80677
G1 X113.808 Y86.832 E1.83410
G1 X113.866 Y87.423 E1.85428
G1 X113.885 Y87.977 E1.87313
G1 X113.848 Y88.771 E1.90015
G1 X113.736 Y89.623 E1.92933
G1 X113.611 Y90.193 E1.94915
G1 X113.456 Y90.730 E1.96813
G1 X113.270 Y91.252 E1.98698
G1 X112.943 Y91.977 E2.01399
G1 X112.525 Y92.727 E2.04317
G1 X112.175 Y93.243 E2.06435
G1 X111.858 Y93.653 E2.08197
G1 X111.496 Y94.065 E2.10061
G1 X111.066 Y94.496 E2.12128
G1 X110.677 Y94.839 E2.13891
G1 X110.244 Y95.176 E2.15754
G1 X109.733 Y95.524 E2.17856
G1 X109.260 Y95.802 E2.19720
G1 X108.798 Y96.037 E2.21482
G1 X108.286 Y96.260 E2.23380
G1 X107.770 Y96.448 E2.25243
G1 X107.176 Y96.620 E2.27345
G1 X106.680 Y96.731 E2.29073
G1 X106.138 Y96.818 E2.30937
G1 X105.522 Y96.876 E2.33038
G1 X104.974 Y96.892 E2.34902
G1 X104.456 Y96.876 E2.36664
G1 X103.850 Y96.818 E2.38731
G1 X103.308 Y96.731 E2.40595
G1 X102.793 Y96.616 E2.42389
G1 X101.983 Y96.363 E2.45273
G1 X101.200 Y96.042 E2.48148
G1 X100.685 Y95.778 E2.50116
G1 X100.213 Y95.497 E2.51980
G1 X99.777 Y95.201 E2.53774
G1 X99.116 Y94.667 E2.56657
G1 X98.506 Y94.081 E2.59533
G1 X98.156 Y93.684 E2.61331
G1 X97.819 Y93.251 E2.63195
G1 X97.471 Y92.740 E2.65296
G1 X97.212 Y92.302 E2.67025
G1 X96.962 Y91.814 E2.68888
G1 X96.731 Y91.284 E2.70852
G1 X96.459 Y90.480 E2.73735
G1 X96.252 Y89.620 E2.76741
G1 X96.146 Y88.837 E2.79426
G1 X96.103 Y87.978 E2.82348
G1 X96.122 Y87.423 E2.84236
G1 X96.171 Y86.906 E2.85998
G1 X96.257 Y86.355 E2.87896
G1 X96.354 Y85.912 E2.89436
G1 X96.993 Y85.967 F7800.000
G1 X97.139 Y85.459 F1200.000 E2.91232
G1 X97.312 Y84.978 E2.92971
G1 X97.618 Y84.301 E2.95494
G1 X98.011 Y83.598 E2.98230
G1 X98.309 Y83.157 E3.00040
G1 X98.627 Y82.746 E3.01802
G1 X98.962 Y82.364 E3.03531
G1 X99.350 Y81.976 E3.05394
G1 X99.724 Y81.646 E3.07089
G1 X100.126 Y81.334 E3.08817
G1 X100.587 Y81.020 E3.10715
G1 X101.026 Y80.762 E3.12443
G1 X101.488 Y80.527 E3.14205
G1 X101.946 Y80.329 E3.15899
G1 X102.424 Y80.156 E3.17628
G1 X102.960 Y80.000 E3.19525
G1 X103.457 Y79.890 E3.21254
G1 X103.940 Y79.813 E3.22914
G1 X104.496 Y79.761 E3.24812
G1 X105.004 Y79.745 E3.26540
G1 X105.503 Y79.761 E3.28234
G1 X106.049 Y79.813 E3.30098
G1 X106.551 Y79.893 E3.31826
G1 X107.038 Y80.002 E3.33521
G1 X107.536 Y80.146 E3.35283
G1 X108.017 Y80.319 E3.37021
G1 X108.694 Y80.625 E3.39545
G1 X109.397 Y81.018 E3.42281
G1 X109.855 Y81.328 E3.44159
G1 X110.249 Y81.634 E3.45853
G1 X110.631 Y81.969 E3.47582
G1 X111.019 Y82.357 E3.49445
G1 X111.349 Y82.731 E3.51140
G1 X111.661 Y83.132 E3.52868
G1 X111.975 Y83.594 E3.54766
G1 X112.233 Y84.033 E3.56494
G1 X112.455 Y84.468 E3.58154
G1 X112.677 Y84.981 E3.60052
G1 X112.853 Y85.473 E3.61827
G1 X113.045 Y86.192 E3.64356
G1 X113.180 Y86.931 E3.66909
G1 X113.233 Y87.473 E3.68759
G1 X113.250 Y87.984 E3.70497
G1 X113.214 Y88.726 E3.73021
G1 X113.108 Y89.524 E3.75757
G1 X112.993 Y90.044 E3.77567
G1 X112.849 Y90.543 E3.79329
G1 X112.676 Y91.024 E3.81068
G1 X112.370 Y91.701 E3.83591
G1 X111.977 Y92.404 E3.86327
G1 X111.667 Y92.862 E3.88205
G1 X111.361 Y93.256 E3.89900
G1 X111.026 Y93.638 E3.91628
G1 X110.638 Y94.026 E3.93492
G1 X110.264 Y94.356 E3.95186
G1 X109.863 Y94.668 E3.96914
G1 X109.401 Y94.982 E3.98812
G1 X108.963 Y95.240 E4.00540
G1 X108.518 Y95.467 E4.02235
G1 X108.042 Y95.673 E4.03997
G1 X107.564 Y95.846 E4.05725
G1 X107.028 Y96.002 E4.07623
G1 X106.531 Y96.112 E4.09351
G1 X106.049 Y96.189 E4.11011
G1 X105.493 Y96.241 E4.12909
G1 X104.984 Y96.257 E4.14637
G1 X104.486 Y96.241 E4.16332
G1 X103.940 Y96.189 E4.18195
G1 X103.437 Y96.108 E4.19924
G1 X102.945 Y95.998 E4.21639
G1 X102.210 Y95.769 E4.24254
G1 X101.476 Y95.470 E4.26946
G1 X101.000 Y95.226 E4.28766
G1 X100.562 Y94.966 E4.30494
G1 X100.145 Y94.682 E4.32210
G1 X99.546 Y94.199 E4.34824
G1 X98.974 Y93.650 E4.37517
G1 X98.639 Y93.271 E4.39235
G1 X98.327 Y92.870 E4.40963
G1 X98.013 Y92.408 E4.42861
G1 X97.755 Y91.969 E4.44589
G1 X97.533 Y91.534 E4.46250
G1 X97.320 Y91.044 E4.48067
G1 X97.073 Y90.315 E4.50681
G1 X96.879 Y89.517 E4.53472
G1 X96.780 Y88.789 E4.55965
G1 X96.739 Y87.985 E4.58704
G1 X96.755 Y87.473 E4.60444
G1 X96.802 Y86.976 E4.62138
G1 X96.883 Y86.464 E4.63900
G1 X96.972 Y86.060 E4.65305
G1 X97.611 Y86.116 F7800.000
G1 X97.744 Y85.656 F1200.000 E4.66931
G1 X97.906 Y85.205 E4.68557
G1 X98.191 Y84.577 E4.70902
G1 X98.552 Y83.933 E4.73411
G1 X98.824 Y83.530 E4.75061
G1 X99.117 Y83.152 E4.76688
G1 X99.433 Y82.792 E4.78314
G1 X99.785 Y82.440 E4.80008
G1 X100.145 Y82.123 E4.81635
G1 X100.507 Y81.842 E4.83193
G1 X100.920 Y81.562 E4.84887
G1 X101.332 Y81.319 E4.86514
G1 X101.741 Y81.111 E4.88073
G1 X102.198 Y80.913 E4.89767
G1 X102.649 Y80.751 E4.91393
G1 X103.089 Y80.623 E4.92952
G1 X103.576 Y80.514 E4.94646
G1 X104.049 Y80.440 E4.96273
G1 X104.506 Y80.397 E4.97831
G1 X105.004 Y80.381 E4.99525
G1 X105.483 Y80.397 E5.01152
G1 X105.939 Y80.440 E5.02710
G1 X106.412 Y80.514 E5.04337
G1 X106.879 Y80.618 E5.05963
G1 X107.339 Y80.751 E5.07590
G1 X107.790 Y80.913 E5.09216
G1 X108.418 Y81.198 E5.11561
G1 X109.062 Y81.558 E5.14069
G1 X109.465 Y81.831 E5.15720
G1 X109.843 Y82.123 E5.17346
G1 X110.203 Y82.440 E5.18973
G1 X110.556 Y82.792 E5.20667
G1 X110.872 Y83.152 E5.22293
G1 X111.153 Y83.514 E5.23852
G1 X111.433 Y83.927 E5.25546
G1 X111.667 Y84.321 E5.27105
G1 X111.884 Y84.748 E5.28731
G1 X112.082 Y85.205 E5.30425
G1 X112.246 Y85.663 E5.32075
G1 X112.427 Y86.343 E5.34467
G1 X112.552 Y87.030 E5.36840
G1 X112.598 Y87.513 E5.38488
G1 X112.614 Y87.991 E5.40114
G1 X112.580 Y88.680 E5.42459
G1 X112.482 Y89.412 E5.44967
G1 X112.377 Y89.886 E5.46618
G1 X112.244 Y90.346 E5.48244
G1 X112.082 Y90.797 E5.49870
G1 X111.797 Y91.425 E5.52215
G1 X111.437 Y92.069 E5.54724
G1 X111.165 Y92.472 E5.56374
G1 X110.872 Y92.850 E5.58000
G1 X110.556 Y93.210 E5.59627
G1 X110.203 Y93.562 E5.61321
G1 X109.843 Y93.878 E5.62948
G1 X109.481 Y94.160 E5.64506
G1 X109.069 Y94.440 E5.66200
G1 X108.656 Y94.683 E5.67827
G1 X108.247 Y94.891 E5.69385
G1 X107.790 Y95.089 E5.71080
G1 X107.339 Y95.251 E5.72706
G1 X106.899 Y95.379 E5.74265
G1 X106.412 Y95.488 E5.75959
G1 X105.939 Y95.562 E5.77585
G1 X105.483 Y95.605 E5.79144
G1 X104.984 Y95.621 E5.80838
G1 X104.526 Y95.606 E5.82397
G1 X104.049 Y95.562 E5.84023
G1 X103.576 Y95.488 E5.85650
G1 X103.109 Y95.384 E5.87276
G1 X102.425 Y95.171 E5.89712
G1 X101.741 Y94.891 E5.92221
G1 X101.332 Y94.683 E5.93780
G1 X100.920 Y94.440 E5.95406
G1 X100.523 Y94.171 E5.97033
G1 X99.966 Y93.721 E5.99468
G1 X99.433 Y93.210 E6.01978
G1 X99.117 Y92.850 E6.03604
G1 X98.835 Y92.488 E6.05163
G1 X98.555 Y92.075 E6.06857
G1 X98.322 Y91.681 E6.08416
G1 X98.104 Y91.254 E6.10042
G1 X97.913 Y90.815 E6.11668
G1 X97.683 Y90.136 E6.14104
G1 X97.506 Y89.413 E6.16634
G1 X97.413 Y88.729 E6.18981
G1 X97.374 Y87.991 E6.21490
G1 X97.390 Y87.513 E6.23117
G1 X97.433 Y87.056 E6.24675
G1 X97.507 Y86.583 E6.26302
G1 X97.590 Y86.209 E6.27604
G1 F1800.000 E5.27604
G92 E0
G1 X84.350 Y87.969 F7800.000
G1 X85.746 Y88.375
G1 F1800.000 E1.00000
G1 X85.853 Y89.164 F1200.000 E1.02706
G1 X85.896 Y90.048 E1.05711
G1 X85.852 Y90.850 E1.08442
G1 X85.747 Y91.622 E1.11089
G1 X85.624 Y92.182 E1.13037
G1 X85.467 Y92.729 E1.14969
G1 X85.281 Y93.251 E1.16854
G1 X84.954 Y93.976 E1.19555
G1 X84.536 Y94.726 E1.22473
G1 X84.216 Y95.202 E1.24422
G1 X83.829 Y95.700 E1.26564
G1 X83.274 Y96.300 E1.29342
G1 X82.655 Y96.865 E1.32190
G1 X82.215 Y97.205 E1.34078
G1 X81.752 Y97.518 E1.35976
G1 X81.306 Y97.782 E1.37738
G1 X80.855 Y98.013 E1.39460
G1 X80.293 Y98.261 E1.41546
G1 X79.484 Y98.535 E1.44448
G1 X78.641 Y98.740 E1.47397
G1 X77.841 Y98.848 E1.50140
G1 X76.971 Y98.891 E1.53098
G1 X76.124 Y98.844 E1.55980
G1 X75.329 Y98.732 E1.58710
G1 X74.765 Y98.604 E1.60674
G1 X74.238 Y98.450 E1.62538
G1 X73.742 Y98.271 E1.64332
G1 X72.970 Y97.919 E1.67215
G1 X72.221 Y97.495 E1.70137
G1 X71.795 Y97.205 E1.71889
G1 X71.355 Y96.865 E1.73777
G1 X70.736 Y96.300 E1.76625
G1 X70.181 Y95.700 E1.79403
G1 X69.794 Y95.202 E1.81545
G1 X69.509 Y94.781 E1.83274
G1 X69.228 Y94.310 E1.85138
G1 X68.947 Y93.759 E1.87239
G1 X68.723 Y93.234 E1.89176
G1 X68.489 Y92.543 E1.91656
G1 X68.278 Y91.701 E1.94605
G1 X68.162 Y90.889 E1.97392
G1 X68.114 Y89.991 E2.00449
G1 X68.133 Y89.412 E2.02417
G1 X68.186 Y88.866 E2.04281
G1 X68.267 Y88.354 E2.06043
G1 X68.401 Y87.760 E2.08110
G1 X68.555 Y87.233 E2.09974
G1 X68.734 Y86.737 E2.11768
G1 X69.086 Y85.965 E2.14651
G1 X69.510 Y85.217 E2.17573
G1 X69.800 Y84.790 E2.19325
G1 X70.135 Y84.356 E2.21189
G1 X70.544 Y83.892 E2.23290
G1 X70.933 Y83.505 E2.25154
G1 X71.353 Y83.137 E2.27052
G1 X71.763 Y82.819 E2.28814
G1 X72.216 Y82.509 E2.30678
G1 X72.748 Y82.194 E2.32779
G1 X73.237 Y81.947 E2.34643
G1 X73.713 Y81.741 E2.36405
G1 X74.286 Y81.535 E2.38473
G1 X74.813 Y81.383 E2.40337
G1 X75.319 Y81.270 E2.42099
G1 X75.871 Y81.181 E2.43997
G1 X76.417 Y81.128 E2.45860
G1 X77.025 Y81.109 E2.47928
G1 X77.543 Y81.125 E2.49690
G1 X78.090 Y81.175 E2.51554
G1 X78.691 Y81.270 E2.53621
G1 X79.197 Y81.383 E2.55383
G1 X79.724 Y81.535 E2.57247
G1 X80.268 Y81.729 E2.59210
G1 X81.040 Y82.081 E2.62094
G1 X81.788 Y82.505 E2.65016
G1 X82.215 Y82.795 E2.66768
G1 X82.649 Y83.130 E2.68632
G1 X83.106 Y83.532 E2.70699
G1 X83.473 Y83.899 E2.72461
G1 X83.836 Y84.310 E2.74325
G1 X84.216 Y84.798 E2.76426
G1 X84.523 Y85.253 E2.78290
G1 X84.785 Y85.696 E2.80040
G1 X85.162 Y86.471 E2.82968
G1 X85.468 Y87.274 E2.85889
G1 X85.612 Y87.770 E2.87641
G1 X85.728 Y88.281 E2.89424
G1 X85.111 Y88.436 F7800.000
G1 X85.219 Y89.212 F1200.000 E2.92083
G1 X85.261 Y90.015 E2.94818
G1 X85.221 Y90.765 E2.97368
G1 X85.114 Y91.550 E3.00060
G1 X84.996 Y92.072 E3.01880
G1 X84.853 Y92.561 E3.03608
G1 X84.682 Y93.036 E3.05324
G1 X84.363 Y93.736 E3.07938
G1 X83.967 Y94.437 E3.10677
G1 X83.690 Y94.844 E3.12349
G1 X83.377 Y95.249 E3.14088
G1 X82.871 Y95.804 E3.16638
G1 X82.286 Y96.346 E3.19348
G1 X81.841 Y96.691 E3.21259
G1 X81.420 Y96.976 E3.22987
G1 X80.991 Y97.230 E3.24682
G1 X80.550 Y97.455 E3.26365
G1 X80.063 Y97.668 E3.28169
G1 X79.344 Y97.914 E3.30751
G1 X78.570 Y98.106 E3.33463
G1 X77.820 Y98.212 E3.36035
G1 X77.022 Y98.256 E3.38750
G1 X76.225 Y98.215 E3.41463
G1 X75.454 Y98.109 E3.44105
G1 X74.933 Y97.991 E3.45922
G1 X74.444 Y97.848 E3.47650
G1 X73.969 Y97.677 E3.49366
G1 X73.269 Y97.358 E3.51980
G1 X72.568 Y96.962 E3.54719
G1 X72.144 Y96.673 E3.56459
G1 X71.755 Y96.371 E3.58131
G1 X71.177 Y95.842 E3.60797
G1 X70.658 Y95.280 E3.63394
G1 X70.314 Y94.836 E3.65301
G1 X70.029 Y94.415 E3.67029
G1 X69.766 Y93.968 E3.68792
G1 X69.539 Y93.524 E3.70486
G1 X69.335 Y93.055 E3.72225
G1 X69.091 Y92.339 E3.74793
G1 X68.899 Y91.565 E3.77505
G1 X68.791 Y90.788 E3.80168
G1 X68.749 Y89.997 E3.82860
G1 X68.767 Y89.462 E3.84680
G1 X68.816 Y88.955 E3.86409
G1 X68.894 Y88.463 E3.88103
G1 X69.014 Y87.928 E3.89967
G1 X69.156 Y87.439 E3.91695
G1 X69.328 Y86.964 E3.93410
G1 X69.647 Y86.264 E3.96025
G1 X70.043 Y85.563 E3.98763
G1 X70.320 Y85.156 E4.00436
G1 X70.631 Y84.753 E4.02164
G1 X71.001 Y84.334 E4.04062
