; generated by Slic3r 0.9.10b on 2013-10-15 at 23:27:14

; layer_height = 0.21
; perimeters = 2
; top_solid_layers = 3
; bottom_solid_layers = 3
; fill_density = 0.2
; perimeter_speed = 50
; infill_speed = 60
; travel_speed = 130
; nozzle_diameter = 0.4
; filament_diameter = 2.9
; extrusion_multiplier = 1.0088
; perimeters extrusion width = 0.64mm
; infill extrusion width = 0.64mm
; solid infill extrusion width = 0.64mm
; top infill extrusion width = 0.64mm
; support material extrusion width = 0.64mm
; first layer extrusion width = 0.70mm

G21 ; set units to millimeters
M107
M190 S60 ; wait for bed temperature to be reached
M104 S200 ; set temperature
G28 ; home all axes
G1 Z5 F5000 ; lift nozzle
M109 S200 ; wait for temperature to be reached
G90 ; use absolute coordinates
G92 E0
M82 ; use absolute distances for extrusion
G1 F1800.000 E-1.00000
G92 E0
G1 Z0.350 F7800.000
G1 X76.820 Y82.990
G1 F1800.000 E1.00000
G1 X77.830 Y82.170 F600.000 E1.04420
G1 X78.990 Y81.560 E1.08873
G1 X85.590 Y78.860 E1.33102
G1 X86.820 Y78.490 E1.37466
G1 X88.100 Y78.360 E1.41838
G1 X91.890 Y78.360 E1.54715
G1 X93.170 Y78.490 E1.59086
G1 X94.400 Y78.860 E1.63450
G1 X101.000 Y81.560 E1.87679
G1 X102.160 Y82.170 E1.92132
G1 X103.170 Y82.990 E1.96552
G1 X104.000 Y84.000 E2.00994
G1 X104.620 Y85.150 E2.05433
G1 X105.000 Y86.400 E2.09872
G1 X105.130 Y87.700 E2.14311
G1 X105.130 Y92.780 E2.31572
G1 X104.980 Y94.150 E2.36254
G1 X104.560 Y95.460 E2.40928
G1 X103.880 Y96.650 E2.45585
G1 X102.960 Y97.680 E2.50278
G1 X101.860 Y98.500 E2.54939
G1 X100.610 Y99.070 E2.59607
G1 X94.010 Y101.290 E2.83267
G1 X92.960 Y101.550 E2.86942
G1 X91.890 Y101.640 E2.90590
G1 X88.100 Y101.640 E3.03467
G1 X87.030 Y101.550 E3.07116
G1 X85.980 Y101.290 E3.10791
G1 X79.380 Y99.070 E3.34451
G1 X78.130 Y98.500 E3.39118
G1 X77.030 Y97.680 E3.43780
G1 X76.110 Y96.650 E3.48472
G1 X75.430 Y95.460 E3.53129
G1 X75.010 Y94.150 E3.57803
G1 X74.860 Y92.780 E3.62486
G1 X74.860 Y87.700 E3.79746
G1 X74.990 Y86.400 E3.84185
G1 X75.370 Y85.150 E3.88624
G1 X75.990 Y84.000 E3.93063
G1 X76.759 Y83.064 E3.97181
G1 F1800.000 E2.97181
G92 E0
G1 X81.504 Y87.701 F7800.000
G1 F1800.000 E1.00000
G1 X87.137 Y87.701 F600.000 E1.19140
G1 F1800.000 E0.19140
G92 E0
G1 X80.257 Y82.000 F7800.000
G1 X78.500 Y83.757
G1 X78.500 Y96.243
G1 X80.257 Y98.000
G1 X87.137 Y92.786
G1 F1800.000 E1.00000
G1 X81.504 Y92.786 F600.000 E1.19140
G1 X81.504 Y91.515 E1.23459
G1 X98.496 Y91.515 E1.81196
G1 X98.496 Y90.243 E1.85515
G1 X81.504 Y90.243 E2.43252
G1 X81.504 Y88.972 E2.47571
G1 X98.496 Y88.972 E3.05308
G1 X98.496 Y87.701 E3.09627
G1 X92.863 Y87.701 E3.28767
G1 F1800.000 E2.28767
G92 E0
G1 X91.398 Y86.500 F7800.000
G1 X91.398 Y93.500
G1 X92.863 Y92.786
G1 F1800.000 E1.00000
G1 X98.496 Y92.786 F600.000 E1.19140
G1 F1800.000 E0.19140
G92 E0
G1 X93.898 Y91.000 F7800.000
G1 X91.580 Y93.318
G1 F1800.000 E1.00000
G1 X91.580 Y94.682 F600.000 E1.04636
G1 X88.420 Y94.682 E1.15374
G1 X88.420 Y93.318 E1.20010
G1 X91.485 Y93.318 E1.30424
G1 X91.262 Y93.868 F7800.000
G1 X89.100 Y94.014
G1 X89.087 Y94.002 F600.000 E1.30487
G1 X89.980 Y93.986 E1.33556
G1 X90.009 Y94.014 E1.33697
G1 X90.890 Y93.986 E1.36723
G1 X90.913 Y94.008 E1.36834
G1 F1800.000 E0.36834
G92 E0
G1 X91.398 Y94.500 F7800.000
G1 X91.398 Y93.500
G1 X91.398 Y86.500
G1 X91.580 Y86.682
G1 F1800.000 E1.00000
G1 X88.420 Y86.682 F600.000 E1.10738
G1 X88.420 Y85.318 E1.15374
G1 X91.580 Y85.318 E1.26113
G1 X91.580 Y86.587 E1.30424
G1 X91.030 Y86.364 F7800.000
G1 X89.283 Y86.014
G1 X89.254 Y85.986 F600.000 E1.30564
G1 X90.163 Y85.986 F7800.000
G1 X90.192 Y86.014 F600.000 E1.30703
M106 S650
G1 F1800.000 E0.30703
G92 E0
G1 Z0.560 F7800.000
G1 X90.500 Y87.965
G1 F1800.000 E1.00000
G1 X90.500 Y92.035 F600.000 E1.07811
G1 X92.000 Y92.035 F7800.000
G1 X92.000 Y87.965 F600.000 E1.15621
G1 X93.500 Y87.965 F7800.000
G1 X93.500 Y92.035 F600.000 E1.23432
G1 X94.007 Y92.675 F7800.000
G1 X95.000 Y92.675 F600.000 E1.25337
G1 X95.000 Y87.325 E1.35604
G1 X96.500 Y87.325 E1.38483
G1 X96.500 Y92.675 E1.48750
G1 X98.000 Y92.675 E1.51628
G1 X98.000 Y87.325 E1.61895
G1 F1800.000 E0.61895
G92 E0
G1 X95.042 Y89.000 F7800.000
G1 X89.000 Y87.965
G1 F1800.000 E1.00000
G1 X89.000 Y92.035 F600.000 E1.07811
G1 X87.500 Y92.035 F7800.000
G1 X87.500 Y87.965 F600.000 E1.15621
G1 X86.000 Y87.965 F7800.000
G1 X86.000 Y92.035 F600.000 E1.23432
G1 X85.993 Y92.675 F7800.000
G1 X84.500 Y92.675 F600.000 E1.26297
G1 X84.500 Y87.325 E1.36564
G1 X83.000 Y87.325 E1.39442
G1 X83.000 Y92.675 E1.49709
G1 F1800.000 E0.49709
G92 E0
G1 X84.958 Y91.000 F7800.000
G1 X87.257 Y93.299
G1 F1800.000 E1.00000
G1 X92.743 Y93.299 F600.000 E1.10528
G1 X92.743 Y94.701 E1.13218
G1 X87.257 Y94.701 E1.23746
G1 X87.257 Y93.389 E1.26263
G1 X87.776 Y93.598 F7800.000
G1 X92.096 Y93.920
G1 X91.936 Y94.080 F600.000 E1.26699
G1 X91.248 Y93.920 E1.28059
G1 X91.088 Y94.080 E1.28494
G1 X90.399 Y93.920 E1.29855
G1 X90.239 Y94.080 E1.30290
G1 X89.551 Y93.920 E1.31650
G1 X89.391 Y94.080 E1.32086
G1 X88.702 Y93.920 E1.33446
G1 X88.542 Y94.080 E1.33881
G1 F1800.000 E0.33881
G92 E0
G1 X87.458 Y94.500 F7800.000
G1 X87.458 Y93.500
G1 X87.458 Y86.500
G1 X87.257 Y86.701
G1 F1800.000 E1.00000
G1 X87.257 Y85.299 F600.000 E1.02690
G1 X92.743 Y85.299 E1.13218
G1 X92.743 Y86.701 E1.15908
G1 X87.347 Y86.701 E1.26263
G1 X87.556 Y86.183 F7800.000
G1 X91.611 Y85.920
G1 X91.451 Y86.080 F600.000 E1.26698
G1 X90.762 Y85.920 F7800.000
G1 X90.602 Y86.080 F600.000 E1.27132
G1 X89.914 Y85.920 F7800.000
G1 X89.754 Y86.080 F600.000 E1.27566
G1 X89.065 Y85.920 F7800.000
G1 X88.905 Y86.080 F600.000 E1.28000
G1 X88.217 Y85.920 F7800.000
G1 X88.057 Y86.080 F600.000 E1.28434
G1 F1800.000 E0.28434
G92 E0
G1 Z0.770 F7800.000
G1 X87.500 Y87.965
G1 F1800.000 E1.00000
G1 X87.500 Y92.035 F600.000 E1.07811
G1 X89.000 Y92.035 F7800.000
G1 X89.000 Y87.965 F600.000 E1.15621
G1 X90.500 Y87.965 F7800.000
G1 X90.500 Y92.035 F600.000 E1.23432
G1 X92.000 Y92.035 F7800.000
G1 X92.000 Y87.965 F600.000 E1.31242
G1 X93.500 Y87.965 F7800.000
G1 X93.500 Y92.035 F600.000 E1.39053
G1 X94.630 Y92.675 F7800.000
G1 X95.000 Y92.675 F600.000 E1.39764
G1 X95.000 Y87.325 E1.50030
G1 X96.500 Y87.325 E1.52909
G1 X96.500 Y92.675 E1.63176
G1 X98.000 Y92.675 E1.66055
G1 X98.000 Y87.325 E1.76321
G1 F1800.000 E0.76321
G92 E0
G1 X95.664 Y89.000 F7800.000
G1 X86.000 Y87.965
G1 F1800.000 E1.00000
G1 X86.000 Y92.035 F600.000 E1.07811
G1 X85.370 Y92.675 F7800.000
G1 X84.500 Y92.675 F600.000 E1.09481
G1 X84.500 Y87.325 E1.19748
G1 X83.000 Y87.325 E1.22627
G1 X83.000 Y92.675 E1.32893
G1 F1800.000 E0.32893
G92 E0
G1 X84.336 Y91.000 F7800.000
G1 X86.635 Y93.299
G1 F1800.000 E1.00000
G1 X93.365 Y93.299 F600.000 E1.12917
G1 X93.365 Y94.701 E1.15607
G1 X86.635 Y94.701 E1.28525
G1 X86.635 Y93.389 E1.31043
G1 X87.153 Y93.598 F7800.000
G1 X87.469 Y94.080
G1 X87.309 Y93.920 F600.000 E1.31478
G1 X88.157 Y93.920 E1.33111
G1 X88.317 Y94.080 E1.33546
G1 X89.006 Y93.920 E1.34906
G1 X89.166 Y94.080 E1.35342
G1 X89.854 Y93.920 E1.36702
G1 X90.014 Y94.080 E1.37137
G1 X90.703 Y93.920 E1.38498
G1 X90.863 Y94.080 E1.38933
G1 X91.551 Y93.920 E1.40293
G1 X91.711 Y94.080 E1.40729
G1 X92.400 Y93.920 E1.42089
G1 X92.560 Y94.080 E1.42524
G1 F1800.000 E0.42524
G92 E0
G1 X93.164 Y94.500 F7800.000
G1 X93.164 Y93.500
G1 X93.164 Y86.500
G1 X93.365 Y86.701
G1 F1800.000 E1.00000
G1 X86.635 Y86.701 F600.000 E1.12917
G1 X86.635 Y85.299 E1.15607
G1 X93.365 Y85.299 E1.28525
G1 X93.365 Y86.611 E1.31043
G1 X92.847 Y86.402 F7800.000
G1 X87.954 Y86.080
G1 X87.794 Y85.920 F600.000 E1.31477
G1 X88.643 Y85.920 F7800.000
G1 X88.803 Y86.080 F600.000 E1.31911
G1 X89.491 Y85.920 F7800.000
G1 X89.651 Y86.080 F600.000 E1.32345
G1 X90.340 Y85.920 F7800.000
G1 X90.500 Y86.080 F600.000 E1.32779
G1 X91.188 Y85.920 F7800.000
G1 X91.348 Y86.080 F600.000 E1.33213
G1 X92.037 Y85.920 F7800.000
G1 X92.197 Y86.080 F600.000 E1.33647
G1 F1800.000 E0.33647
G92 E0
G1 Z0.980 F7800.000
G1 X92.000 Y87.965
G1 F1800.000 E1.00000
G1 X92.000 Y92.035 F600.000 E1.07811
G1 X93.500 Y92.035 F7800.000
G1 X93.500 Y87.965 F600.000 E1.15621
G1 X95.000 Y87.965 F7800.000
G1 X95.000 Y92.035 F600.000 E1.23432
G1 X90.500 Y92.035 F7800.000
G1 X90.500 Y87.965 F600.000 E1.31242
G1 X89.000 Y87.965 F7800.000
G1 X89.000 Y92.035 F600.000 E1.39053
G1 X87.500 Y92.035 F7800.000
G1 X87.500 Y87.965 F600.000 E1.46863
G1 X86.000 Y87.965 F7800.000
G1 X86.000 Y92.035 F600.000 E1.54674
G1 X84.851 Y92.675 F7800.000
G1 X84.500 Y92.675 F600.000 E1.55348
G1 X84.500 Y87.325 E1.65615
G1 X83.000 Y87.325 E1.68494
G1 X83.000 Y92.675 E1.78760
G1 F1800.000 E0.78760
G92 E0
G1 X83.817 Y91.000 F7800.000
G1 X95.149 Y87.325
G1 F1800.000 E1.00000
G1 X96.500 Y87.325 F600.000 E1.02594
G1 X96.500 Y92.675 E1.12860
G1 X98.000 Y92.675 E1.15739
G1 X98.000 Y87.325 E1.26006
G1 F1800.000 E0.26006
G92 E0
G1 X96.183 Y89.000 F7800.000
G1 X93.884 Y93.299
G1 F1800.000 E1.00000
G1 X93.884 Y94.701 F600.000 E1.02690
G1 X86.116 Y94.701 E1.17600
G1 X86.116 Y93.299 E1.20290
G1 X93.795 Y93.299 E1.35027
G1 X93.585 Y93.817 F7800.000
G1 X92.945 Y93.920
G1 X92.785 Y94.080 F600.000 E1.35461
G1 X92.096 Y93.920 F7800.000
G1 X91.936 Y94.080 F600.000 E1.35895
G1 X91.248 Y93.920 F7800.000
G1 X91.088 Y94.080 F600.000 E1.36329
G1 X90.399 Y93.920 F7800.000
G1 X90.239 Y94.080 F600.000 E1.36764
G1 X89.551 Y93.920 F7800.000
G1 X89.391 Y94.080 F600.000 E1.37198
G1 X88.702 Y93.920 F7800.000
G1 X88.542 Y94.080 F600.000 E1.37632
G1 X87.853 Y93.920 F7800.000
G1 X87.694 Y94.080 F600.000 E1.38066
G1 X87.005 Y93.920 F7800.000
G1 X86.845 Y94.080 F600.000 E1.38500
G1 F1800.000 E0.38500
G92 E0
G1 X86.317 Y94.500 F7800.000
G1 X86.317 Y93.500
G1 X86.317 Y86.500
G1 X86.116 Y86.701
G1 F1800.000 E1.00000
G1 X86.116 Y85.299 F600.000 E1.02690
G1 X93.884 Y85.299 E1.17600
G1 X93.884 Y86.701 E1.20290
G1 X86.205 Y86.701 E1.35027
G1 X86.415 Y86.183 F7800.000
G1 X87.368 Y85.920
G1 X87.208 Y86.080 F600.000 E1.35461
G1 X88.217 Y85.920 F7800.000
G1 X88.057 Y86.080 F600.000 E1.35895
G1 X89.065 Y85.920 F7800.000
G1 X88.905 Y86.080 F600.000 E1.36329
G1 X89.914 Y85.920 F7800.000
G1 X89.754 Y86.080 F600.000 E1.36764
G1 X90.762 Y85.920 F7800.000
G1 X90.602 Y86.080 F600.000 E1.37198
G1 X91.611 Y85.920 F7800.000
G1 X91.451 Y86.080 F600.000 E1.37632
G1 X92.459 Y85.920 F7800.000
G1 X92.299 Y86.080 F600.000 E1.38066
G1 X93.263 Y85.964 F7800.000
G1 X93.148 Y86.080 F600.000 E1.38379
G1 F1800.000 E0.38379
G92 E0
G1 Z1.190 F7800.000
G1 X93.500 Y87.965
G1 F1800.000 E1.00000
G1 X93.500 Y92.035 F600.000 E1.07811
G1 X95.000 Y92.035 F7800.000
G1 X95.000 Y87.965 F600.000 E1.15621
G1 X95.604 Y87.325 F7800.000
G1 X96.500 Y87.325 F600.000 E1.17341
G1 X96.500 Y92.675 E1.27607
G1 X98.000 Y92.675 E1.30486
G1 X98.000 Y87.325 E1.40753
G1 F1800.000 E0.40753
G92 E0
G1 X96.639 Y89.000 F7800.000
G1 X92.000 Y87.965
G1 F1800.000 E1.00000
G1 X92.000 Y92.035 F600.000 E1.07811
G1 X90.500 Y92.035 F7800.000
G1 X90.500 Y87.965 F600.000 E1.15621
G1 X89.000 Y87.965 F7800.000
G1 X89.000 Y92.035 F600.000 E1.23432
G1 X87.500 Y92.035 F7800.000
G1 X87.500 Y87.965 F600.000 E1.31242
G1 X86.000 Y87.965 F7800.000
G1 X86.000 Y92.035 F600.000 E1.39053
G1 X84.500 Y92.035 F7800.000
G1 X84.500 Y87.965 F600.000 E1.46863
G1 X84.396 Y87.325 F7800.000
G1 X83.000 Y87.325 F600.000 E1.49542
G1 X83.000 Y92.675 E1.59809
G1 F1800.000 E0.59809
G92 E0
G1 X83.361 Y91.000 F7800.000
G1 X85.660 Y93.299
G1 F1800.000 E1.00000
G1 X94.340 Y93.299 F600.000 E1.16658
G1 X94.340 Y94.701 E1.19348
G1 X85.660 Y94.701 E1.36005
G1 X85.660 Y93.389 E1.38523
G1 X86.179 Y93.598 F7800.000
G1 X86.620 Y94.080
G1 X86.460 Y93.920 F600.000 E1.38957
G1 X87.309 Y93.920 F7800.000
G1 X87.469 Y94.080 F600.000 E1.39391
G1 X88.157 Y93.920 F7800.000
G1 X88.317 Y94.080 F600.000 E1.39825
G1 X89.006 Y93.920 F7800.000
G1 X89.166 Y94.080 F600.000 E1.40260
G1 X89.854 Y93.920 F7800.000
G1 X90.014 Y94.080 F600.000 E1.40694
G1 X90.703 Y93.920 F7800.000
G1 X90.863 Y94.080 F600.000 E1.41128
G1 X91.551 Y93.920 F7800.000
G1 X91.711 Y94.080 F600.000 E1.41562
G1 X92.400 Y93.920 F7800.000
G1 X92.560 Y94.080 F600.000 E1.41996
G1 X93.248 Y93.920 F7800.000
G1 X93.408 Y94.080 F600.000 E1.42430
G1 F1800.000 E0.42430
G92 E0
G1 X94.139 Y94.500 F7800.000
G1 X94.139 Y93.500
G1 X94.139 Y86.500
G1 X94.340 Y86.701
G1 F1800.000 E1.00000
G1 X85.660 Y86.701 F600.000 E1.16658
G1 X85.660 Y85.299 E1.19348
G1 X94.340 Y85.299 E1.36005
G1 X94.340 Y86.611 E1.38523
G1 X93.821 Y86.402 F7800.000
G1 X92.885 Y85.920
G1 X93.045 Y86.080 F600.000 E1.38957
G1 X92.037 Y85.920 F7800.000
G1 X92.197 Y86.080 F600.000 E1.39391
G1 X91.188 Y85.920 F7800.000
G1 X91.348 Y86.080 F600.000 E1.39825
G1 X90.340 Y85.920 F7800.000
G1 X90.500 Y86.080 F600.000 E1.40260
G1 X89.491 Y85.920 F7800.000
G1 X89.651 Y86.080 F600.000 E1.40694
G1 X88.643 Y85.920 F7800.000
G1 X88.803 Y86.080 F600.000 E1.41128
G1 X87.794 Y85.920 F7800.000
G1 X87.954 Y86.080 F600.000 E1.41562
G1 X87.105 Y86.080 F7800.000
G1 X86.946 Y85.920 F600.000 E1.41996
G1 F1800.000 E0.41996
G92 E0
G1 Z1.400 F7800.000
G1 X85.449 Y85.500
G1 X85.449 Y86.500
G1 X87.500 Y87.965
G1 F1800.000 E1.00000
G1 X87.500 Y92.035 F600.000 E1.07811
G1 X89.000 Y92.035 F7800.000
G1 X89.000 Y87.965 F600.000 E1.15621
G1 X90.500 Y87.965 F7800.000
G1 X90.500 Y92.035 F600.000 E1.23432
G1 X92.000 Y92.035 F7800.000
G1 X92.000 Y87.965 F600.000 E1.31242
G1 X93.500 Y87.965 F7800.000
G1 X93.500 Y92.035 F600.000 E1.39053
G1 X95.000 Y92.035 F7800.000
G1 X95.000 Y87.965 F600.000 E1.46863
G1 X96.016 Y87.325 F7800.000
G1 X96.500 Y87.325 F600.000 E1.47792
G1 X96.500 Y92.675 E1.58059
G1 X98.000 Y92.675 E1.60937
G1 X98.000 Y87.325 E1.71204
G1 F1800.000 E0.71204
G92 E0
G1 X97.051 Y89.000 F7800.000
G1 X86.000 Y87.965
G1 F1800.000 E1.00000
G1 X86.000 Y92.035 F600.000 E1.07811
G1 X84.500 Y92.035 F7800.000
G1 X84.500 Y87.965 F600.000 E1.15621
G1 X83.984 Y87.325 F7800.000
G1 X83.000 Y87.325 F600.000 E1.17509
G1 X83.000 Y92.675 E1.27776
G1 F1800.000 E0.27776
G92 E0
G1 X85.449 Y93.500 F7800.000
G1 X85.248 Y93.299
G1 F1800.000 E1.00000
G1 X94.752 Y93.299 F600.000 E1.18240
G1 X94.752 Y94.701 E1.20930
G1 X85.248 Y94.701 E1.39169
G1 X85.248 Y93.389 E1.41687
G1 X85.766 Y93.598 F7800.000
G1 X93.793 Y93.920
G1 X93.633 Y94.080 F600.000 E1.42121
G1 X92.945 Y93.920 F7800.000
G1 X92.785 Y94.080 F600.000 E1.42555
G1 X92.096 Y93.920 F7800.000
G1 X91.936 Y94.080 F600.000 E1.42989
G1 X91.248 Y93.920 F7800.000
G1 X91.088 Y94.080 F600.000 E1.43423
G1 X90.399 Y93.920 F7800.000
G1 X90.239 Y94.080 F600.000 E1.43857
G1 X89.551 Y93.920 F7800.000
G1 X89.391 Y94.080 F600.000 E1.44291
G1 X88.702 Y93.920 F7800.000
G1 X88.542 Y94.080 F600.000 E1.44726
G1 X87.853 Y93.920 F7800.000
G1 X87.694 Y94.080 F600.000 E1.45160
G1 X87.005 Y93.920 F7800.000
G1 X86.845 Y94.080 F600.000 E1.45594
G1 X86.156 Y93.920 F7800.000
G1 X85.996 Y94.080 F600.000 E1.46028
G1 F1800.000 E0.46028
G92 E0
G1 X85.449 Y94.500 F7800.000
G1 X85.449 Y93.500
G1 X85.449 Y86.500
G1 X85.248 Y86.701
G1 F1800.000 E1.00000
G1 X85.248 Y85.299 F600.000 E1.02690
G1 X94.752 Y85.299 E1.20930
G1 X94.752 Y86.701 E1.23620
G1 X85.338 Y86.701 E1.41687
G1 X85.547 Y86.183 F7800.000
G1 X86.520 Y85.920
G1 X86.360 Y86.080 F600.000 E1.42121
G1 X87.368 Y85.920 F7800.000
G1 X87.208 Y86.080 F600.000 E1.42555
G1 X88.217 Y85.920 F7800.000
G1 X88.057 Y86.080 F600.000 E1.42989
G1 X89.065 Y85.920 F7800.000
G1 X88.905 Y86.080 F600.000 E1.43423
G1 X89.914 Y85.920 F7800.000
G1 X89.754 Y86.080 F600.000 E1.43857
G1 X90.762 Y85.920 F7800.000
G1 X90.602 Y86.080 F600.000 E1.44291
G1 X91.611 Y85.920 F7800.000
G1 X91.451 Y86.080 F600.000 E1.44726
G1 X92.459 Y85.920 F7800.000
G1 X92.299 Y86.080 F600.000 E1.45160
G1 X93.308 Y85.920 F7800.000
G1 X93.148 Y86.080 F600.000 E1.45594
G1 X94.131 Y85.946 F7800.000
G1 X93.996 Y86.080 F600.000 E1.45959
G1 F1800.000 E0.45959
G92 E0
G1 Z1.610 F7800.000
G1 X93.500 Y87.965
G1 F1800.000 E1.00000
G1 X93.500 Y92.035 F600.000 E1.07811
G1 X95.000 Y92.035 F7800.000
G1 X95.000 Y87.965 F600.000 E1.15621
G1 X96.372 Y87.325 F7800.000
G1 X96.500 Y87.325 F600.000 E1.15866
G1 X96.500 Y92.675 E1.26133
G1 X98.000 Y92.675 E1.29012
G1 X98.000 Y87.325 E1.39279
G1 F1800.000 E0.39279
G92 E0
G1 X97.407 Y89.000 F7800.000
