; generated by Slic3r 0.9.10b on 2013-10-17 at 00:19:22

; layer_height = 0.21
; perimeters = 2
; top_solid_layers = 3
; bottom_solid_layers = 3
; fill_density = 0.2
; perimeter_speed = 50
; infill_speed = 60
; travel_speed = 130
; nozzle_diameter = 0.4
; filament_diameter = 2.9
; extrusion_multiplier = 1.0088
; perimeters extrusion width = 0.64mm
; infill extrusion width = 0.64mm
; solid infill extrusion width = 0.64mm
; top infill extrusion width = 0.64mm
; support material extrusion width = 0.64mm
; first layer extrusion width = 0.70mm

G21 ; set units to millimeters
M107
M190 S60 ; wait for bed temperature to be reached
M104 S200 ; set temperature
G28 ; home all axes
G1 Z5 F5000 ; lift nozzle
M109 S200 ; wait for temperature to be reached
G90 ; use absolute coordinates
G92 E0
M82 ; use absolute distances for extrusion
G1 F1800.000 E-1.00000
G92 E0
G1 Z0.350 F7800.000
G1 X67.410 Y80.310
G1 F1800.000 E1.00000
G1 X68.410 Y79.480 F850.912 E1.04416
G1 X69.560 Y78.870 E1.08839
G1 X70.810 Y78.490 E1.13278
G1 X72.100 Y78.360 E1.17683
G1 X84.890 Y78.360 E1.61139
G1 X85.700 Y78.410 E1.63897
G1 X106.010 Y80.910 E2.33425
G1 X107.350 Y81.220 E2.38098
G1 X108.590 Y81.800 E2.42749
G1 X109.690 Y82.610 E2.47391
G1 X110.600 Y83.640 E2.52060
G1 X111.280 Y84.830 E2.56717
G1 X111.690 Y86.140 E2.61381
G1 X111.840 Y87.500 E2.66030
G1 X111.840 Y92.500 E2.83018
G1 X111.690 Y93.860 E2.87667
G1 X111.280 Y95.170 E2.92331
G1 X110.600 Y96.360 E2.96988
G1 X109.690 Y97.390 E3.01658
G1 X108.590 Y98.200 E3.06299
G1 X107.350 Y98.780 E3.10951
G1 X106.010 Y99.090 E3.15624
G1 X85.700 Y101.590 E3.85152
G1 X84.890 Y101.640 E3.87909
G1 X72.100 Y101.640 E4.31366
G1 X70.810 Y101.510 E4.35771
G1 X69.560 Y101.130 E4.40210
G1 X68.410 Y100.520 E4.44633
G1 X67.410 Y99.690 E4.49048
G1 X66.580 Y98.690 E4.53464
G1 X65.970 Y97.540 E4.57887
G1 X65.590 Y96.290 E4.62326
G1 X65.460 Y95.000 E4.66731
G1 X65.460 Y85.000 E5.00708
G1 X65.590 Y83.710 E5.05113
G1 X65.970 Y82.460 E5.09553
G1 X66.580 Y81.310 E5.13976
G1 X67.349 Y80.383 E5.18067
G1 F1800.000 E4.18067
G92 E0
G1 X72.427 Y93.318 F7800.000
G1 F1800.000 E1.00000
G1 X84.573 Y93.318 F600.000 E1.41266
G1 X84.573 Y94.682 E1.45902
G1 X72.427 Y94.682 E1.87168
G1 X72.427 Y93.413 E1.91480
G1 X72.978 Y93.636 F7800.000
G1 F1800.000 E0.91480
G92 E0
G1 X66.760 Y98.000 F7800.000
G1 X65.002 Y96.243
G1 X65.002 Y83.757
G1 X66.759 Y82.000
G1 X72.427 Y86.682
G1 F1800.000 E1.00000
G1 X72.427 Y85.318 F600.000 E1.04636
G1 X84.573 Y85.318 E1.45902
G1 X84.573 Y86.682 E1.50538
G1 X72.523 Y86.682 E1.91480
G1 X72.745 Y86.132 F7800.000
G1 F1800.000 E0.91480
G92 E0
G1 X72.610 Y86.500 F7800.000
G1 X84.391 Y86.500
G1 X84.866 Y89.166
G1 F1800.000 E1.00000
G1 X84.888 Y92.500 F600.000 E1.11327
G1 F1800.000 E0.11327
G92 E0
G1 X84.391 Y93.500 F7800.000
G1 X84.391 Y86.500
G1 X84.866 Y89.166
G1 F1800.000 E1.00000
G1 X84.862 Y88.500 F600.000 E1.02265
G1 X84.862 Y88.500 F7800.000
G1 X84.858 Y87.500 F600.000 E1.05662
G1 X84.858 Y87.500 F7800.000
G1 X84.856 Y87.500 F600.000 E1.05669
G1 X84.856 Y87.500 F7800.000
G1 X84.856 Y87.167 F600.000 E1.06800
G1 F1800.000 E0.06800
G92 E0
G1 X84.391 Y86.500 F7800.000
G1 X84.391 Y85.500
G1 X83.027 Y85.986
G1 F1800.000 E1.00000
G1 X83.056 Y86.014 F600.000 E1.00139
G1 X82.118 Y85.986 F7800.000
G1 X82.146 Y86.014 F600.000 E1.00278
G1 X81.208 Y85.986 F7800.000
G1 X81.237 Y86.014 F600.000 E1.00418
G1 X80.299 Y85.986 F7800.000
G1 X80.328 Y86.014 F600.000 E1.00557
G1 X79.390 Y85.986 F7800.000
G1 X79.419 Y86.014 F600.000 E1.00696
G1 X78.481 Y85.986 F7800.000
G1 X78.510 Y86.014 F600.000 E1.00835
G1 X77.572 Y85.986 F7800.000
G1 X77.601 Y86.014 F600.000 E1.00974
G1 X76.663 Y85.986 F7800.000
G1 X76.692 Y86.014 F600.000 E1.01113
G1 X75.754 Y85.986 F7800.000
G1 X75.783 Y86.014 F600.000 E1.01253
G1 X74.844 Y85.986 F7800.000
G1 X74.873 Y86.014 F600.000 E1.01392
G1 X73.964 Y86.014 F7800.000
G1 X73.935 Y85.986 F600.000 E1.01531
G1 F1800.000 E0.01531
G92 E0
G1 X72.610 Y85.500 F7800.000
G1 X72.610 Y86.500
G1 X72.610 Y93.500
G1 X72.610 Y94.500
G1 X73.782 Y94.014
G1 F1800.000 E1.00000
G1 X73.753 Y93.986 F600.000 E1.00141
G1 X74.662 Y93.986 E1.03265
G1 X74.691 Y94.014 E1.03406
G1 X75.571 Y93.986 E1.06432
G1 X75.600 Y94.014 E1.06573
G1 X76.480 Y93.986 E1.09599
G1 X76.509 Y94.014 E1.09740
G1 X77.390 Y93.986 E1.12766
G1 X77.419 Y94.014 E1.12907
G1 X78.299 Y93.986 E1.15933
G1 X78.328 Y94.014 E1.16074
G1 X79.208 Y93.986 E1.19100
G1 X79.237 Y94.014 E1.19241
G1 X80.117 Y93.986 E1.22267
G1 X80.146 Y94.014 E1.22408
G1 X81.026 Y93.986 E1.25434
G1 X81.055 Y94.014 E1.25575
G1 X81.935 Y93.986 E1.28601
G1 X81.964 Y94.014 E1.28742
G1 X82.844 Y93.986 E1.31768
G1 X82.873 Y94.014 E1.31909
G1 X83.754 Y93.986 E1.34935
G1 X83.783 Y94.014 E1.35076
G1 F1800.000 E0.35076
G92 E0
G1 X84.391 Y94.500 F7800.000
G1 X84.391 Y93.500
G1 X88.000 Y92.000
G1 X88.453 Y91.547
G1 F1800.000 E1.00000
G1 X88.453 Y88.453 F600.000 E1.10510
G1 X97.333 Y88.453 E1.40681
G1 X97.079 Y89.041 E1.42858
G1 X96.978 Y89.352 E1.43969
G1 X96.917 Y89.674 E1.45080
G1 X96.896 Y90.000 E1.46191
G1 X96.917 Y90.326 E1.47302
G1 X96.978 Y90.648 E1.48413
G1 X97.079 Y90.959 E1.49524
G1 X97.333 Y91.547 E1.51701
G1 X88.549 Y91.547 E1.81549
G1 X87.818 Y92.182 F7800.000
G1 X87.818 Y87.818 F600.000 E1.96378
G1 X99.258 Y87.818 E2.35248
G1 X99.286 Y88.014 E2.35921
G1 X98.892 Y88.128 E2.37315
G1 X98.552 Y88.275 E2.38573
G1 X98.246 Y88.484 E2.39832
G1 X97.984 Y88.746 E2.41090
G1 X97.775 Y89.052 E2.42349
G1 X97.670 Y89.276 E2.43188
G1 X97.567 Y89.631 E2.44447
G1 X97.532 Y90.000 E2.45705
G1 X97.567 Y90.369 E2.46964
G1 X97.670 Y90.724 E2.48223
G1 X97.775 Y90.948 E2.49062
G1 X97.984 Y91.254 E2.50321
G1 X98.246 Y91.516 E2.51579
G1 X98.552 Y91.725 E2.52838
G1 X98.892 Y91.872 E2.54096
G1 X99.286 Y91.986 E2.55490
G1 X99.258 Y92.182 E2.56163
G1 X87.913 Y92.182 E2.94709
G1 X88.136 Y91.632 F7800.000
G1 X88.000 Y92.000
G1 X99.042 Y92.000
G1 X99.752 Y92.000
G1 X101.852 Y90.148
G1 X101.667 Y88.453
G1 X104.249 Y88.453 F600.000 E3.03481
G1 X104.249 Y91.547 E3.13991
G1 X101.667 Y91.547 E3.22762
G1 X101.921 Y90.958 E3.24940
G1 X102.022 Y90.648 E3.26049
G1 X102.083 Y90.326 E3.27162
G1 X102.104 Y90.000 E3.28272
G1 X102.083 Y89.674 E3.29382
G1 X102.022 Y89.352 E3.30495
G1 X101.921 Y89.042 E3.31604
G1 X101.705 Y88.541 E3.33458
G1 X101.162 Y88.946 F7800.000
G1 X100.935 Y88.653 F600.000 E3.34716
G1 X100.754 Y88.484 E3.35556
G1 X100.555 Y88.338 E3.36396
G1 X100.224 Y88.170 E3.37654
G1 X99.714 Y88.014 E3.39467
G1 X99.742 Y87.818 E3.40141
G1 X104.884 Y87.818 E3.57612
G1 X104.884 Y92.182 E3.72441
G1 X99.742 Y92.182 E3.89913
G1 X99.714 Y91.986 E3.90586
G1 X100.224 Y91.830 E3.92399
G1 X100.448 Y91.725 E3.93239
G1 X100.657 Y91.592 E3.94078
G1 X100.847 Y91.435 E3.94918
G1 X101.016 Y91.254 E3.95758
G1 X101.162 Y91.054 E3.96598
G1 X101.281 Y90.838 E3.97437
G1 X101.372 Y90.608 E3.98277
G1 X101.433 Y90.369 E3.99117
G1 X101.464 Y90.124 E3.99956
G1 X101.464 Y89.876 E4.00796
G1 X101.433 Y89.631 E4.01636
G1 X101.372 Y89.392 E4.02476
G1 X101.210 Y89.028 E4.03829
G1 X101.326 Y88.614 F7800.000
G1 X99.959 Y88.000
G1 X99.143 Y88.000
G1 X98.994 Y88.287
G1 X99.073 Y88.315 F600.000 E4.04113
G1 X99.073 Y88.315 F7800.000
G1 X99.281 Y88.188 F600.000 E4.04939
G1 X99.281 Y88.188 F7800.000
G1 X99.514 Y88.136 F600.000 E4.05750
G1 X99.514 Y88.136 F7800.000
G1 X99.717 Y88.196 F600.000 E4.06471
G1 X99.717 Y88.196 F7800.000
G1 X99.998 Y88.297 F600.000 E4.07484
G1 X99.959 Y88.000 F7800.000
G1 X101.852 Y90.148
G1 X99.752 Y92.000
G1 X99.742 Y91.798
G1 X99.501 Y91.876 F600.000 E4.08345
G1 X99.061 Y91.685 E4.09974
G1 X99.061 Y91.685 F7800.000
G1 X99.003 Y91.703 F600.000 E4.10183
G1 X99.042 Y92.000 F7800.000
G1 X99.752 Y92.000
G1 X101.852 Y90.148
G1 X102.463 Y90.876
G1 X102.673 Y91.086 F1021.094 E4.11194
G1 X103.582 Y91.086 F7800.000
G1 X102.561 Y90.065 F1021.094 E4.16101
G1 X102.450 Y89.045 F7800.000
G1 X103.788 Y90.382 F1021.094 E4.22529
G1 X103.788 Y89.473 F7800.000
G1 X103.229 Y88.914 F1021.094 E4.25215
G1 X104.702 Y88.000 F7800.000
G1 X99.752 Y92.000
G1 X99.042 Y92.000
G1 X97.154 Y89.989
G1 X96.486 Y89.445
G1 X95.956 Y88.914 F1021.094 E4.27765
G1 X95.047 Y88.914 F7800.000
G1 X96.455 Y90.323 F1021.094 E4.34533
G1 X96.309 Y91.086 F7800.000
G1 X94.138 Y88.914 F1021.094 E4.44969
G1 X93.228 Y88.914 F7800.000
G1 X95.400 Y91.086 F1021.094 E4.55404
G1 X94.491 Y91.086 F7800.000
G1 X92.319 Y88.914 F1021.094 E4.65839
G1 X91.410 Y88.914 F7800.000
G1 X93.582 Y91.086 F1021.094 E4.76275
G1 X92.673 Y91.086 F7800.000
G1 X90.501 Y88.914 F1021.094 E4.86710
G1 X89.592 Y88.914 F7800.000
G1 X91.764 Y91.086 F1021.094 E4.97145
G1 X90.854 Y91.086 F7800.000
G1 X88.914 Y89.146 F1021.094 E5.06468
G1 X88.914 Y90.055 F7800.000
G1 X89.945 Y91.086 F1021.094 E5.11423
G1 X89.036 Y91.086 F7800.000
G1 X88.914 Y90.964 F1021.094 E5.12009
M106 S650
G1 F1800.000 E4.12009
G92 E0
G1 Z0.560 F7800.000
G1 X88.000 Y92.000
G1 X84.744 Y93.500
G1 X84.945 Y93.299
G1 F1800.000 E1.00000
G1 X84.945 Y94.701 F600.000 E1.02690
G1 X72.055 Y94.701 E1.27430
G1 X72.055 Y93.299 E1.30120
G1 X84.855 Y93.299 E1.54688
G1 X84.646 Y93.817 F7800.000
G1 F1800.000 E0.54688
G92 E0
G1 X84.744 Y93.500 F7800.000
G1 X84.744 Y86.500
G1 X84.945 Y86.701
G1 F1800.000 E1.00000
G1 X72.055 Y86.701 F600.000 E1.24740
G1 X72.055 Y85.299 E1.27430
G1 X84.945 Y85.299 E1.52170
G1 X84.945 Y86.611 E1.54688
G1 X84.427 Y86.402 F7800.000
G1 F1800.000 E0.54688
G92 E0
G1 X84.744 Y86.500 F7800.000
G1 X84.744 Y93.500
G1 X85.235 Y92.526
G1 F1800.000 E1.00000
G1 X85.240 Y92.526 F600.000 E1.00009
G1 X85.235 Y92.526 F7800.000
G1 X85.159 Y87.158 F600.000 E1.10313
G1 X84.050 Y85.920 F7800.000
G1 X83.891 Y86.080 F600.000 E1.10747
G1 X83.202 Y85.920 F7800.000
G1 X83.042 Y86.080 F600.000 E1.11181
G1 X82.353 Y85.920 F7800.000
G1 X82.193 Y86.080 F600.000 E1.11615
G1 X81.505 Y85.920 F7800.000
G1 X81.345 Y86.080 F600.000 E1.12050
G1 X80.656 Y85.920 F7800.000
G1 X80.496 Y86.080 F600.000 E1.12484
G1 X79.808 Y85.920 F7800.000
G1 X79.648 Y86.080 F600.000 E1.12918
G1 X78.959 Y85.920 F7800.000
G1 X78.799 Y86.080 F600.000 E1.13352
G1 X78.111 Y85.920 F7800.000
G1 X77.951 Y86.080 F600.000 E1.13786
G1 X77.262 Y85.920 F7800.000
G1 X77.102 Y86.080 F600.000 E1.14220
G1 X76.414 Y85.920 F7800.000
G1 X76.254 Y86.080 F600.000 E1.14654
G1 X75.565 Y85.920 F7800.000
G1 X75.405 Y86.080 F600.000 E1.15088
G1 X74.717 Y85.920 F7800.000
G1 X74.557 Y86.080 F600.000 E1.15522
G1 X73.868 Y85.920 F7800.000
G1 X73.708 Y86.080 F600.000 E1.15957
G1 X73.020 Y85.920 F7800.000
G1 X72.860 Y86.080 F600.000 E1.16391
G1 F1800.000 E0.16391
G92 E0
G1 X72.256 Y86.500 F7800.000
G1 X84.744 Y86.500
G1 X84.744 Y93.500
G1 X83.687 Y93.920
G1 F1800.000 E1.00000
G1 X83.527 Y94.080 F600.000 E1.00435
G1 X82.839 Y93.920 E1.01796
G1 X82.679 Y94.080 E1.02231
G1 X81.990 Y93.920 E1.03591
G1 X81.830 Y94.080 E1.04027
G1 X81.142 Y93.920 E1.05387
G1 X80.982 Y94.080 E1.05822
G1 X80.293 Y93.920 E1.07183
G1 X80.133 Y94.080 E1.07618
G1 X79.445 Y93.920 E1.08978
G1 X79.285 Y94.080 E1.09414
G1 X78.596 Y93.920 E1.10774
G1 X78.436 Y94.080 E1.11209
G1 X77.748 Y93.920 E1.12570
G1 X77.588 Y94.080 E1.13005
G1 X76.899 Y93.920 E1.14365
G1 X76.739 Y94.080 E1.14800
G1 X76.050 Y93.920 E1.16161
G1 X75.891 Y94.080 E1.16596
G1 X75.202 Y93.920 E1.17957
G1 X75.042 Y94.080 E1.18392
G1 X74.353 Y93.920 E1.19752
G1 X74.193 Y94.080 E1.20187
G1 X73.505 Y93.920 E1.21548
G1 X73.345 Y94.080 E1.21983
G1 F1800.000 E0.21983
G92 E0
G1 X72.256 Y94.500 F7800.000
G1 X84.744 Y93.500
G1 X88.000 Y92.000
G1 X97.143 Y90.000
G1 X97.458 Y88.398
G1 F1800.000 E1.00000
G1 X97.195 Y88.915 F600.000 E1.01114
G1 X97.077 Y89.212 E1.01729
G1 X96.972 Y89.681 E1.02649
G1 X96.952 Y90.000 E1.03264
G1 X96.997 Y90.478 E1.04184
G1 X97.077 Y90.788 E1.04798
G1 X97.195 Y91.085 E1.05413
G1 X97.458 Y91.602 E1.06527
G1 X88.398 Y91.602 E1.23916
G1 X88.398 Y88.398 E1.30067
G1 X97.368 Y88.398 E1.47284
G1 X97.923 Y88.854 F7800.000
G1 X97.792 Y89.061 F600.000 E1.47754
G1 X97.688 Y89.282 E1.48224
G1 X97.612 Y89.515 E1.48693
G1 X97.565 Y89.768 E1.49187
G1 X97.555 Y90.122 E1.49867
G1 X97.585 Y90.365 E1.50337
G1 X97.646 Y90.602 E1.50807
G1 X97.736 Y90.830 E1.51277
G1 X97.854 Y91.045 E1.51747
G1 X97.998 Y91.242 E1.52216
G1 X98.258 Y91.502 E1.52921
G1 X98.561 Y91.708 E1.53625
G1 X98.782 Y91.812 E1.54095
G1 X99.015 Y91.888 E1.54565
G1 X99.484 Y91.993 E1.55486
G1 X99.461 Y92.201 E1.55888
G1 X87.799 Y92.201 E1.78270
G1 X87.799 Y87.799 E1.86717
G1 X99.461 Y87.799 E2.09099
G1 X99.484 Y88.007 E2.09501
G1 X98.898 Y88.146 E2.10657
G1 X98.561 Y88.292 E2.11361
G1 X98.257 Y88.498 E2.12066
G1 X97.978 Y88.783 E2.12832
G1 X97.679 Y88.829 F7800.000
G1 X97.143 Y90.000
G1 X99.143 Y92.000
G1 X99.857 Y92.000
G1 X101.857 Y90.000
G1 X101.542 Y91.602
G1 X101.806 Y91.085 F600.000 E2.13947
G1 X101.923 Y90.788 E2.14560
G1 X102.003 Y90.477 E2.15176
G1 X102.048 Y90.000 E2.16096
G1 X102.003 Y89.523 E2.17016
G1 X101.923 Y89.212 E2.17631
G1 X101.806 Y88.915 E2.18244
G1 X101.542 Y88.398 E2.19359
G1 X105.337 Y88.398 E2.26644
G1 X105.337 Y91.602 E2.32795
G1 X101.631 Y91.602 E2.39907
G1 X101.070 Y91.155 F7800.000
G1 X101.208 Y90.939 F600.000 E2.40400
G1 X101.312 Y90.718 E2.40870
G1 X101.388 Y90.485 E2.41340
G1 X101.434 Y90.244 E2.41810
G1 X101.449 Y90.000 E2.42280
G1 X101.415 Y89.635 E2.42984
G1 X101.354 Y89.397 E2.43454
G1 X101.264 Y89.170 E2.43923
G1 X101.077 Y88.854 E2.44628
G1 X100.921 Y88.666 E2.45098
G1 X100.742 Y88.498 E2.45568
G1 X100.439 Y88.292 E2.46272
G1 X100.218 Y88.188 E2.46741
G1 X99.985 Y88.112 E2.47211
G1 X99.516 Y88.007 E2.48133
G1 X99.539 Y87.799 E2.48534
G1 X105.936 Y87.799 E2.60811
G1 X105.936 Y92.201 E2.69259
G1 X99.539 Y92.201 E2.81536
G1 X99.516 Y91.993 E2.81937
G1 X100.102 Y91.854 E2.83094
G1 X100.439 Y91.708 E2.83798
G1 X100.743 Y91.502 E2.84502
G1 X101.015 Y91.226 E2.85245
G1 X101.325 Y91.183 F7800.000
G1 X101.857 Y90.000
G1 X99.857 Y92.000
G1 X99.143 Y92.000
G1 X97.143 Y90.000
G1 X96.691 Y91.098
G1 X96.621 Y91.169 F802.773 E2.85437
G1 X96.554 Y90.387 F7800.000
G1 X95.772 Y91.169 F802.773 E2.87558
G1 X94.924 Y91.169 F7800.000
G1 X96.562 Y89.531 F802.773 E2.92004
G1 X96.413 Y88.831 F7800.000
G1 X94.075 Y91.169 F802.773 E2.98348
G1 X93.227 Y91.169 F7800.000
G1 X95.564 Y88.831 F802.773 E3.04692
G1 X94.716 Y88.831 F7800.000
G1 X92.378 Y91.169 F802.773 E3.11036
G1 X91.530 Y91.169 F7800.000
G1 X93.867 Y88.831 F802.773 E3.17381
G1 X93.019 Y88.831 F7800.000
G1 X90.681 Y91.169 F802.773 E3.23725
G1 X89.833 Y91.169 F7800.000
G1 X92.170 Y88.831 F802.773 E3.30069
G1 X91.322 Y88.831 F7800.000
G1 X88.984 Y91.169 F802.773 E3.36413
G1 X88.831 Y90.473 F7800.000
G1 X90.473 Y88.831 F802.773 E3.40869
G1 X89.624 Y88.831 F7800.000
G1 X88.831 Y89.624 F802.773 E3.43022
G1 X88.000 Y88.000 F7800.000
G1 X99.143 Y88.000
G1 X99.860 Y88.000
G1 X101.857 Y90.000
G1 X102.304 Y88.880
G1 X102.352 Y88.831 F802.773 E3.43154
G1 X102.444 Y89.589 F7800.000
G1 X103.201 Y88.831 F802.773 E3.45209
G1 X104.049 Y88.831 F7800.000
G1 X102.441 Y90.440 F802.773 E3.49575
G1 X102.561 Y91.169 F7800.000
G1 X104.898 Y88.831 F802.773 E3.55919
G1 X104.904 Y89.674 F7800.000
G1 X103.409 Y91.169 F802.773 E3.59975
G1 X104.258 Y91.169 F7800.000
G1 X104.904 Y90.523 F802.773 E3.61728
G1 F1800.000 E2.61728
G92 E0
G1 Z0.770 F7800.000
G1 X106.286 Y92.000
G1 X99.857 Y92.000
G1 X99.143 Y92.000
G1 X88.000 Y92.000
G1 X84.983 Y93.500
G1 X85.183 Y93.299
G1 F1800.000 E1.00000
G1 X85.183 Y94.701 F600.000 E1.02690
G1 X71.817 Y94.701 E1.28344
G1 X71.817 Y93.299 E1.31034
G1 X85.094 Y93.299 E1.56516
G1 X84.884 Y93.817 F7800.000
G1 F1800.000 E0.56516
G92 E0
G1 X84.983 Y93.500 F7800.000
G1 X88.000 Y92.000
G1 X88.000 Y88.000
G1 X84.983 Y86.500
G1 X85.183 Y86.701
G1 F1800.000 E1.00000
G1 X71.817 Y86.701 F600.000 E1.25654
G1 X71.817 Y85.299 E1.28344
G1 X85.183 Y85.299 E1.53998
G1 X85.183 Y86.611 E1.56516
G1 X84.665 Y86.402 F7800.000
G1 F1800.000 E0.56516
G92 E0
G1 X84.983 Y86.500 F7800.000
G1 X88.000 Y88.000
G1 X88.000 Y92.000
G1 X84.983 Y93.500
G1 X85.470 Y92.526
G1 F1800.000 E1.00000
G1 X85.476 Y92.526 F600.000 E1.00013
G1 X85.470 Y92.526 F7800.000
G1 X85.365 Y87.158 F600.000 E1.10317
G1 X84.476 Y85.920 F7800.000
G1 X84.563 Y86.006 F600.000 E1.10551
G1 X83.628 Y85.920 F7800.000
