; generated by Slic3r 0.9.10b on 2013-11-09 at 23:29:42

; layer_height = 0.21
; perimeters = 1
; top_solid_layers = 4
; bottom_solid_layers = 4
; fill_density = 0.1
; perimeter_speed = 50
; infill_speed = 60
; travel_speed = 130
; nozzle_diameter = 0.4
; filament_diameter = 2.9
; extrusion_multiplier = 1.009
; perimeters extrusion width = 0.64mm
; infill extrusion width = 0.64mm
; solid infill extrusion width = 0.64mm
; top infill extrusion width = 0.64mm
; first layer extrusion width = 0.70mm

G21 ; set units to millimeters
M107
M190 S60 ; wait for bed temperature to be reached
M104 S200 ; set temperature
G28 ; home all axes
G1 Z5 F5000 ; lift nozzle
M109 S200 ; wait for temperature to be reached
G90 ; use absolute coordinates
G92 E0
M82 ; use absolute distances for extrusion
G1 F1800.000 E-1.00000
G1 Z0.450 F7800.000
G92 E0
G1 X56.240 Y76.480
G1 Z0.350
G1 F1800.000 E1.00000
G1 X57.390 Y75.870 F1200.000 E1.04424
G1 X58.640 Y75.490 E1.08864
G1 X59.930 Y75.360 E1.13270
G1 X118.520 Y75.360 E3.12380
G1 X119.890 Y75.510 E3.17064
G1 X121.210 Y75.930 E3.21771
G1 X122.410 Y76.620 E3.26476
G1 X123.440 Y77.540 E3.31169
G1 X127.420 Y81.930 E3.51306
G1 X128.350 Y83.260 E3.56821
G1 X128.940 Y84.780 E3.62362
G1 X129.140 Y86.390 E3.67876
G1 X129.140 Y93.600 E3.92378
G1 X128.940 Y95.210 E3.97891
G1 X128.350 Y96.720 E4.03401
G1 X127.420 Y98.050 E4.08916
G1 X123.440 Y102.450 E4.29078
G1 X122.410 Y103.370 E4.33772
G1 X121.210 Y104.070 E4.38493
G1 X119.900 Y104.490 E4.43168
G1 X118.520 Y104.640 E4.47885
G1 X59.930 Y104.640 E6.46996
G1 X58.640 Y104.510 E6.51402
G1 X57.390 Y104.130 E6.55842
G1 X56.240 Y103.520 E6.60266
G1 X55.240 Y102.690 E6.64682
G1 X54.410 Y101.690 E6.69099
G1 X53.800 Y100.540 E6.73523
G1 X53.420 Y99.290 E6.77962
G1 X53.290 Y98.000 E6.82369
G1 X53.290 Y82.000 E7.36742
G1 X53.420 Y80.710 E7.41149
G1 X53.800 Y79.460 E7.45588
G1 X54.410 Y78.310 E7.50012
G1 X55.240 Y77.310 E7.54429
G1 X56.167 Y76.541 E7.58521
G1 F1800.000 E6.58521
G1 Z0.450 F7800.000
G92 E0
G1 X97.347 Y81.479
G1 Z0.350
G1 F1800.000 E1.00000
G1 X97.444 Y81.245 F1200.000 E1.00859
G1 X98.181 Y80.508 E1.04403
G1 X98.414 Y80.411 E1.05262
G1 X106.586 Y80.411 E1.33031
G1 X106.782 Y80.492 E1.33754
G1 X106.979 Y80.411 E1.34477
G1 X118.999 Y80.411 E1.75327
G1 X119.215 Y80.492 E1.76108
G1 X119.926 Y81.111 E1.79314
G1 X120.036 Y81.313 E1.80095
G1 X120.153 Y82.153 E1.82979
G1 X120.339 Y82.778 E1.85195
G1 X120.623 Y83.327 E1.87296
G1 X120.997 Y83.815 E1.89386
G1 X121.329 Y84.127 E1.90933
G1 X121.836 Y84.476 E1.93022
G1 X122.425 Y84.736 E1.95213
G1 X123.318 Y84.968 E1.98346
G1 X123.494 Y85.085 E1.99064
G1 X124.021 Y85.767 E2.01993
G1 X124.089 Y85.966 E2.02710
G1 X124.089 Y88.316 E2.10693
G1 X123.992 Y88.549 E2.11553
G1 X123.255 Y89.287 E2.15096
G1 X123.021 Y89.383 E2.15956
G1 X111.979 Y89.383 E2.53483
G1 X111.745 Y89.287 E2.54342
G1 X111.008 Y88.549 E2.57886
G1 X110.911 Y88.316 E2.58745
G1 X110.911 Y85.589 E2.68011
G1 X106.979 Y85.589 E2.81374
G1 X106.782 Y85.508 E2.82097
G1 X106.586 Y85.589 E2.82820
G1 X98.414 Y85.589 E3.10589
G1 X98.181 Y85.492 E3.11448
G1 X97.444 Y84.755 E3.14992
G1 X97.347 Y84.521 E3.15851
G1 X97.347 Y81.574 E3.25867
G1 X97.982 Y81.742 F7800.000
G1 X98.079 Y81.508 F1200.000 E3.26727
G1 X98.444 Y81.143 E3.28481
G1 X98.678 Y81.047 E3.29340
G1 X106.322 Y81.047 E3.55319
G1 X106.556 Y81.143 E3.56178
G1 X106.782 Y81.370 E3.57265
G1 X107.008 Y81.143 E3.58353
G1 X107.242 Y81.047 E3.59212
G1 X118.761 Y81.047 E3.98359
G1 X118.977 Y81.127 E3.99141
G1 X119.330 Y81.434 E4.00730
G1 X119.439 Y81.636 E4.01512
G1 X119.527 Y82.267 E4.03675
G1 X119.578 Y82.492 E4.04458
G1 X119.744 Y83.003 E4.06286
G1 X119.833 Y83.209 E4.07048
G1 X120.086 Y83.669 E4.08831
G1 X120.392 Y84.090 E4.10602
G1 X120.540 Y84.258 E4.11364
G1 X120.923 Y84.618 E4.13149
G1 X121.345 Y84.924 E4.14919
G1 X121.538 Y85.038 E4.15681
G1 X122.025 Y85.267 E4.17509
G1 X122.237 Y85.344 E4.18277
G1 X122.948 Y85.529 E4.20771
G1 X123.124 Y85.645 E4.21488
G1 X123.385 Y85.984 E4.22943
G1 X123.453 Y86.183 E4.23660
G1 X123.453 Y88.052 E4.30011
G1 X123.357 Y88.286 E4.30871
G1 X122.992 Y88.651 E4.32625
G1 X122.758 Y88.748 E4.33484
G1 X112.242 Y88.748 E4.69222
G1 X112.008 Y88.651 E4.70081
G1 X111.643 Y88.286 E4.71835
G1 X111.547 Y88.052 E4.72694
G1 X111.547 Y84.953 E4.83226
G1 X107.242 Y84.953 E4.97854
G1 X107.008 Y84.857 E4.98714
G1 X106.782 Y84.630 E4.99801
G1 X106.556 Y84.857 E5.00888
G1 X106.322 Y84.953 E5.01747
G1 X98.678 Y84.953 E5.27726
G1 X98.444 Y84.857 E5.28586
G1 X98.079 Y84.492 E5.30340
G1 X97.982 Y84.258 E5.31199
G1 X97.982 Y81.837 E5.39426
G1 X98.618 Y82.055 F7800.000
G1 X98.990 Y81.682 F1200.000 E5.41215
G1 X106.010 Y81.682 E5.65070
G1 X106.382 Y82.055 E5.66859
G1 X106.382 Y83.945 E5.73285
G1 X106.010 Y84.318 E5.75075
G1 X98.990 Y84.318 E5.98929
G1 X98.618 Y83.945 E6.00719
G1 X98.618 Y82.150 E6.06821
G1 F1800.000 E5.06821
G1 Z0.450 F7800.000
G92 E0
G1 X107.182 Y82.055
G1 Z0.350
G1 F1800.000 E1.00000
G1 X107.555 Y81.682 F1200.000 E1.01789
G1 X118.489 Y81.682 E1.38948
G1 X118.848 Y81.994 E1.40564
G1 X118.902 Y82.380 E1.41888
G1 X118.964 Y82.659 E1.42861
G1 X119.149 Y83.228 E1.44893
G1 X119.262 Y83.489 E1.45858
G1 X119.548 Y84.010 E1.47879
G1 X119.896 Y84.488 E1.49888
G1 X120.084 Y84.701 E1.50854
G1 X120.518 Y85.109 E1.52877
G1 X120.996 Y85.456 E1.54884
G1 X121.240 Y85.600 E1.55849
G1 X121.781 Y85.855 E1.57881
G1 X122.049 Y85.951 E1.58849
G1 X122.552 Y86.083 E1.60617
G1 X122.818 Y86.426 E1.62092
G1 X122.818 Y87.740 E1.66556
G1 X122.445 Y88.112 E1.68346
G1 X112.555 Y88.112 E2.01959
G1 X112.182 Y87.740 E2.03748
G1 X112.182 Y84.318 E2.15377
G1 X107.555 Y84.318 E2.31104
G1 X107.182 Y83.945 E2.32893
G1 X107.182 Y82.150 E2.38996
G1 F1800.000 E1.38996
G1 Z0.450 F7800.000
G92 E0
G1 X92.089 Y83.479
G1 Z0.350
G1 F1800.000 E1.00000
G1 X92.089 Y88.316 F1200.000 E1.16438
G1 X91.992 Y88.549 E1.17297
G1 X91.255 Y89.287 E1.20841
G1 X91.021 Y89.383 E1.21700
G1 X74.979 Y89.383 E1.76219
G1 X74.745 Y89.287 E1.77078
G1 X74.008 Y88.549 E1.80622
G1 X73.911 Y88.316 E1.81481
G1 X73.911 Y85.589 E1.90747
G1 X67.979 Y85.589 E2.10907
G1 X67.782 Y85.508 E2.11630
G1 X67.586 Y85.589 E2.12353
G1 X59.414 Y85.589 E2.40122
G1 X59.181 Y85.492 E2.40981
G1 X58.444 Y84.755 E2.44525
G1 X58.347 Y84.521 E2.45384
G1 X58.347 Y81.479 E2.55724
G1 X58.444 Y81.245 E2.56583
G1 X59.181 Y80.508 E2.60127
G1 X59.414 Y80.411 E2.60986
G1 X67.586 Y80.411 E2.88755
G1 X67.782 Y80.492 E2.89478
G1 X67.979 Y80.411 E2.90201
G1 X79.644 Y80.411 E3.29845
G1 X79.878 Y80.508 E3.30705
G1 X80.615 Y81.245 E3.34248
G1 X80.712 Y81.479 E3.35107
G1 X80.712 Y82.411 E3.38276
G1 X91.021 Y82.411 E3.73310
G1 X91.255 Y82.508 E3.74170
G1 X91.992 Y83.245 E3.77713
G1 X92.053 Y83.391 E3.78249
G1 X91.453 Y83.742 F7800.000
G1 X91.453 Y88.052 F1200.000 E3.92897
G1 X91.357 Y88.286 E3.93756
G1 X90.992 Y88.651 E3.95510
G1 X90.758 Y88.748 E3.96370
G1 X75.242 Y88.748 E4.49099
G1 X75.008 Y88.651 E4.49959
G1 X74.643 Y88.286 E4.51713
G1 X74.547 Y88.052 E4.52572
G1 X74.547 Y84.953 E4.63103
G1 X68.242 Y84.953 E4.84529
G1 X68.008 Y84.857 E4.85388
G1 X67.782 Y84.630 E4.86475
G1 X67.556 Y84.857 E4.87562
G1 X67.322 Y84.953 E4.88422
G1 X59.678 Y84.953 E5.14401
G1 X59.444 Y84.857 E5.15260
G1 X59.079 Y84.492 E5.17014
G1 X58.982 Y84.258 E5.17873
G1 X58.982 Y81.742 E5.26424
G1 X59.079 Y81.508 E5.27283
G1 X59.444 Y81.143 E5.29038
G1 X59.678 Y81.047 E5.29897
G1 X67.322 Y81.047 E5.55876
G1 X67.556 Y81.143 E5.56735
G1 X67.782 Y81.370 E5.57822
G1 X68.008 Y81.143 E5.58910
G1 X68.242 Y81.047 E5.59769
G1 X79.381 Y81.047 E5.97624
G1 X79.615 Y81.143 E5.98483
G1 X79.980 Y81.508 E6.00237
G1 X80.076 Y81.742 E6.01097
G1 X80.076 Y83.047 E6.05530
G1 X90.758 Y83.047 E6.41830
G1 X90.992 Y83.143 E6.42690
G1 X91.357 Y83.508 E6.44444
G1 X91.417 Y83.654 E6.44979
G1 F1800.000 E5.44979
G1 Z0.450 F7800.000
G92 E0
G1 X67.382 Y83.945
G1 Z0.350
G1 F1800.000 E1.00000
G1 X67.010 Y84.318 F1200.000 E1.01789
G1 X59.990 Y84.318 E1.25644
G1 X59.618 Y83.945 E1.27433
G1 X59.618 Y82.055 E1.33859
G1 X59.990 Y81.682 E1.35649
G1 X67.010 Y81.682 E1.59503
G1 X67.382 Y82.055 E1.61293
G1 X67.382 Y83.850 E1.67395
G1 X68.182 Y83.945 F7800.000
G1 X68.182 Y82.055 F1200.000 E1.73821
G1 X68.555 Y81.682 E1.75611
G1 X79.069 Y81.682 E2.11341
G1 X79.441 Y82.055 E2.13130
G1 X79.441 Y83.682 E2.18662
G1 X90.445 Y83.682 E2.56060
G1 X90.818 Y84.055 E2.57849
G1 X90.818 Y87.740 E2.70373
G1 X90.445 Y88.112 E2.72162
G1 X75.555 Y88.112 E3.22767
G1 X75.182 Y87.740 E3.24557
G1 X75.182 Y84.318 E3.36186
G1 X68.555 Y84.318 E3.58709
G1 X68.250 Y84.013 E3.60174
G1 F1800.000 E2.60174
G1 Z0.450 F7800.000
G92 E0
G1 X97.347 Y95.479
G1 Z0.350
G1 F1800.000 E1.00000
G1 X97.444 Y95.245 F1200.000 E1.00859
G1 X98.181 Y94.508 E1.04403
G1 X98.414 Y94.411 E1.05262
G1 X106.586 Y94.411 E1.33031
G1 X106.782 Y94.492 E1.33754
G1 X106.979 Y94.411 E1.34477
G1 X110.911 Y94.411 E1.47840
G1 X110.911 Y91.684 E1.57106
G1 X111.008 Y91.451 E1.57965
G1 X111.745 Y90.713 E1.61509
G1 X111.979 Y90.617 E1.62368
G1 X123.021 Y90.617 E1.99895
G1 X123.255 Y90.713 E2.00755
G1 X123.992 Y91.451 E2.04298
G1 X124.089 Y91.684 E2.05157
G1 X124.089 Y94.034 E2.13141
G1 X124.021 Y94.233 E2.13858
G1 X123.494 Y94.915 E2.16787
G1 X123.318 Y95.032 E2.17504
G1 X122.425 Y95.264 E2.20638
G1 X121.858 Y95.514 E2.22744
G1 X121.476 Y95.756 E2.24283
G1 X121.020 Y96.162 E2.26356
G1 X120.727 Y96.516 E2.27920
G1 X120.417 Y97.049 E2.30014
G1 X120.250 Y97.470 E2.31554
G1 X120.197 Y97.652 E2.32197
G1 X120.153 Y97.847 E2.32876
G1 X120.036 Y98.687 E2.35759
G1 X119.926 Y98.889 E2.36541
G1 X119.214 Y99.508 E2.39747
G1 X118.999 Y99.589 E2.40528
G1 X106.979 Y99.589 E2.81378
G1 X106.782 Y99.508 E2.82101
G1 X106.586 Y99.589 E2.82824
G1 X98.414 Y99.589 E3.10592
G1 X98.181 Y99.492 E3.11452
G1 X97.444 Y98.755 E3.14995
G1 X97.347 Y98.521 E3.15855
G1 X97.347 Y95.574 E3.25871
G1 X97.982 Y95.742 F7800.000
G1 X98.079 Y95.508 F1200.000 E3.26730
G1 X98.444 Y95.143 E3.28484
G1 X98.678 Y95.047 E3.29344
G1 X106.322 Y95.047 E3.55323
G1 X106.556 Y95.143 E3.56182
G1 X106.782 Y95.370 E3.57269
G1 X107.008 Y95.143 E3.58356
G1 X107.242 Y95.047 E3.59216
G1 X111.547 Y95.047 E3.73844
G1 X111.547 Y91.948 E3.84376
G1 X111.643 Y91.714 E3.85235
G1 X112.008 Y91.349 E3.86989
G1 X112.242 Y91.252 E3.87848
G1 X122.758 Y91.252 E4.23586
G1 X122.992 Y91.349 E4.24445
G1 X123.357 Y91.714 E4.26199
G1 X123.453 Y91.948 E4.27059
G1 X123.453 Y93.817 E4.33410
G1 X123.385 Y94.016 E4.34127
G1 X123.124 Y94.355 E4.35582
G1 X122.948 Y94.471 E4.36299
G1 X122.237 Y94.656 E4.38793
G1 X122.025 Y94.733 E4.39561
G1 X121.551 Y94.956 E4.41338
G1 X121.110 Y95.236 E4.43116
G1 X120.932 Y95.374 E4.43879
G1 X120.556 Y95.726 E4.45630
G1 X120.218 Y96.134 E4.47433
G1 X120.092 Y96.320 E4.48194
G1 X119.840 Y96.778 E4.49971
G1 X119.648 Y97.264 E4.51748
G1 X119.581 Y97.494 E4.52561
G1 X119.527 Y97.733 E4.53396
G1 X119.439 Y98.364 E4.55558
G1 X119.330 Y98.566 E4.56340
G1 X118.977 Y98.873 E4.57929
G1 X118.761 Y98.953 E4.58711
G1 X107.242 Y98.953 E4.97858
G1 X107.008 Y98.857 E4.98718
G1 X106.782 Y98.630 E4.99805
G1 X106.556 Y98.857 E5.00892
G1 X106.322 Y98.953 E5.01751
G1 X98.678 Y98.953 E5.27730
G1 X98.444 Y98.857 E5.28590
G1 X98.079 Y98.492 E5.30344
G1 X97.982 Y98.258 E5.31203
G1 X97.982 Y95.837 E5.39430
G1 X98.618 Y96.055 F7800.000
G1 X98.990 Y95.682 F1200.000 E5.41219
G1 X106.010 Y95.682 E5.65074
G1 X106.382 Y96.055 E5.66863
G1 X106.382 Y97.945 E5.73289
G1 X106.010 Y98.318 E5.75079
G1 X98.990 Y98.318 E5.98933
G1 X98.618 Y97.945 E6.00723
G1 X98.618 Y96.150 E6.06825
G1 F1800.000 E5.06825
G1 Z0.450 F7800.000
G92 E0
G1 X107.182 Y96.055
G1 Z0.350
G1 F1800.000 E1.00000
G1 X107.555 Y95.682 F1200.000 E1.01789
G1 X112.182 Y95.682 E1.17516
G1 X112.182 Y92.260 E1.29145
G1 X112.555 Y91.888 E1.30934
G1 X122.445 Y91.888 E1.64547
G1 X122.818 Y92.260 E1.66337
G1 X122.818 Y93.574 E1.70802
G1 X122.552 Y93.917 E1.72276
G1 X122.049 Y94.049 E1.74044
G1 X121.781 Y94.145 E1.75012
G1 X121.245 Y94.398 E1.77027
G1 X120.744 Y94.715 E1.79042
G1 X120.519 Y94.889 E1.80008
G1 X120.093 Y95.289 E1.81996
G1 X119.709 Y95.752 E1.84038
G1 X119.550 Y95.987 E1.85003
G1 X119.264 Y96.507 E1.87018
G1 X119.046 Y97.058 E1.89033
G1 X118.965 Y97.336 E1.90016
G1 X118.902 Y97.620 E1.91005
G1 X118.848 Y98.006 E1.92329
G1 X118.489 Y98.318 E1.93945
G1 X107.555 Y98.318 E2.31104
G1 X107.182 Y97.945 E2.32894
G1 X107.182 Y96.150 E2.38996
G1 F1800.000 E1.38996
G1 Z0.450 F7800.000
G92 E0
G1 X92.089 Y96.521
G1 Z0.350
G1 F1800.000 E1.00000
G1 X91.992 Y96.755 F1200.000 E1.00859
G1 X91.255 Y97.492 E1.04403
G1 X91.021 Y97.589 E1.05262
G1 X80.712 Y97.589 E1.40297
G1 X80.712 Y98.521 E1.43465
G1 X80.615 Y98.755 E1.44324
G1 X79.878 Y99.492 E1.47868
G1 X79.644 Y99.589 E1.48727
G1 X67.979 Y99.589 E1.88372
G1 X67.782 Y99.508 E1.89095
G1 X67.586 Y99.589 E1.89818
G1 X59.414 Y99.589 E2.17586
G1 X59.181 Y99.492 E2.18446
G1 X58.444 Y98.755 E2.21989
G1 X58.347 Y98.521 E2.22848
G1 X58.347 Y95.479 E2.33189
G1 X58.444 Y95.245 E2.34048
G1 X59.181 Y94.508 E2.37592
G1 X59.414 Y94.411 E2.38451
G1 X67.586 Y94.411 E2.66219
G1 X67.782 Y94.492 E2.66942
G1 X67.979 Y94.411 E2.67665
G1 X73.911 Y94.411 E2.87825
G1 X73.911 Y91.684 E2.97091
G1 X74.008 Y91.451 E2.97951
G1 X74.745 Y90.713 E3.01494
G1 X74.979 Y90.617 E3.02354
G1 X91.021 Y90.617 E3.56873
G1 X91.255 Y90.713 E3.57732
G1 X91.992 Y91.451 E3.61275
G1 X92.089 Y91.684 E3.62135
G1 X92.089 Y96.426 E3.78249
G1 X91.453 Y96.258 F7800.000
G1 X91.357 Y96.492 F1200.000 E3.79108
G1 X90.992 Y96.857 E3.80862
G1 X90.758 Y96.953 E3.81721
G1 X80.076 Y96.953 E4.18021
G1 X80.076 Y98.258 E4.22455
G1 X79.980 Y98.492 E4.23314
G1 X79.615 Y98.857 E4.25068
G1 X79.381 Y98.953 E4.25928
G1 X68.242 Y98.953 E4.63783
G1 X68.008 Y98.857 E4.64642
G1 X67.782 Y98.630 E4.65729
G1 X67.556 Y98.857 E4.66816
G1 X67.322 Y98.953 E4.67676
G1 X59.678 Y98.953 E4.93655
G1 X59.444 Y98.857 E4.94514
G1 X59.079 Y98.492 E4.96268
G1 X58.982 Y98.258 E4.97127
G1 X58.982 Y95.742 E5.05678
G1 X59.079 Y95.508 E5.06538
G1 X59.444 Y95.143 E5.08292
G1 X59.678 Y95.047 E5.09151
G1 X67.322 Y95.047 E5.35130
G1 X67.556 Y95.143 E5.35989
G1 X67.782 Y95.370 E5.37077
G1 X68.008 Y95.143 E5.38164
G1 X68.242 Y95.047 E5.39023
G1 X74.547 Y95.047 E5.60448
G1 X74.547 Y91.948 E5.70980
G1 X74.643 Y91.714 E5.71839
G1 X75.008 Y91.349 E5.73593
G1 X75.242 Y91.252 E5.74452
G1 X90.758 Y91.252 E6.27182
G1 X90.992 Y91.349 E6.28041
G1 X91.357 Y91.714 E6.29795
G1 X91.453 Y91.948 E6.30655
G1 X91.453 Y96.163 E6.44979
G1 F1800.000 E5.44979
G1 Z0.450 F7800.000
G92 E0
G1 X67.382 Y96.055
G1 Z0.350
G1 F1800.000 E1.00000
G1 X67.382 Y97.945 F1200.000 E1.06426
G1 X67.010 Y98.318 E1.08216
G1 X59.990 Y98.318 E1.32070
G1 X59.618 Y97.945 E1.33859
G1 X59.618 Y96.055 E1.40286
G1 X59.990 Y95.682 E1.42075
G1 X67.010 Y95.682 E1.65930
G1 X67.315 Y95.987 E1.67395
G1 X68.182 Y96.055 F7800.000
G1 X68.555 Y95.682 F1200.000 E1.69184
G1 X75.182 Y95.682 E1.91708
G1 X75.182 Y92.260 E2.03337
G1 X75.555 Y91.888 E2.05126
G1 X90.445 Y91.888 E2.55731
G1 X90.818 Y92.260 E2.57520
G1 X90.818 Y95.945 E2.70044
G1 X90.445 Y96.318 E2.71834
G1 X79.441 Y96.318 E3.09231
G1 X79.441 Y97.945 E3.14763
G1 X79.069 Y98.318 E3.16552
G1 X68.555 Y98.318 E3.52283
G1 X68.182 Y97.945 E3.54072
G1 X68.182 Y96.150 E3.60174
G1 F1800.000 E2.60174
G1 Z0.450 F7800.000
G92 E0
G1 X107.818 Y96.318
G1 Z0.350
G1 F1800.000 E1.00000
G1 X112.818 Y96.318 F720.000 E1.16992
G1 X112.818 Y92.524 E1.29886
G1 X122.182 Y92.524 E1.61710
G1 X122.182 Y93.348 E1.64511
G1 X121.542 Y93.555 E1.66797
G1 X121.223 Y93.695 E1.67981
G1 X120.651 Y94.010 E1.70202
G1 X120.120 Y94.395 E1.72430
G1 X119.860 Y94.623 E1.73607
G1 X119.414 Y95.097 E1.75815
G1 X119.198 Y95.374 E1.77011
G1 X118.840 Y95.938 E1.79281
G1 X118.555 Y96.542 E1.81550
G1 X118.349 Y97.178 E1.83820
G1 X118.248 Y97.682 E1.85569
G1 X107.818 Y97.682 E2.21015
G1 X107.818 Y96.413 E2.25327
G1 F1800.000 E1.25327
G1 Z0.450 F7800.000
G92 E0
G1 X120.429 Y93.159
G1 Z0.350
G1 F1800.000 E1.00000
G1 X120.481 Y93.311 F720.000 E1.00544
G1 X119.705 Y93.913 E1.03882
G1 X119.268 Y94.301 E1.05868
G1 X118.912 Y94.705 E1.07697
G1 X118.683 Y95.000 E1.08967
G1 X118.472 Y95.311 E1.10244
G1 X118.113 Y95.965 E1.12780
G1 X117.838 Y96.660 E1.15320
