; generated by Slic3r 0.9.10b on 2013-10-13 at 20:06:08

; layer_height = 0.21
; perimeters = 2
; top_solid_layers = 3
; bottom_solid_layers = 3
; fill_density = 0.2
; perimeter_speed = 50
; infill_speed = 60
; travel_speed = 130
; nozzle_diameter = 0.4
; filament_diameter = 2.9
; extrusion_multiplier = 1.0088
; perimeters extrusion width = 0.64mm
; infill extrusion width = 0.64mm
; solid infill extrusion width = 0.64mm
; top infill extrusion width = 0.64mm
; support material extrusion width = 0.64mm
; first layer extrusion width = 0.70mm

G21 ; set units to millimeters
M107
M190 S60 ; wait for bed temperature to be reached
M104 S200 ; set temperature
G28 ; home all axes
G1 Z5 F5000 ; lift nozzle
M109 S200 ; wait for temperature to be reached
G90 ; use absolute coordinates
G92 E0
M82 ; use absolute distances for extrusion
G1 F1800.000 E-1.00000
G92 E0
G1 Z0.350 F7800.000
G1 X82.130 Y68.230
G1 F1800.000 E1.00000
G1 X83.150 Y67.340 F1002.641 E1.04599
G1 X84.340 Y66.670 E1.09240
G1 X85.640 Y66.250 E1.13881
G1 X86.990 Y66.110 E1.18493
G1 X92.990 Y66.110 E1.38879
G1 X94.340 Y66.250 E1.43490
G1 X95.640 Y66.670 E1.48132
G1 X96.820 Y67.330 E1.52726
G1 X97.850 Y68.230 E1.57373
G1 X98.670 Y69.310 E1.61981
G1 X99.250 Y70.540 E1.66601
G1 X99.570 Y71.870 E1.71249
G1 X101.580 Y86.820 E2.22502
G1 X101.640 Y87.700 E2.25499
G1 X101.640 Y105.790 E2.86963
G1 X101.510 Y107.080 E2.91368
G1 X101.130 Y108.330 E2.95807
G1 X100.520 Y109.480 E3.00230
G1 X99.690 Y110.480 E3.04646
G1 X98.690 Y111.310 E3.09061
G1 X97.540 Y111.920 E3.13484
G1 X96.290 Y112.300 E3.17923
G1 X95.000 Y112.430 E3.22329
G1 X85.000 Y112.430 E3.56306
G1 X83.710 Y112.300 E3.60711
G1 X82.460 Y111.920 E3.65150
G1 X81.310 Y111.310 E3.69573
G1 X80.310 Y110.480 E3.73988
G1 X79.480 Y109.480 E3.78404
G1 X78.870 Y108.330 E3.82827
G1 X78.490 Y107.080 E3.87266
G1 X78.360 Y105.790 E3.91671
G1 X78.360 Y87.700 E4.53136
G1 X78.420 Y86.820 E4.56133
G1 X80.410 Y71.870 E5.07376
G1 X80.730 Y70.550 E5.11991
G1 X81.310 Y69.320 E5.16611
G1 X82.073 Y68.306 E5.20922
G1 F1800.000 E4.20922
G92 E0
G1 X85.318 Y88.024 F7800.000
G1 F1800.000 E1.00000
G1 X86.682 Y88.024 F601.584 E1.04636
G1 X86.682 Y105.476 E1.63931
G1 X85.318 Y105.476 E1.68566
G1 X85.318 Y88.120 E2.27537
G1 X85.868 Y88.342 F7800.000
G1 X93.318 Y88.024
G1 X94.682 Y88.024 F601.584 E2.32173
G1 X94.682 Y105.476 E2.91468
G1 X93.318 Y105.476 E2.96104
G1 X93.318 Y88.120 E3.55075
G1 X93.868 Y88.342 F7800.000
G1 F1800.000 E2.55075
G92 E0
G1 X98.000 Y86.033 F7800.000
G1 X92.047 Y79.202
G1 F1800.000 E1.00000
G1 X92.047 Y87.488 F601.584 E1.28152
G1 X87.953 Y87.488 E1.42059
G1 X87.953 Y79.202 E1.70211
G1 X88.481 Y79.514 E1.72292
G1 X89.026 Y79.750 E1.74310
G1 X89.409 Y79.848 E1.75656
G1 X90.000 Y79.904 E1.77672
G1 X90.396 Y79.879 E1.79018
G1 X90.975 Y79.749 E1.81036
G1 X91.343 Y79.604 E1.82382
G1 X91.965 Y79.251 E1.84809
G1 X91.605 Y78.690 F7800.000
G1 X91.940 Y78.355 F601.584 E1.86419
G1 X92.126 Y78.099 E1.87493
G1 X92.341 Y77.677 E1.89104
G1 X92.510 Y77.209 E1.90792
G1 X92.682 Y77.239 E1.91388
G1 X92.682 Y88.123 E2.28368
G1 X87.318 Y88.123 E2.46594
G1 X87.318 Y77.239 E2.83574
G1 X87.490 Y77.209 E2.84170
G1 X87.659 Y77.677 E2.85860
G1 X87.793 Y77.963 E2.86933
G1 X87.963 Y78.230 E2.88008
G1 X88.173 Y78.482 E2.89123
G1 X88.395 Y78.690 E2.90157
G1 X88.651 Y78.876 E2.91231
G1 X88.928 Y79.028 E2.92305
G1 X89.222 Y79.145 E2.93380
G1 X89.528 Y79.223 E2.94454
G1 X89.842 Y79.263 E2.95528
G1 X90.158 Y79.263 E2.96602
G1 X90.472 Y79.223 E2.97677
G1 X90.778 Y79.145 E2.98752
G1 X91.072 Y79.028 E2.99826
G1 X91.349 Y78.876 E3.00901
G1 X91.530 Y78.748 E3.01652
G1 X92.056 Y78.836 F7800.000
G1 X92.509 Y76.291
G1 X92.341 Y75.823 F601.584 E3.03340
G1 X92.126 Y75.401 E3.04951
G1 X91.844 Y75.035 E3.06520
G1 X91.605 Y74.810 E3.07635
G1 X91.213 Y74.543 E3.09246
G1 X90.927 Y74.409 E3.10321
G1 X90.472 Y74.277 E3.11931
G1 X90.000 Y74.232 E3.13542
G1 X89.684 Y74.252 E3.14615
G1 X89.222 Y74.355 E3.16225
G1 X88.787 Y74.543 E3.17835
G1 X88.520 Y74.713 E3.18909
G1 X88.164 Y75.026 E3.20520
G1 X87.874 Y75.401 E3.22130
G1 X87.659 Y75.823 E3.23741
G1 X87.491 Y76.291 E3.25429
G1 X87.318 Y76.261 E3.26025
G1 X87.318 Y73.068 E3.36873
G1 X92.682 Y73.068 E3.55100
G1 X92.682 Y76.261 E3.65948
G1 X92.603 Y76.274 E3.66220
G1 X92.626 Y75.808 F7800.000
G1 X92.500 Y76.150
G1 X91.992 Y74.867
G1 X90.113 Y74.053
G1 X89.903 Y74.047
G1 X88.008 Y74.867
G1 X87.500 Y76.150
G1 X87.500 Y77.316
G1 X87.194 Y76.764
G1 X87.194 Y76.736 F601.584 E3.66318
G1 X87.200 Y76.750 F7800.000
G1 X87.553 Y76.750 F601.584 E3.67518
G1 X87.578 Y76.890 E3.68001
G1 X87.578 Y76.890 F7800.000
G1 X87.691 Y77.176 F601.584 E3.69045
G1 X87.553 Y76.750 F7800.000
G1 X87.567 Y76.721 F601.584 E3.69153
G1 X87.567 Y76.721 F7800.000
G1 X87.664 Y76.483 F601.584 E3.70029
G1 X87.664 Y76.483 F7800.000
G1 X87.798 Y76.045 F601.584 E3.71583
G1 X87.500 Y76.150 F7800.000
G1 X88.008 Y74.867
G1 X89.903 Y74.047
G1 X90.113 Y74.053
G1 X91.992 Y74.867
G1 X92.500 Y76.150
G1 X92.313 Y76.325
G1 X92.447 Y76.750 F601.584 E3.73096
G1 X92.259 Y77.213 E3.74792
G1 X92.259 Y77.213 F7800.000
G1 X92.188 Y77.428 F601.584 E3.75562
G1 X92.447 Y76.750 F7800.000
G1 X92.806 Y76.736 F601.584 E3.76784
G1 X92.800 Y76.750 F7800.000
G1 X92.806 Y76.764 F601.584 E3.76838
G1 X91.256 Y80.148 F7800.000
G1 X91.586 Y80.477 F1203.169 E3.78422
G1 X91.586 Y81.376 E3.81477
G1 X90.531 Y80.321 E3.86547
G1 X89.653 Y80.343 E3.89529
G1 X91.586 Y82.275 E3.98815
G1 X91.586 Y83.174 E4.01870
G1 X88.483 Y80.072 E4.16778
G1 X88.414 Y80.902 E4.19608
G1 X91.586 Y84.073 E4.34848
G1 X91.586 Y84.972 E4.37903
G1 X88.414 Y81.801 E4.53143
G1 X88.414 Y82.700 E4.56198
G1 X91.586 Y85.872 E4.71439
G1 X91.586 Y86.771 E4.74493
G1 X88.414 Y83.599 E4.89734
G1 X88.414 Y84.498 E4.92788
G1 X90.943 Y87.027 E5.04941
G1 X90.044 Y87.027 E5.07995
G1 X88.414 Y85.397 E5.15828
G1 X88.414 Y86.296 E5.18882
G1 X89.145 Y87.027 E5.22395
G1 X87.500 Y87.941 F7800.000
G1 X87.500 Y77.316
G1 X87.500 Y76.150
G1 X88.008 Y74.867
G1 X89.903 Y74.047
G1 X89.761 Y73.785
G1 X89.619 Y73.643 F600.000 E5.22723
G1 X89.935 Y73.526 E5.23277
G1 X90.190 Y73.780 E5.23868
G1 X90.404 Y73.560 E5.24371
G1 X90.369 Y73.526 E5.24451
G1 X90.113 Y74.053 F7800.000
G1 X91.992 Y74.867
G1 X92.500 Y76.150
G1 X92.500 Y77.350
G1 X92.500 Y87.941
G1 X93.500 Y88.206
G1 X94.500 Y105.294
G1 X94.014 Y104.483
G1 X93.986 Y104.454 F600.000 E5.24591
G1 X94.014 Y103.584 E5.27548
G1 X93.986 Y103.555 E5.27688
G1 X94.014 Y102.685 E5.30645
G1 X93.986 Y102.656 E5.30785
G1 X94.014 Y101.786 E5.33742
G1 X93.986 Y101.757 E5.33882
G1 X94.014 Y100.887 E5.36840
G1 X93.986 Y100.858 E5.36979
G1 X94.014 Y99.988 E5.39937
G1 X93.986 Y99.959 E5.40076
G1 X94.014 Y99.089 E5.43034
G1 X93.986 Y99.060 E5.43173
G1 X94.014 Y98.190 E5.46131
G1 X93.986 Y98.161 E5.46270
G1 X94.014 Y97.290 E5.49228
G1 X93.986 Y97.262 E5.49367
G1 X94.014 Y96.391 E5.52325
G1 X93.986 Y96.362 E5.52464
G1 X94.014 Y95.492 E5.55422
G1 X93.986 Y95.463 E5.55561
G1 X94.014 Y94.593 E5.58519
G1 X93.986 Y94.564 E5.58658
G1 X94.014 Y93.694 E5.61616
G1 X93.986 Y93.665 E5.61755
G1 X94.014 Y92.795 E5.64713
G1 X93.986 Y92.766 E5.64852
G1 X94.014 Y91.896 E5.67810
G1 X93.986 Y91.867 E5.67949
G1 X94.014 Y90.997 E5.70907
G1 X93.986 Y90.968 E5.71046
G1 X94.014 Y90.098 E5.74004
G1 X93.986 Y90.069 E5.74143
G1 X94.014 Y89.199 E5.77101
G1 X93.986 Y89.170 E5.77240
G1 X93.500 Y88.206 F7800.000
G1 X92.500 Y87.941
G1 X87.500 Y87.941
G1 X86.500 Y88.206
G1 X86.500 Y105.294
G1 X86.014 Y104.574
G1 X85.986 Y104.545 F600.000 E5.77380
G1 X86.014 Y103.675 E5.80338
G1 X85.986 Y103.646 E5.80477
G1 X86.014 Y102.776 E5.83435
G1 X85.986 Y102.747 E5.83575
G1 X86.014 Y101.877 E5.86533
G1 X85.986 Y101.848 E5.86672
G1 X86.014 Y100.978 E5.89630
G1 X85.986 Y100.949 E5.89770
G1 X86.014 Y100.079 E5.92728
G1 X85.986 Y100.050 E5.92867
G1 X86.014 Y99.180 E5.95825
G1 X85.986 Y99.151 E5.95965
G1 X86.014 Y98.281 E5.98923
G1 X85.986 Y98.252 E5.99062
G1 X86.014 Y97.382 E6.02020
G1 X85.986 Y97.353 E6.02160
G1 X86.014 Y96.483 E6.05118
G1 X85.986 Y96.454 E6.05257
G1 X86.014 Y95.584 E6.08216
G1 X85.986 Y95.555 E6.08355
G1 X86.014 Y94.685 E6.11313
G1 X85.986 Y94.656 E6.11452
G1 X86.014 Y93.786 E6.14411
G1 X85.986 Y93.757 E6.14550
G1 X86.014 Y92.887 E6.17508
G1 X85.986 Y92.858 E6.17647
G1 X86.014 Y91.988 E6.20606
G1 X85.986 Y91.959 E6.20745
G1 X86.014 Y91.089 E6.23703
G1 X85.986 Y91.060 E6.23842
G1 X86.014 Y90.190 E6.26801
G1 X85.986 Y90.161 E6.26940
G1 X86.014 Y89.290 E6.29898
G1 X85.986 Y89.262 E6.30037
M106 S650
G1 F1800.000 E5.30037
G92 E0
G1 Z0.560 F7800.000
G1 X85.299 Y87.841
G1 F1800.000 E1.00000
G1 X86.701 Y87.841 F600.000 E1.02690
G1 X86.701 Y105.659 E1.36886
G1 X85.299 Y105.659 E1.39576
G1 X85.299 Y87.931 E1.73601
G1 X85.817 Y88.140 F7800.000
G1 X93.299 Y87.841
G1 X94.701 Y87.841 F600.000 E1.76291
G1 X94.701 Y105.659 E2.10487
G1 X93.299 Y105.659 E2.13177
G1 X93.299 Y87.931 E2.47201
G1 X93.817 Y88.140 F7800.000
G1 X93.500 Y88.042
G1 X92.500 Y87.820
G1 X91.883 Y78.742
G1 X92.102 Y79.104
G1 X92.102 Y87.422 F600.000 E2.63165
G1 X87.898 Y87.422 E2.71235
G1 X87.898 Y79.104 E2.87200
G1 X88.508 Y79.465 E2.88560
G1 X89.043 Y79.696 E2.89679
G1 X89.453 Y79.798 E2.90490
G1 X90.000 Y79.848 E2.91545
G1 X90.581 Y79.793 E2.92664
G1 X90.957 Y79.696 E2.93410
G1 X91.493 Y79.465 E2.94530
G1 X92.025 Y79.150 E2.95717
G1 X91.604 Y78.666 F7800.000
G1 X91.926 Y78.343 F600.000 E2.96591
G1 X92.190 Y77.954 E2.97494
G1 X92.377 Y77.522 E2.98397
G1 X92.516 Y77.043 E2.99354
G1 X92.701 Y77.070 E2.99712
G1 X92.701 Y88.020 E3.20729
G1 X87.299 Y88.020 E3.31096
G1 X87.299 Y77.070 E3.52114
G1 X87.484 Y77.043 E3.52472
G1 X87.623 Y77.522 E3.53429
G1 X87.739 Y77.814 E3.54031
G1 X87.978 Y78.219 E3.54934
G1 X88.178 Y78.461 E3.55537
G1 X88.543 Y78.781 E3.56468
G1 X88.796 Y78.940 E3.57042
G1 X89.080 Y79.074 E3.57644
G1 X89.378 Y79.171 E3.58247
G1 X89.687 Y79.230 E3.58849
G1 X90.000 Y79.249 E3.59451
G1 X90.313 Y79.230 E3.60054
G1 X90.622 Y79.171 E3.60656
G1 X90.920 Y79.074 E3.61258
G1 X91.204 Y78.940 E3.61861
G1 X91.534 Y78.722 E3.62621
G1 X92.036 Y78.810 F7800.000
G1 X92.516 Y76.457
G1 X92.377 Y75.978 F600.000 E3.63578
G1 X92.190 Y75.546 E3.64481
G1 X91.926 Y75.157 E3.65384
G1 X91.593 Y74.824 E3.66287
G1 X91.204 Y74.560 E3.67190
G1 X90.920 Y74.426 E3.67792
G1 X90.468 Y74.295 E3.68695
G1 X90.000 Y74.251 E3.69598
G1 X89.532 Y74.295 E3.70501
G1 X89.094 Y74.421 E3.71374
G1 X88.796 Y74.560 E3.72006
G1 X88.407 Y74.824 E3.72909
G1 X88.074 Y75.157 E3.73812
G1 X87.810 Y75.546 E3.74714
G1 X87.623 Y75.978 E3.75617
G1 X87.484 Y76.457 E3.76575
G1 X87.299 Y76.430 E3.76932
G1 X87.299 Y73.049 E3.83422
G1 X92.701 Y73.049 E3.93789
G1 X92.701 Y76.430 E4.00278
G1 X92.605 Y76.444 E4.00464
G1 X92.658 Y75.978 F7800.000
G1 X92.500 Y76.150
G1 X91.993 Y74.868
G1 X90.117 Y74.053
G1 X89.904 Y74.047
G1 X88.008 Y74.867
G1 X87.500 Y76.150
G1 X87.500 Y77.316
G1 X87.257 Y76.750
G1 X87.585 Y76.750 F600.000 E4.01092
G1 X87.801 Y76.213 E4.02204
G1 X87.585 Y76.750 F7800.000
G1 X87.689 Y77.080 F600.000 E4.02868
G1 X87.689 Y77.080 F7800.000
G1 X87.802 Y77.281 F600.000 E4.03310
G1 X87.257 Y76.750 F7800.000
G1 X87.124 Y76.750 F600.000 E4.03566
G1 X87.500 Y77.316 F7800.000
G1 X87.500 Y76.150
G1 X88.008 Y74.867
G1 X89.904 Y74.047
G1 X90.117 Y74.053
G1 X91.993 Y74.868
G1 X92.500 Y76.150
G1 X92.199 Y76.225
G1 X92.308 Y76.432 F600.000 E4.04016
G1 X92.308 Y76.432 F7800.000
G1 X92.408 Y76.685 F600.000 E4.04538
G1 X92.408 Y76.685 F7800.000
G1 X92.876 Y76.750 F600.000 E4.05445
G1 X92.416 Y76.750 F7800.000
G1 X92.355 Y76.869 F600.000 E4.05701
G1 X92.355 Y76.869 F7800.000
G1 X92.307 Y77.072 F600.000 E4.06102
G1 X92.307 Y77.072 F7800.000
G1 X92.198 Y77.281 F600.000 E4.06554
G1 X91.321 Y80.036 F7800.000
G1 X88.331 Y83.026 F854.147 E4.14668
G1 X88.331 Y82.175 F7800.000
G1 X90.239 Y80.267 F854.147 E4.19847
G1 X89.424 Y80.232 F7800.000
G1 X88.331 Y81.325 F854.147 E4.22813
G1 X88.331 Y80.474 F7800.000
G1 X88.750 Y80.056 F854.147 E4.23948
G1 X91.669 Y80.539 F7800.000
G1 X88.331 Y83.876 F854.147 E4.33007
G1 X88.331 Y84.727 F7800.000
G1 X91.669 Y81.389 F854.147 E4.42065
G1 X91.669 Y82.240 F7800.000
G1 X88.331 Y85.577 F854.147 E4.51123
G1 X88.331 Y86.427 F7800.000
G1 X91.669 Y83.090 F854.147 E4.60182
G1 X91.669 Y83.940 F7800.000
G1 X88.621 Y86.988 F854.147 E4.68454
G1 X89.471 Y86.988 F7800.000
G1 X91.669 Y84.791 F854.147 E4.74419
G1 X91.669 Y85.641 F7800.000
G1 X90.322 Y86.988 F854.147 E4.78075
G1 X91.172 Y86.988 F7800.000
G1 X91.669 Y86.492 F854.147 E4.79422
G1 X93.920 Y88.493 F7800.000
G1 X93.951 Y88.462 F600.000 E4.79506
G1 X93.920 Y89.343 F7800.000
G1 X94.080 Y89.183 F600.000 E4.79940
G1 X93.920 Y90.194 F7800.000
G1 X94.080 Y90.034 F600.000 E4.80374
G1 X93.920 Y91.044 F7800.000
G1 X94.080 Y90.884 F600.000 E4.80808
G1 X93.920 Y91.894 F7800.000
G1 X94.080 Y91.734 F600.000 E4.81242
G1 X93.920 Y92.745 F7800.000
G1 X94.080 Y92.585 F600.000 E4.81676
G1 X93.920 Y93.595 F7800.000
G1 X94.080 Y93.435 F600.000 E4.82110
G1 X93.920 Y94.446 F7800.000
G1 X94.080 Y94.286 F600.000 E4.82544
G1 X93.920 Y95.296 F7800.000
G1 X94.080 Y95.136 F600.000 E4.82979
G1 X93.920 Y96.147 F7800.000
G1 X94.080 Y95.987 F600.000 E4.83413
G1 X93.920 Y96.997 F7800.000
G1 X94.080 Y96.837 F600.000 E4.83847
G1 X93.920 Y97.848 F7800.000
G1 X94.080 Y97.688 F600.000 E4.84281
G1 X93.920 Y98.698 F7800.000
G1 X94.080 Y98.538 F600.000 E4.84715
G1 X93.920 Y99.548 F7800.000
G1 X94.080 Y99.388 F600.000 E4.85149
G1 X93.920 Y100.399 F7800.000
G1 X94.080 Y100.239 F600.000 E4.85583
G1 X93.920 Y101.249 F7800.000
G1 X94.080 Y101.089 F600.000 E4.86017
G1 X93.920 Y102.100 F7800.000
G1 X94.080 Y101.940 F600.000 E4.86451
G1 X93.920 Y102.950 F7800.000
G1 X94.080 Y102.790 F600.000 E4.86886
G1 X93.920 Y103.801 F7800.000
G1 X94.080 Y103.641 F600.000 E4.87320
G1 X94.080 Y104.491 F7800.000
G1 X93.920 Y104.651 F600.000 E4.87754
G1 X93.500 Y105.458 F7800.000
G1 X93.500 Y88.042
G1 X92.500 Y87.820
G1 X87.500 Y87.820
G1 X86.500 Y88.042
G1 X86.500 Y105.458
G1 X86.080 Y104.837
G1 X85.920 Y104.997 F600.000 E4.88190
G1 X85.920 Y104.147 E4.89830
G1 X86.080 Y103.987 E4.90267
G1 X85.920 Y103.296 E4.91634
G1 X86.080 Y103.136 E4.92070
G1 X85.920 Y102.446 E4.93437
G1 X86.080 Y102.286 E4.93873
G1 X85.920 Y101.595 E4.95240
G1 X86.080 Y101.435 E4.95676
G1 X85.920 Y100.745 E4.97043
G1 X86.080 Y100.585 E4.97480
G1 X85.920 Y99.894 E4.98847
G1 X86.080 Y99.734 E4.99283
G1 X85.920 Y99.044 E5.00650
G1 X86.080 Y98.884 E5.01086
G1 X85.920 Y98.194 E5.02453
G1 X86.080 Y98.034 E5.02890
G1 X85.920 Y97.343 E5.04257
G1 X86.080 Y97.183 E5.04693
G1 X85.920 Y96.493 E5.06060
G1 X86.080 Y96.333 E5.06496
G1 X85.920 Y95.642 E5.07863
G1 X86.080 Y95.482 E5.08299
G1 X85.920 Y94.792 E5.09666
G1 X86.080 Y94.632 E5.10103
G1 X85.920 Y93.941 E5.11470
G1 X86.080 Y93.781 E5.11906
G1 X85.920 Y93.091 E5.13273
G1 X86.080 Y92.931 E5.13709
G1 X85.920 Y92.240 E5.15076
G1 X86.080 Y92.081 E5.15513
G1 X85.920 Y91.390 E5.16880
G1 X86.080 Y91.230 E5.17316
G1 X85.920 Y90.540 E5.18683
G1 X86.080 Y90.380 E5.19119
G1 X85.920 Y89.689 E5.20486
G1 X86.080 Y89.529 E5.20922
G1 X85.920 Y88.839 E5.22289
G1 X86.080 Y88.679 E5.22726
G1 X86.500 Y88.042 F7800.000
G1 X87.500 Y87.820
G1 X87.500 Y77.316
G1 X87.500 Y76.150
G1 X88.008 Y74.867
G1 X89.904 Y74.047
G1 X90.117 Y74.053
G1 X90.124 Y73.755
G1 X90.055 Y73.824 F600.000 E5.22816
G1 X89.845 Y73.626 E5.23084
G1 X89.994 Y73.477 E5.23280
G1 X91.786 Y73.831 F7800.000
G1 X91.682 Y73.934 F600.000 E5.23712
G1 F1800.000 E4.23712
G92 E0
G1 Z0.770 F7800.000
G1 X91.993 Y74.868
G1 X92.500 Y76.150
G1 X92.500 Y77.350
G1 X91.992 Y78.633
G1 X87.500 Y87.729
G1 X86.500 Y87.935
G1 X86.701 Y87.734
G1 F1800.000 E1.00000
G1 X86.701 Y105.766 F600.000 E1.34607
G1 X85.299 Y105.766 E1.37297
G1 X85.299 Y87.734 E1.71904
G1 X86.611 Y87.734 E1.74422
G1 X86.402 Y88.252 F7800.000
G1 X86.500 Y87.935
G1 X87.500 Y87.729
G1 X92.500 Y87.729
G1 X93.500 Y87.935
G1 X93.299 Y87.734
G1 X94.701 Y87.734 F600.000 E1.77112
G1 X94.701 Y105.766 E2.11719
G1 X93.299 Y105.766 E2.14409
G1 X93.299 Y87.824 E2.48844
G1 X93.817 Y88.033 F7800.000
G1 X93.500 Y87.935
G1 X92.500 Y87.729
G1 X91.992 Y78.633
G1 X92.102 Y79.104
G1 X92.102 Y87.331 F600.000 E2.64634
G1 X87.898 Y87.331 E2.72704
