; generated by Slic3r 0.9.10b on 2013-10-13 at 22:31:47

; layer_height = 0.21
; perimeters = 2
; top_solid_layers = 3
; bottom_solid_layers = 3
; fill_density = 0.2
; perimeter_speed = 50
; infill_speed = 60
; travel_speed = 130
; nozzle_diameter = 0.4
; filament_diameter = 2.9
; extrusion_multiplier = 1.0088
; perimeters extrusion width = 0.64mm
; infill extrusion width = 0.64mm
; solid infill extrusion width = 0.64mm
; top infill extrusion width = 0.64mm
; support material extrusion width = 0.64mm
; first layer extrusion width = 0.70mm

G21 ; set units to millimeters
M107
M190 S60 ; wait for bed temperature to be reached
M104 S200 ; set temperature
G28 ; home all axes
G1 Z5 F5000 ; lift nozzle
M109 S200 ; wait for temperature to be reached
G90 ; use absolute coordinates
G92 E0
M82 ; use absolute distances for extrusion
G1 F1800.000 E-1.00000
G92 E0
G1 Z0.350 F7800.000
G1 X26.410 Y54.495
G1 F1800.000 E1.00000
G1 X27.660 Y54.115 F1200.000 E1.04439
G1 X28.950 Y53.985 E1.08844
G1 X47.040 Y53.985 E1.70309
G1 X145.860 Y56.335 E5.06164
G1 X147.130 Y56.485 E5.10509
G1 X148.350 Y56.885 E5.14871
G1 X149.470 Y57.505 E5.19221
G1 X150.450 Y58.325 E5.23562
G1 X151.250 Y59.325 E5.27913
G1 X151.850 Y60.465 E5.32291
G1 X152.210 Y61.685 E5.36612
G1 X152.340 Y62.965 E5.40984
G1 X152.340 Y67.965 E5.57972
G1 X152.200 Y69.295 E5.62516
G1 X151.800 Y70.575 E5.67073
G1 X151.150 Y71.745 E5.71620
G1 X150.280 Y72.765 E5.76175
G1 X149.220 Y73.585 E5.80729
G1 X119.620 Y92.125 E6.99400
G1 X65.660 Y123.265 E9.11079
G1 X64.480 Y123.795 E9.15474
G1 X63.220 Y124.095 E9.19875
G1 X48.270 Y126.105 E9.71127
G1 X47.390 Y126.165 E9.74124
G1 X29.300 Y126.165 E10.35589
G1 X28.020 Y126.035 E10.39960
G1 X26.790 Y125.665 E10.44324
G1 X25.650 Y125.065 E10.48701
G1 X24.650 Y124.265 E10.53052
G1 X23.830 Y123.275 E10.57420
G1 X23.210 Y122.155 E10.61770
G1 X22.820 Y120.935 E10.66122
G1 X22.670 Y119.655 E10.70500
G1 X22.310 Y101.925 E11.30754
G1 X22.310 Y60.625 E12.71079
G1 X22.440 Y59.335 E12.75484
G1 X22.820 Y58.085 E12.79923
G1 X23.430 Y56.935 E12.84346
G1 X24.260 Y55.935 E12.88762
G1 X25.260 Y55.105 E12.93177
G1 X26.326 Y54.540 E12.97276
G1 F1800.000 E11.97276
G92 E0
G1 X29.624 Y117.843 F7800.000
G1 F1800.000 E1.00000
G1 X47.076 Y117.843 F720.000 E1.59295
G1 X47.076 Y119.207 E1.63931
G1 X29.624 Y119.207 E2.23226
G1 X29.624 Y117.938 E2.27537
G1 X30.175 Y118.161 F7800.000
G1 F1800.000 E1.27537
G92 E0
G1 X26.608 Y122.525 F7800.000
G1 X24.850 Y120.768
G1 X24.850 Y108.282
G1 X26.608 Y106.525
G1 X29.697 Y106.525
G1 X29.819 Y111.207
G1 F1800.000 E1.00000
G1 X29.624 Y111.207 F720.000 E1.00663
G1 X29.624 Y109.843 E1.05298
G1 X47.076 Y109.843 E1.64593
G1 X47.076 Y111.207 E1.69229
G1 X29.915 Y111.207 E2.27537
G1 X29.722 Y111.038 F7800.000
G1 X29.913 Y111.025
G1 X46.894 Y111.025
G1 X47.159 Y112.025
G1 X47.159 Y117.025
G1 X47.612 Y116.572
G1 X47.612 Y112.478 F720.000 E2.41445
G1 X55.898 Y112.478 E2.69597
G1 X55.586 Y113.006 E2.71677
G1 X55.350 Y113.551 E2.73695
G1 X55.252 Y113.934 E2.75042
G1 X55.196 Y114.524 E2.77055
G1 X55.221 Y114.921 E2.78404
G1 X55.351 Y115.500 E2.80421
G1 X55.586 Y116.044 E2.82435
G1 X55.898 Y116.572 E2.84518
G1 X47.708 Y116.572 E3.12346
G1 X46.977 Y117.207 F7800.000
G1 X46.977 Y111.843 F720.000 E3.30572
G1 X57.861 Y111.843 E3.67552
G1 X57.891 Y112.015 E3.68148
G1 X57.423 Y112.184 E3.69836
G1 X57.001 Y112.399 E3.71447
G1 X56.626 Y112.690 E3.73057
G1 X56.313 Y113.045 E3.74667
G1 X56.072 Y113.453 E3.76277
G1 X55.955 Y113.747 E3.77352
G1 X55.877 Y114.053 E3.78427
G1 X55.832 Y114.525 E3.80036
G1 X55.852 Y114.841 E3.81111
G1 X55.955 Y115.303 E3.82722
G1 X56.072 Y115.597 E3.83796
G1 X56.313 Y116.005 E3.85406
G1 X56.626 Y116.361 E3.87016
G1 X57.001 Y116.651 E3.88627
G1 X57.423 Y116.866 E3.90238
G1 X57.891 Y117.035 E3.91925
G1 X57.861 Y117.207 E3.92521
G1 X47.072 Y117.207 E4.29177
G1 X47.295 Y116.657 F7800.000
G1 X58.809 Y117.034
G1 X59.277 Y116.866 F720.000 E4.30865
G1 X59.699 Y116.651 E4.32476
G1 X60.065 Y116.369 E4.34045
G1 X60.290 Y116.130 E4.35160
G1 X60.557 Y115.738 E4.36771
G1 X60.691 Y115.452 E4.37846
G1 X60.823 Y114.997 E4.39455
G1 X60.868 Y114.525 E4.41067
G1 X60.848 Y114.209 E4.42141
G1 X60.745 Y113.747 E4.43751
G1 X60.557 Y113.312 E4.45361
G1 X60.387 Y113.045 E4.46435
G1 X60.074 Y112.689 E4.48046
G1 X59.699 Y112.399 E4.49656
G1 X59.277 Y112.184 E4.51266
G1 X58.809 Y112.016 E4.52955
G1 X58.839 Y111.843 E4.53551
G1 X62.032 Y111.843 E4.64399
G1 X62.032 Y117.207 E4.82625
G1 X58.839 Y117.207 E4.93474
G1 X58.826 Y117.128 E4.93746
G1 X59.292 Y117.151 F7800.000
G1 X58.490 Y116.948
G1 X58.775 Y116.835 F720.000 E4.94788
G1 X58.490 Y116.948 F7800.000
G1 X58.350 Y116.972 F720.000 E4.95270
G1 X58.350 Y117.325 F7800.000
G1 X58.364 Y117.331 F720.000 E4.95324
G1 X58.336 Y117.331 F7800.000
G1 X58.350 Y116.972 F720.000 E4.96547
G1 X57.672 Y116.713 E4.99011
G1 X57.784 Y117.025 F7800.000
G1 X56.358 Y116.408
G1 X55.612 Y114.525
G1 X56.358 Y112.642
G1 X57.784 Y112.025
G1 X57.924 Y112.216
G1 X58.172 Y112.142 F720.000 E4.99890
G1 X58.172 Y112.142 F7800.000
G1 X58.350 Y112.078 F720.000 E5.00532
G1 X58.336 Y111.719 E5.01755
G1 X58.350 Y111.725 F7800.000
G1 X58.364 Y111.719 F720.000 E5.01808
G1 X58.350 Y112.078 F7800.000
G1 X58.500 Y112.094 F720.000 E5.02321
G1 X58.500 Y112.094 F7800.000
G1 X58.779 Y112.206 F720.000 E5.03344
G1 X58.779 Y112.206 F7800.000
G1 X59.055 Y112.323 F720.000 E5.04360
G1 X58.917 Y112.025 F7800.000
G1 X57.784 Y112.025
G1 X56.358 Y112.642
G1 X55.014 Y113.072
G1 X54.882 Y112.939 F1440.000 E5.04997
G1 X53.982 Y112.939 E5.08051
G1 X54.819 Y113.775 E5.12070
G1 X54.738 Y114.594 E5.14864
G1 X53.083 Y112.939 E5.22814
G1 X52.184 Y112.939 E5.25869
G1 X54.934 Y115.688 E5.39078
G1 X54.457 Y116.111 E5.41242
G1 X51.285 Y112.939 E5.56483
G1 X50.386 Y112.939 E5.59537
G1 X53.558 Y116.111 E5.74778
G1 X52.659 Y116.111 E5.77832
G1 X49.487 Y112.939 E5.93073
G1 X48.588 Y112.939 E5.96127
G1 X51.760 Y116.111 E6.11368
G1 X50.861 Y116.111 E6.14422
G1 X48.073 Y113.323 E6.27818
G1 X48.073 Y114.222 E6.30873
G1 X49.962 Y116.111 E6.39949
G1 X49.063 Y116.111 E6.43004
G1 X48.073 Y115.121 E6.47760
G1 X48.073 Y116.020 E6.50815
G1 X48.164 Y116.111 E6.51251
G1 X47.159 Y117.025 F7800.000
G1 X57.784 Y117.025
G1 X58.950 Y117.025
G1 X60.233 Y116.517
G1 X61.091 Y114.533
G1 X61.574 Y114.858
G1 X61.323 Y114.607 F480.000 E6.51834
G1 X61.574 Y114.424 E6.52343
G1 X61.329 Y114.179 E6.52912
G1 X61.091 Y114.533 F7800.000
G1 X60.342 Y112.642
G1 X58.917 Y112.025
G1 X57.784 Y112.025
G1 X47.159 Y112.025
G1 X46.894 Y111.025
G1 X30.109 Y110.025
G1 X30.905 Y110.539
G1 X30.876 Y110.511 F480.000 E6.53051
G1 X31.775 Y110.511 E6.56106
G1 X31.804 Y110.539 E6.56245
G1 X32.674 Y110.511 E6.59203
G1 X32.703 Y110.539 E6.59342
G1 X33.573 Y110.511 E6.62300
G1 X33.602 Y110.539 E6.62439
G1 X34.472 Y110.511 E6.65397
G1 X34.501 Y110.539 E6.65536
G1 X35.371 Y110.511 E6.68494
G1 X35.400 Y110.539 E6.68633
G1 X36.270 Y110.511 E6.71591
G1 X36.299 Y110.539 E6.71730
G1 X37.169 Y110.511 E6.74688
G1 X37.198 Y110.539 E6.74827
G1 X38.068 Y110.511 E6.77785
G1 X38.097 Y110.539 E6.77924
G1 X38.967 Y110.511 E6.80882
G1 X38.996 Y110.539 E6.81021
G1 X39.866 Y110.511 E6.83979
G1 X39.895 Y110.539 E6.84118
G1 X40.765 Y110.511 E6.87076
G1 X40.794 Y110.539 E6.87215
G1 X41.664 Y110.511 E6.90173
G1 X41.693 Y110.539 E6.90312
G1 X42.564 Y110.511 E6.93270
G1 X42.592 Y110.539 E6.93409
G1 X43.463 Y110.511 E6.96367
G1 X43.492 Y110.539 E6.96507
G1 X44.362 Y110.511 E6.99464
G1 X44.391 Y110.539 E6.99604
G1 X45.261 Y110.511 E7.02561
G1 X45.290 Y110.539 E7.02701
G1 X46.160 Y110.511 E7.05659
G1 X46.189 Y110.539 E7.05798
G1 X46.894 Y111.025 F7800.000
G1 X47.159 Y112.025
G1 X47.159 Y117.025
G1 X46.894 Y118.025
G1 X29.806 Y119.025
G1 X30.814 Y118.539
G1 X30.785 Y118.511 F480.000 E7.05937
G1 X31.684 Y118.511 E7.08992
G1 X31.713 Y118.539 E7.09131
G1 X32.583 Y118.511 E7.12090
G1 X32.612 Y118.539 E7.12229
G1 X33.482 Y118.511 E7.15187
G1 X33.511 Y118.539 E7.15326
G1 X34.381 Y118.511 E7.18285
G1 X34.410 Y118.539 E7.18424
G1 X35.280 Y118.511 E7.21382
G1 X35.309 Y118.539 E7.21521
G1 X36.179 Y118.511 E7.24480
G1 X36.208 Y118.539 E7.24619
G1 X37.078 Y118.511 E7.27577
G1 X37.107 Y118.539 E7.27716
G1 X37.977 Y118.511 E7.30675
G1 X38.006 Y118.539 E7.30814
G1 X38.876 Y118.511 E7.33772
G1 X38.905 Y118.539 E7.33911
G1 X39.775 Y118.511 E7.36870
G1 X39.804 Y118.539 E7.37009
G1 X40.674 Y118.511 E7.39967
G1 X40.703 Y118.539 E7.40106
G1 X41.573 Y118.511 E7.43065
G1 X41.602 Y118.539 E7.43204
G1 X42.472 Y118.511 E7.46162
G1 X42.501 Y118.539 E7.46301
G1 X43.371 Y118.511 E7.49260
G1 X43.400 Y118.539 E7.49399
G1 X44.270 Y118.511 E7.52357
G1 X44.299 Y118.539 E7.52496
G1 X45.169 Y118.511 E7.55455
G1 X45.198 Y118.539 E7.55594
G1 X46.068 Y118.511 E7.58552
G1 X46.097 Y118.539 E7.58691
G1 F1800.000 E6.58691
G92 E0
G1 X49.067 Y122.525 F7800.000
G1 X65.464 Y119.545
G1 X64.753 Y108.848
G1 X48.587 Y105.874
G1 X47.046 Y101.932
G1 F1800.000 E1.00000
G1 X28.954 Y101.932 F1440.000 E1.61471
G1 F1800.000 E0.61471
G92 E0
G1 X85.298 Y102.375 F7800.000
G1 X85.298 Y93.375
G1 X28.954 Y94.305
G1 F1800.000 E1.00000
G1 X47.046 Y94.305 F1440.000 E1.61471
G1 X47.046 Y93.034 E1.65790
G1 X28.954 Y93.034 E2.27260
G1 F1800.000 E1.27260
G92 E0
G1 X85.298 Y93.375 F7800.000
G1 X46.317 Y95.576
G1 F1800.000 E1.00000
G1 X81.996 Y95.576 F1440.000 E2.21228
G1 X81.996 Y96.847 E2.25547
G1 X79.938 Y96.847 E2.32539
G1 X79.930 Y96.847 F7800.000
G1 X77.004 Y96.847 F1440.000 E2.42484
G1 X76.062 Y96.847 F7800.000
G1 X46.317 Y96.847 F1440.000 E3.43547
G1 X46.317 Y98.118 E3.47866
G1 X75.819 Y98.118 E4.48106
G1 X77.004 Y98.118 F7800.000
G1 X80.173 Y98.118 F1440.000 E4.58876
G1 X80.181 Y98.118 F7800.000
G1 X81.996 Y98.118 F1440.000 E4.65046
G1 X81.996 Y99.390 E4.69365
G1 X79.589 Y99.390 E4.77544
G1 X79.585 Y99.390 F7800.000
G1 X77.004 Y99.390 F1440.000 E4.86314
G1 X76.406 Y99.390 F7800.000
G1 X46.317 Y99.390 F1440.000 E5.88545
G1 X46.317 Y100.661 E5.92865
G1 X81.996 Y100.661 E7.14092
G1 F1800.000 E6.14092
G92 E0
G1 X85.298 Y102.375 F7800.000
G1 X88.251 Y99.422
G1 F1800.000 E1.00000
G1 X88.251 Y96.328 F720.000 E1.10510
G1 X89.749 Y96.328 E1.15597
G1 X89.749 Y99.422 E1.26106
G1 X88.347 Y99.422 E1.30870
G1 X87.616 Y100.057 F7800.000
G1 X87.616 Y95.693 F720.000 E1.45698
G1 X90.384 Y95.693 E1.55105
G1 X90.384 Y100.057 E1.69934
G1 X87.711 Y100.057 E1.79016
G1 X87.934 Y99.507 F7800.000
G1 X88.929 Y98.754
G1 X89.081 Y98.000 F480.000 E1.81646
G1 X88.919 Y97.839 E1.82429
G1 X89.081 Y97.095 E1.85031
G1 X88.982 Y96.996 E1.85511
G1 F1800.000 E0.85511
G92 E0
G1 X99.791 Y92.488 F7800.000
G1 X124.412 Y89.332
G1 X102.006 Y85.390
G1 F1800.000 E1.00000
G1 X46.917 Y85.390 F1440.000 E2.87174
G1 X46.917 Y86.661 E2.91493
G1 X107.596 Y86.661 E4.97663
G1 F1800.000 E3.97663
G92 E0
G1 X110.898 Y88.375 F7800.000
G1 X105.189 Y85.390
G1 F1800.000 E1.00000
G1 X107.596 Y85.390 F1440.000 E1.08179
G1 X107.596 Y84.118 E1.12498
G1 X105.781 Y84.118 E1.18668
G1 X105.773 Y84.118 F7800.000
G1 X102.604 Y84.118 F1440.000 E1.29438
G1 X101.419 Y84.118 F7800.000
G1 X46.917 Y84.118 F1440.000 E3.14621
G1 X46.917 Y82.847 E3.18940
G1 X101.662 Y82.847 E5.04945
G1 X102.604 Y82.847 F7800.000
G1 X105.530 Y82.847 F1440.000 E5.14890
G1 X105.538 Y82.847 F7800.000
G1 X107.596 Y82.847 F1440.000 E5.21882
G1 X107.596 Y81.576 E5.26201
G1 X46.917 Y81.576 E7.32371
G1 F1800.000 E6.32371
G92 E0
G1 X110.898 Y79.375 F7800.000
G1 X110.898 Y88.375
G1 X47.646 Y87.932
G1 F1800.000 E1.00000
G1 X29.554 Y87.932 F1440.000 E1.61471
G1 F1800.000 E0.61471
G92 E0
G1 X110.898 Y88.375 F7800.000
G1 X110.898 Y79.375
G1 X29.554 Y80.305
G1 F1800.000 E1.00000
G1 X47.646 Y80.305 F1440.000 E1.61471
G1 X47.646 Y79.034 E1.65790
G1 X29.554 Y79.034 E2.27260
G1 F1800.000 E1.27260
G92 E0
G1 X110.898 Y79.375 F7800.000
G1 X110.898 Y88.375
G1 X102.604 Y85.390
G1 F1800.000 E1.00000
G1 X105.185 Y85.390 F1440.000 E1.08770
G1 F1800.000 E0.08770
G92 E0
G1 X110.898 Y88.375 F7800.000
G1 X113.851 Y85.422
G1 F1800.000 E1.00000
G1 X113.851 Y82.328 F720.000 E1.10510
G1 X115.349 Y82.328 E1.15597
G1 X115.349 Y85.422 E1.26106
G1 X113.947 Y85.422 E1.30870
G1 X113.216 Y86.057 F7800.000
G1 X113.216 Y81.693 F720.000 E1.45699
G1 X115.984 Y81.693 E1.55105
G1 X115.984 Y86.057 E1.69934
G1 X113.311 Y86.057 E1.79017
G1 X113.534 Y85.507 F7800.000
G1 X114.681 Y84.203
G1 X114.519 Y84.041 F480.000 E1.79795
G1 X114.681 Y83.303 E1.82366
G1 X114.519 Y83.141 E1.83144
G1 F1800.000 E0.83144
G92 E0
G1 X124.412 Y78.418 F7800.000
G1 X137.075 Y71.474
G1 X131.406 Y66.990
G1 F1800.000 E1.00000
G1 X46.317 Y66.990 F1440.000 E3.89105
G1 X46.317 Y68.261 E3.93424
G1 X136.996 Y68.261 E7.01525
G1 F1800.000 E6.01525
G92 E0
G1 X140.298 Y69.975 F7800.000
G1 X134.589 Y66.990
G1 F1800.000 E1.00000
G1 X136.996 Y66.990 F1440.000 E1.08179
G1 X136.996 Y65.718 E1.12498
G1 X135.181 Y65.718 E1.18668
G1 X135.173 Y65.718 F7800.000
G1 X132.004 Y65.718 F1440.000 E1.29438
G1 X130.819 Y65.718 F7800.000
G1 X46.317 Y65.718 F1440.000 E4.16552
G1 X46.317 Y64.447 E4.20871
G1 X131.062 Y64.447 E7.08807
G1 X132.004 Y64.447 F7800.000
G1 X134.930 Y64.447 F1440.000 E7.18751
G1 X134.938 Y64.447 F7800.000
G1 X136.996 Y64.447 F1440.000 E7.25744
G1 X136.996 Y63.176 E7.30063
G1 X46.317 Y63.176 E10.38164
G1 F1800.000 E9.38164
G92 E0
G1 X140.298 Y60.975 F7800.000
G1 X140.298 Y69.975
G1 X47.046 Y69.532
G1 F1800.000 E1.00000
G1 X28.954 Y69.532 F1440.000 E1.61471
G1 F1800.000 E0.61471
G92 E0
G1 X140.298 Y69.975 F7800.000
G1 X140.298 Y60.975
G1 X28.954 Y61.905
G1 F1800.000 E1.00000
G1 X47.046 Y61.905 F1440.000 E1.61471
G1 X47.046 Y60.634 E1.65790
G1 X28.954 Y60.634 E2.27260
G1 F1800.000 E1.27260
G92 E0
G1 X140.298 Y60.975 F7800.000
G1 X140.298 Y69.975
G1 X132.004 Y66.990
G1 F1800.000 E1.00000
G1 X134.585 Y66.990 F1440.000 E1.08770
G1 F1800.000 E0.08770
G92 E0
G1 X140.298 Y69.975 F7800.000
G1 X143.251 Y63.928
G1 F1800.000 E1.00000
G1 X144.749 Y63.928 F720.000 E1.05087
G1 X144.749 Y67.022 E1.15597
G1 X143.251 Y67.022 E1.20684
G1 X143.251 Y64.024 E1.30869
G1 X142.616 Y63.293 F7800.000
G1 X145.384 Y63.293 F720.000 E1.40276
G1 X145.384 Y67.657 E1.55105
G1 X142.616 Y67.657 E1.64511
G1 X142.616 Y63.388 E1.79016
G1 X143.166 Y63.611 F7800.000
G1 X144.081 Y66.020
G1 X143.919 Y65.858 F480.000 E1.79795
G1 X144.081 Y65.119 E1.82369
G1 X143.919 Y64.958 E1.83148
M106 S650
G1 F1800.000 E0.83148
G92 E0
G1 Z0.560 F7800.000
G1 X137.075 Y71.474
G1 X126.098 Y87.588
G1 X124.412 Y89.332
G1 X98.847 Y103.310
G1 X65.464 Y119.545
G1 X49.067 Y122.525
G1 X47.259 Y117.824
G1 F1800.000 E1.00000
G1 X47.259 Y119.226 F1666.147 E1.02690
G1 X29.441 Y119.226 E1.36886
G1 X29.441 Y117.824 E1.39576
G1 X47.169 Y117.824 E1.73601
G1 X46.960 Y118.342 F7800.000
G1 X47.259 Y111.226
G1 X29.441 Y111.226 F1666.147 E2.07797
G1 X29.441 Y109.824 E2.10487
G1 X47.259 Y109.824 E2.44683
G1 X47.259 Y111.136 E2.47201
G1 X46.741 Y110.927 F7800.000
G1 X47.678 Y112.423
G1 X55.996 Y112.423 F1666.147 E2.63165
G1 X55.635 Y113.033 E2.64526
G1 X55.404 Y113.568 E2.65645
G1 X55.307 Y113.944 E2.66391
G1 X55.252 Y114.525 E2.67510
G1 X55.276 Y114.913 E2.68257
G1 X55.404 Y115.482 E2.69376
G1 X55.635 Y116.018 E2.70495
G1 X55.996 Y116.627 E2.71855
G1 X47.678 Y116.627 E2.87819
G1 X47.678 Y112.512 E2.95717
G1 X48.184 Y111.824 F7800.000
G1 X58.030 Y111.824 F1666.147 E3.14614
G1 X58.057 Y112.009 E3.14972
G1 X57.578 Y112.148 E3.15930
G1 X57.146 Y112.335 E3.16833
G1 X56.757 Y112.599 E3.17735
G1 X56.424 Y112.932 E3.18638
G1 X56.232 Y113.199 E3.19269
G1 X56.026 Y113.605 E3.20143
G1 X55.895 Y114.057 E3.21046
G1 X55.851 Y114.525 E3.21949
G1 X55.895 Y114.993 E3.22852
G1 X56.026 Y115.445 E3.23755
G1 X56.240 Y115.864 E3.24658
G1 X56.424 Y116.118 E3.25260
G1 X56.757 Y116.451 E3.26163
G1 X57.146 Y116.715 E3.27066
G1 X57.578 Y116.902 E3.27969
G1 X58.057 Y117.041 E3.28926
G1 X58.030 Y117.226 E3.29284
G1 X47.080 Y117.226 E3.50301
G1 X47.080 Y111.824 E3.60668
G1 X48.094 Y111.824 E3.62616
G1 X48.483 Y112.342 F7800.000
G1 X58.643 Y112.009
G1 X58.670 Y111.824 F1666.147 E3.62974
G1 X62.051 Y111.824 E3.69463
G1 X62.051 Y117.226 E3.79830
G1 X58.670 Y117.226 E3.86320
G1 X58.643 Y117.041 E3.86678
G1 X59.122 Y116.902 E3.87635
G1 X59.554 Y116.715 E3.88538
G1 X59.943 Y116.451 E3.89441
