; generated by Slic3r 0.9.10b on 2013-10-15 at 20:49:15

; layer_height = 0.21
; perimeters = 2
; top_solid_layers = 3
; bottom_solid_layers = 3
; fill_density = 0.2
; perimeter_speed = 50
; infill_speed = 60
; travel_speed = 130
; nozzle_diameter = 0.4
; filament_diameter = 2.9
; extrusion_multiplier = 1.0088
; perimeters extrusion width = 0.64mm
; infill extrusion width = 0.64mm
; solid infill extrusion width = 0.64mm
; top infill extrusion width = 0.64mm
; support material extrusion width = 0.64mm
; first layer extrusion width = 0.70mm

G21 ; set units to millimeters
M107
M190 S60 ; wait for bed temperature to be reached
M104 S200 ; set temperature
G28 ; home all axes
G1 Z5 F5000 ; lift nozzle
M109 S200 ; wait for temperature to be reached
G90 ; use absolute coordinates
G92 E0
M82 ; use absolute distances for extrusion
G1 F1800.000 E-1.00000
G92 E0
G1 Z0.350 F7800.000
G1 X82.520 Y65.920
G1 F1800.000 E1.00000
G1 X83.550 Y64.960 F1110.193 E1.04784
G1 X84.770 Y64.250 E1.09580
G1 X86.100 Y63.810 E1.14340
G1 X87.500 Y63.660 E1.19124
G1 X92.500 Y63.660 E1.36112
G1 X93.900 Y63.810 E1.40896
G1 X95.230 Y64.250 E1.45656
G1 X96.450 Y64.960 E1.50452
G1 X97.480 Y65.920 E1.55236
G1 X98.290 Y67.060 E1.59988
G1 X98.840 Y68.360 E1.64784
G1 X99.110 Y69.740 E1.69562
G1 X101.610 Y99.040 E2.69476
G1 X101.640 Y99.600 E2.71381
G1 X101.640 Y112.390 E3.14838
G1 X101.510 Y113.680 E3.19243
G1 X101.130 Y114.930 E3.23682
G1 X100.520 Y116.080 E3.28105
G1 X99.690 Y117.080 E3.32520
G1 X98.690 Y117.910 E3.36936
G1 X97.540 Y118.520 E3.41359
G1 X96.290 Y118.900 E3.45798
G1 X95.000 Y119.030 E3.50203
G1 X85.000 Y119.030 E3.84180
G1 X83.710 Y118.900 E3.88586
G1 X82.460 Y118.520 E3.93025
G1 X81.310 Y117.910 E3.97448
G1 X80.310 Y117.080 E4.01863
G1 X79.480 Y116.080 E4.06279
G1 X78.870 Y114.930 E4.10702
G1 X78.490 Y113.680 E4.15141
G1 X78.360 Y112.390 E4.19546
G1 X78.360 Y99.600 E4.63002
G1 X78.390 Y99.040 E4.64908
G1 X80.890 Y69.740 E5.64822
G1 X81.160 Y68.360 E5.69600
G1 X81.710 Y67.060 E5.74396
G1 X82.465 Y65.998 E5.78823
G1 F1800.000 E4.78823
G92 E0
G1 X85.318 Y99.927 F7800.000
G1 F1800.000 E1.00000
G1 X86.682 Y99.927 F666.116 E1.04636
G1 X86.682 Y112.073 E1.45902
G1 X85.318 Y112.073 E1.50538
G1 X85.318 Y100.023 E1.91480
G1 X85.868 Y100.245 F7800.000
G1 F1800.000 E0.91480
G92 E0
G1 X82.002 Y95.366 F7800.000
G1 X82.000 Y117.741
G1 X83.757 Y119.498
G1 X96.243 Y119.498
G1 X98.000 Y117.741
G1 X97.998 Y95.366
G1 X93.318 Y99.927
G1 F1800.000 E1.00000
G1 X94.682 Y99.927 F666.116 E1.04636
G1 X94.682 Y112.073 E1.45902
G1 X93.318 Y112.073 E1.50538
G1 X93.318 Y100.023 E1.91480
G1 X93.868 Y100.245 F7800.000
G1 F1800.000 E0.91480
G92 E0
G1 X93.500 Y100.109 F7800.000
G1 X90.500 Y99.661
G1 F1800.000 E1.00000
G1 X92.833 Y99.649 F666.116 E1.07927
G1 F1800.000 E0.07927
G92 E0
G1 X93.500 Y100.109 F7800.000
G1 X90.500 Y99.661
G1 F1800.000 E1.00000
G1 X88.833 Y99.671 F666.116 E1.05663
G1 X88.833 Y99.671 F7800.000
G1 X88.500 Y99.675 F666.116 E1.06796
G1 X88.500 Y99.675 F7800.000
G1 X87.833 Y99.679 F666.116 E1.09062
G1 X87.833 Y99.679 F7800.000
G1 X87.500 Y99.679 F666.116 E1.10194
G1 X87.500 Y99.679 F7800.000
G1 X87.500 Y99.681 F666.116 E1.10201
G1 F1800.000 E0.10201
G92 E0
G1 X86.500 Y100.109 F7800.000
G1 X86.500 Y111.890
G1 X86.014 Y110.669
G1 F1800.000 E1.00000
G1 X85.986 Y110.640 F600.000 E1.00139
G1 X86.014 Y109.769 E1.03104
G1 X85.986 Y109.740 E1.03243
G1 X86.014 Y108.869 E1.06208
G1 X85.986 Y108.840 E1.06347
G1 X86.014 Y107.969 E1.09311
G1 X85.986 Y107.940 E1.09451
G1 X86.014 Y107.069 E1.12415
G1 X85.986 Y107.040 E1.12555
G1 X86.014 Y106.169 E1.15519
G1 X85.986 Y106.141 E1.15658
G1 X86.014 Y105.270 E1.18623
G1 X85.986 Y105.241 E1.18762
G1 X86.014 Y104.370 E1.21727
G1 X85.986 Y104.341 E1.21866
G1 X86.014 Y103.470 E1.24830
G1 X85.986 Y103.441 E1.24970
G1 X86.014 Y102.570 E1.27934
G1 X85.986 Y102.541 E1.28074
G1 X86.014 Y101.670 E1.31038
G1 X85.986 Y101.641 E1.31177
G1 X86.014 Y100.770 E1.34142
G1 X85.986 Y100.741 E1.34281
G1 F1800.000 E0.34281
G92 E0
G1 X85.500 Y100.109 F7800.000
G1 X86.500 Y100.109
G1 X88.000 Y97.500
G1 X92.000 Y97.500
G1 X93.500 Y100.109
G1 X94.500 Y111.890
G1 X94.014 Y110.570
G1 F1800.000 E1.00000
G1 X93.986 Y110.541 F600.000 E1.00139
G1 X94.014 Y109.670 E1.03100
G1 X93.986 Y109.641 E1.03239
G1 X94.014 Y108.770 E1.06200
G1 X93.986 Y108.741 E1.06340
G1 X94.014 Y107.870 E1.09301
G1 X93.986 Y107.841 E1.09440
G1 X94.014 Y106.970 E1.12401
G1 X93.986 Y106.941 E1.12540
G1 X94.014 Y106.070 E1.15501
G1 X93.986 Y106.041 E1.15640
G1 X94.014 Y105.170 E1.18601
G1 X93.986 Y105.141 E1.18740
G1 X94.014 Y104.270 E1.21701
G1 X93.986 Y104.241 E1.21840
G1 X94.014 Y103.370 E1.24801
G1 X93.986 Y103.341 E1.24941
G1 X94.014 Y102.470 E1.27902
G1 X93.986 Y102.441 E1.28041
G1 X94.014 Y101.570 E1.31002
G1 X93.986 Y101.541 E1.31141
G1 X94.014 Y100.670 E1.34102
G1 X93.986 Y100.641 E1.34241
G1 F1800.000 E0.34241
G92 E0
G1 X93.500 Y100.109 F7800.000
G1 X92.000 Y97.500
G1 X91.992 Y78.883
G1 X91.547 Y79.794
G1 F1800.000 E1.00000
G1 X91.547 Y97.047 F666.116 E1.58620
G1 X88.453 Y97.047 E1.69130
G1 X88.453 Y79.794 E2.27750
G1 X89.216 Y80.055 E2.30487
G1 X89.603 Y80.129 E2.31827
G1 X90.000 Y80.154 E2.33179
G1 X90.393 Y80.129 E2.34519
G1 X90.784 Y80.055 E2.35871
G1 X91.457 Y79.826 E2.38284
G1 X91.213 Y79.207 F7800.000
G1 X91.480 Y79.037 F777.135 E2.39359
G1 X91.724 Y78.836 E2.40433
G1 X92.182 Y78.330 E2.42751
G1 X92.182 Y97.682 E3.08503
G1 X87.818 Y97.682 E3.23331
G1 X87.818 Y78.330 E3.89083
G1 X88.164 Y78.724 E3.90864
G1 X88.520 Y79.037 E3.92475
G1 X88.928 Y79.278 E3.94085
G1 X89.374 Y79.439 E3.95695
G1 X89.842 Y79.513 E3.97306
G1 X90.315 Y79.498 E3.98913
G1 X90.778 Y79.395 E4.00526
G1 X91.128 Y79.250 E4.01813
G1 X91.485 Y79.367 F7800.000
G1 F1800.000 E3.01813
G92 E0
G1 X91.992 Y78.883 F7800.000
G1 X92.000 Y78.863
G1 X92.000 Y75.137
G1 X92.000 Y70.798
G1 X91.547 Y71.251
G1 F1800.000 E1.00000
G1 X91.547 Y74.206 F666.116 E1.10040
G1 X90.784 Y73.945 E1.12778
G1 X90.396 Y73.871 E1.14123
G1 X90.000 Y73.846 E1.15469
G1 X89.604 Y73.871 E1.16816
G1 X89.216 Y73.945 E1.18161
G1 X88.453 Y74.206 E1.20898
G1 X88.453 Y71.251 E1.30938
G1 X91.451 Y71.251 E1.41124
G1 X92.182 Y70.616 F7800.000
G1 X92.182 Y75.670 F666.116 E1.58296
G1 X91.724 Y75.164 E1.60614
G1 X91.480 Y74.963 E1.61688
G1 X91.213 Y74.793 E1.62762
G1 X90.927 Y74.659 E1.63837
G1 X90.626 Y74.561 E1.64911
G1 X90.316 Y74.502 E1.65985
G1 X90.000 Y74.482 E1.67060
G1 X89.684 Y74.502 E1.68135
G1 X89.374 Y74.561 E1.69209
G1 X89.073 Y74.659 E1.70283
G1 X88.787 Y74.793 E1.71358
G1 X88.520 Y74.963 E1.72432
G1 X88.276 Y75.164 E1.73506
G1 X87.818 Y75.670 E1.75824
G1 X87.818 Y70.616 E1.92996
G1 X92.087 Y70.616 E2.07501
G1 X91.864 Y71.166 F7800.000
G1 F1800.000 E1.07501
G92 E0
G1 X92.000 Y70.798 F7800.000
G1 X88.008 Y75.117
G1 X88.000 Y75.137
G1 X88.000 Y78.859
G1 X87.962 Y78.074
G1 F1800.000 E1.00000
G1 X87.835 Y77.878 F666.116 E1.00794
G1 X87.835 Y77.878 F7800.000
G1 X87.723 Y77.808 F666.116 E1.01241
G1 X87.723 Y77.808 F7800.000
G1 X87.697 Y77.706 F666.116 E1.01599
G1 X87.697 Y77.706 F7800.000
G1 X87.671 Y77.675 F666.116 E1.01737
G1 X87.671 Y77.675 F7800.000
G1 X87.625 Y77.337 F666.116 E1.02894
G1 X87.625 Y77.337 F7800.000
G1 X87.674 Y76.325 F666.116 E1.06338
G1 X87.923 Y75.852 E1.08154
G1 X88.000 Y75.137 F7800.000
G1 X88.008 Y75.117
G1 X89.904 Y74.297
G1 X90.204 Y74.306
G1 X91.994 Y75.123
G1 X92.000 Y75.137
G1 X92.063 Y75.870
G1 X92.332 Y76.325 F666.116 E1.09950
G1 X92.337 Y76.735 E1.11342
G1 X92.337 Y76.735 F7800.000
G1 X92.360 Y76.971 F666.116 E1.12148
G1 X92.360 Y76.971 F7800.000
G1 X92.326 Y77.177 F666.116 E1.12857
G1 X92.326 Y77.177 F7800.000
G1 X92.331 Y77.675 F666.116 E1.14551
G1 X92.078 Y78.149 E1.16377
G1 X90.951 Y80.507 F7800.000
G1 X91.086 Y80.642 F1332.232 E1.17027
G1 X91.086 Y81.542 E1.20084
G1 X90.151 Y80.608 E1.24574
G1 X89.163 Y80.520 E1.27945
G1 X91.086 Y82.442 E1.37184
G1 X91.086 Y83.342 E1.40241
G1 X88.914 Y81.171 E1.50677
G1 X88.914 Y82.070 E1.53735
G1 X91.086 Y84.242 E1.64170
G1 X91.086 Y85.142 E1.67228
G1 X88.914 Y82.970 E1.77663
G1 X88.914 Y83.870 E1.80721
G1 X91.086 Y86.042 E1.91156
G1 X91.086 Y86.942 E1.94214
G1 X88.914 Y84.770 E2.04649
G1 X88.914 Y85.670 E2.07707
G1 X91.086 Y87.842 E2.18142
G1 X91.086 Y88.742 E2.21200
G1 X88.914 Y86.570 E2.31635
G1 X88.914 Y87.470 E2.34693
G1 X91.086 Y89.642 E2.45129
G1 X91.086 Y90.542 E2.48186
G1 X88.914 Y88.370 E2.58622
G1 X88.914 Y89.270 E2.61679
G1 X91.086 Y91.442 E2.72115
G1 X91.086 Y92.342 E2.75172
G1 X88.914 Y90.170 E2.85608
G1 X88.914 Y91.070 E2.88666
G1 X91.086 Y93.242 E2.99101
G1 X91.086 Y94.142 E3.02159
G1 X88.914 Y91.970 E3.12594
G1 X88.914 Y92.870 E3.15652
G1 X91.086 Y95.042 E3.26087
G1 X91.086 Y95.942 E3.29145
G1 X88.914 Y93.770 E3.39580
G1 X88.914 Y94.670 E3.42638
G1 X90.830 Y96.586 E3.51845
G1 X89.930 Y96.586 E3.54902
G1 X88.914 Y95.570 E3.59785
G1 X88.914 Y96.470 E3.62842
G1 X89.030 Y96.586 E3.63400
G1 F1800.000 E2.63400
G92 E0
G1 X88.000 Y97.500 F7800.000
G1 X88.000 Y78.859
G1 X88.000 Y75.137
G1 X88.008 Y75.117
G1 X89.904 Y74.297
G1 X89.297 Y73.453
G1 F1800.000 E1.00000
G1 X88.914 Y73.071 F1332.232 E1.01838
G1 X88.914 Y72.171 E1.04895
G1 X90.137 Y73.394 E1.10770
G1 X91.086 Y73.443 E1.13999
G1 X89.355 Y71.712 E1.22315
G1 X90.255 Y71.712 E1.25373
G1 X91.086 Y72.543 E1.29365
M106 S650
G1 F1800.000 E0.29365
G92 E0
G1 Z0.560 F7800.000
G1 X90.118 Y74.303
G1 X89.904 Y74.297
G1 X88.008 Y75.117
G1 X88.000 Y75.137
G1 X88.000 Y78.853
G1 X88.000 Y97.500
G1 X86.500 Y99.756
G1 X86.701 Y99.555
G1 F1800.000 E1.00000
G1 X86.701 Y112.445 F600.000 E1.24740
G1 X85.299 Y112.445 E1.27430
G1 X85.299 Y99.555 E1.52170
G1 X86.611 Y99.555 E1.54688
G1 X86.402 Y100.073 F7800.000
G1 F1800.000 E0.54688
G92 E0
G1 X86.500 Y99.756 F7800.000
G1 X88.000 Y97.500
G1 X92.000 Y97.500
G1 X93.500 Y99.756
G1 X93.299 Y99.555
G1 F1800.000 E1.00000
G1 X94.701 Y99.555 F600.000 E1.02690
G1 X94.701 Y112.445 E1.27430
G1 X93.299 Y112.445 E1.30120
G1 X93.299 Y99.645 E1.54688
G1 X93.817 Y99.854 F7800.000
G1 F1800.000 E0.54688
G92 E0
G1 X93.500 Y99.756 F7800.000
G1 X92.000 Y97.500
G1 X88.000 Y97.500
G1 X86.500 Y99.756
G1 X87.474 Y99.432
G1 F1800.000 E1.00000
G1 X92.842 Y99.351 F600.000 E1.10304
G1 X93.920 Y100.400 F7800.000
G1 X94.080 Y100.241 F600.000 E1.10739
G1 X93.920 Y101.249 F7800.000
G1 X94.080 Y101.089 F600.000 E1.11173
G1 X93.920 Y102.098 F7800.000
G1 X94.080 Y101.938 F600.000 E1.11607
G1 X93.920 Y102.946 F7800.000
G1 X94.080 Y102.786 F600.000 E1.12041
G1 X93.920 Y103.795 F7800.000
G1 X94.080 Y103.635 F600.000 E1.12475
G1 X93.920 Y104.643 F7800.000
G1 X94.080 Y104.483 F600.000 E1.12909
G1 X93.920 Y105.492 F7800.000
G1 X94.080 Y105.332 F600.000 E1.13343
G1 X93.920 Y106.340 F7800.000
G1 X94.080 Y106.180 F600.000 E1.13777
G1 X93.920 Y107.189 F7800.000
G1 X94.080 Y107.029 F600.000 E1.14211
G1 X93.920 Y108.037 F7800.000
G1 X94.080 Y107.877 F600.000 E1.14645
G1 X93.920 Y108.886 F7800.000
G1 X94.080 Y108.726 F600.000 E1.15080
G1 X93.920 Y109.734 F7800.000
G1 X94.080 Y109.574 F600.000 E1.15514
G1 X93.920 Y110.583 F7800.000
G1 X94.080 Y110.423 F600.000 E1.15948
G1 X94.080 Y111.271 F7800.000
G1 X93.920 Y111.431 F600.000 E1.16382
G1 F1800.000 E0.16382
G92 E0
G1 X93.500 Y112.244 F7800.000
G1 X93.500 Y99.756
G1 X92.000 Y97.500
G1 X88.000 Y97.500
G1 X86.500 Y99.756
G1 X86.500 Y112.244
G1 X86.080 Y111.635
G1 F1800.000 E1.00000
G1 X85.920 Y111.795 F600.000 E1.00435
G1 X85.920 Y110.946 E1.02068
G1 X86.080 Y110.786 E1.02503
G1 X85.920 Y110.098 E1.03864
G1 X86.080 Y109.938 E1.04299
G1 X85.920 Y109.249 E1.05659
G1 X86.080 Y109.089 E1.06095
G1 X85.920 Y108.400 E1.07455
G1 X86.080 Y108.241 E1.07890
G1 X85.920 Y107.552 E1.09251
G1 X86.080 Y107.392 E1.09686
G1 X85.920 Y106.703 E1.11046
G1 X86.080 Y106.543 E1.11482
G1 X85.920 Y105.855 E1.12842
G1 X86.080 Y105.695 E1.13277
G1 X85.920 Y105.006 E1.14638
G1 X86.080 Y104.846 E1.15073
G1 X85.920 Y104.158 E1.16433
G1 X86.080 Y103.998 E1.16869
G1 X85.920 Y103.309 E1.18229
G1 X86.080 Y103.149 E1.18664
G1 X85.920 Y102.461 E1.20025
G1 X86.080 Y102.301 E1.20460
G1 X85.920 Y101.612 E1.21820
G1 X86.080 Y101.452 E1.22256
G1 X85.920 Y100.764 E1.23616
G1 X86.080 Y100.604 E1.24051
G1 F1800.000 E0.24051
G92 E0
G1 X86.500 Y99.756 F7800.000
G1 X88.000 Y97.500
G1 X88.398 Y97.102
G1 F1800.000 E1.00000
G1 X88.398 Y79.681 F765.276 E1.33437
G1 X88.860 Y79.880 E1.34403
G1 X89.230 Y80.001 E1.35150
G1 X89.611 Y80.074 E1.35896
G1 X90.000 Y80.098 E1.36643
G1 X90.389 Y80.074 E1.37390
G1 X90.770 Y80.001 E1.38136
G1 X91.140 Y79.880 E1.38883
G1 X91.602 Y79.681 E1.39849
G1 X91.602 Y97.102 E1.73286
G1 X88.487 Y97.102 E1.79264
G1 X87.799 Y97.701 F7800.000
G1 X87.799 Y78.355 F600.000 E2.16394
G1 X87.870 Y78.330 E2.16538
G1 X88.074 Y78.593 E2.17176
G1 X88.289 Y78.822 E2.17779
G1 X88.531 Y79.022 E2.18381
G1 X88.796 Y79.190 E2.18984
G1 X89.080 Y79.324 E2.19586
G1 X89.378 Y79.421 E2.20189
G1 X89.687 Y79.480 E2.20791
G1 X90.000 Y79.499 E2.21393
G1 X90.313 Y79.480 E2.21996
G1 X90.622 Y79.421 E2.22598
G1 X90.920 Y79.324 E2.23200
G1 X91.204 Y79.190 E2.23803
G1 X91.469 Y79.022 E2.24405
G1 X91.711 Y78.822 E2.25007
G1 X91.926 Y78.593 E2.25610
G1 X92.130 Y78.330 E2.26248
G1 X92.201 Y78.355 E2.26393
G1 X92.201 Y97.701 E2.63522
G1 X87.889 Y97.701 E2.71798
G1 X88.098 Y97.183 F7800.000
G1 F1800.000 E1.71798
G92 E0
G1 X88.000 Y97.500 F7800.000
G1 X92.000 Y78.863
G1 X92.000 Y75.137
G1 X91.993 Y75.118
G1 X91.602 Y74.319
G1 F1800.000 E1.00000
G1 X91.140 Y74.120 F600.000 E1.00966
G1 X90.770 Y73.999 E1.01713
G1 X90.389 Y73.926 E1.02459
G1 X90.000 Y73.902 E1.03206
G1 X89.611 Y73.926 E1.03953
G1 X89.230 Y73.999 E1.04700
G1 X88.860 Y74.120 E1.05446
G1 X88.398 Y74.319 E1.06412
G1 X88.398 Y70.163 E1.14390
G1 X91.602 Y70.163 E1.20541
G1 X91.602 Y74.230 E1.28346
G1 X91.237 Y74.829 F7800.000
G1 X91.064 Y74.739 F600.000 E1.28722
G1 X90.772 Y74.623 E1.29324
G1 X90.313 Y74.520 E1.30227
G1 X89.843 Y74.506 E1.31130
G1 X89.378 Y74.579 E1.32033
G1 X89.080 Y74.676 E1.32635
G1 X88.661 Y74.890 E1.33538
G1 X88.407 Y75.074 E1.34140
G1 X88.178 Y75.289 E1.34743
G1 X88.040 Y75.439 E1.35134
G1 X87.886 Y75.666 E1.35660
G1 X87.799 Y75.639 E1.35835
G1 X87.799 Y69.564 E1.47494
G1 X92.201 Y69.564 E1.55942
G1 X92.201 Y75.645 E1.67612
G1 X92.130 Y75.670 E1.67757
G1 X91.926 Y75.407 E1.68395
G1 X91.711 Y75.178 E1.68997
G1 X91.315 Y74.875 E1.69955
G1 X91.239 Y74.634 F7800.000
G1 F1800.000 E0.69955
G92 E0
G1 X91.993 Y75.118 F7800.000
G1 X92.000 Y75.137
G1 X92.000 Y78.863
G1 X92.147 Y77.928
G1 F1800.000 E1.00000
G1 X92.142 Y77.881 F600.000 E1.00090
G1 X92.142 Y77.881 F7800.000
G1 X92.342 Y77.582 F600.000 E1.00782
G1 X92.327 Y76.823 E1.02238
G1 X92.327 Y76.823 F7800.000
G1 X92.335 Y76.418 F600.000 E1.03016
G1 X92.147 Y76.072 E1.03772
G1 X92.000 Y75.137 F7800.000
G1 X91.993 Y75.118
G1 X90.118 Y74.303
G1 X89.904 Y74.297
G1 X88.008 Y75.117
G1 X88.000 Y75.137
G1 X87.850 Y76.068
G1 X87.708 Y76.308 F600.000 E1.04307
G1 X87.708 Y76.308 F7800.000
G1 X87.638 Y76.709 F600.000 E1.05087
G1 X87.638 Y76.709 F7800.000
G1 X87.667 Y77.582 F600.000 E1.06763
G1 X87.876 Y77.961 E1.07594
G1 X89.263 Y80.450 F7800.000
G1 X88.831 Y80.882 F918.331 E1.08765
G1 X88.831 Y81.730 F7800.000
G1 X90.036 Y80.525 F918.331 E1.12036
G1 X90.994 Y80.417 F7800.000
G1 X88.831 Y82.579 F918.331 E1.17905
G1 X88.831 Y83.427 F7800.000
G1 X91.169 Y81.090 F918.331 E1.24249
G1 X91.169 Y81.939 F7800.000
G1 X88.831 Y84.276 F918.331 E1.30593
G1 X88.831 Y85.124 F7800.000
G1 X91.169 Y82.787 F918.331 E1.36937
G1 X91.169 Y83.636 F7800.000
G1 X88.831 Y85.973 F918.331 E1.43282
G1 X88.831 Y86.822 F7800.000
G1 X91.169 Y84.484 F918.331 E1.49626
G1 X91.169 Y85.333 F7800.000
G1 X88.831 Y87.670 F918.331 E1.55970
G1 X88.831 Y88.519 F7800.000
G1 X91.169 Y86.181 F918.331 E1.62314
G1 X91.169 Y87.030 F7800.000
G1 X88.831 Y89.367 F918.331 E1.68658
G1 X88.831 Y90.216 F7800.000
G1 X91.169 Y87.878 F918.331 E1.75002
G1 X91.169 Y88.727 F7800.000
G1 X88.831 Y91.064 F918.331 E1.81346
G1 X88.831 Y91.913 F7800.000
G1 X91.169 Y89.575 F918.331 E1.87690
G1 X91.169 Y90.424 F7800.000
G1 X88.831 Y92.761 F918.331 E1.94034
G1 X88.831 Y93.610 F7800.000
G1 X91.169 Y91.272 F918.331 E2.00379
G1 X91.169 Y92.121 F7800.000
