; generated by Slic3r 0.9.10b on 2013-10-13 at 21:52:13

; layer_height = 0.21
; perimeters = 2
; top_solid_layers = 3
; bottom_solid_layers = 3
; fill_density = 0.2
; perimeter_speed = 50
; infill_speed = 60
; travel_speed = 130
; nozzle_diameter = 0.4
; filament_diameter = 2.9
; extrusion_multiplier = 1.0088
; perimeters extrusion width = 0.64mm
; infill extrusion width = 0.64mm
; solid infill extrusion width = 0.64mm
; top infill extrusion width = 0.64mm
; support material extrusion width = 0.64mm
; first layer extrusion width = 0.70mm

G21 ; set units to millimeters
M107
M190 S60 ; wait for bed temperature to be reached
M104 S200 ; set temperature
G28 ; home all axes
G1 Z5 F5000 ; lift nozzle
M109 S200 ; wait for temperature to be reached
G90 ; use absolute coordinates
G92 E0
M82 ; use absolute distances for extrusion
G1 F1800.000 E-1.00000
G92 E0
G1 Z0.350 F7800.000
G1 X56.124 Y51.144
G1 F1800.000 E1.00000
G1 X57.124 Y50.314 F1200.000 E1.04416
G1 X58.274 Y49.704 E1.08839
G1 X59.524 Y49.324 E1.13278
G1 X60.814 Y49.194 E1.17683
G1 X62.894 Y49.194 E1.24750
G1 X64.194 Y49.324 E1.29189
G1 X65.444 Y49.704 E1.33628
G1 X66.594 Y50.324 E1.38067
G1 X67.604 Y51.164 E1.42531
G1 X79.184 Y62.754 E1.98197
G1 X119.574 Y105.964 E3.99163
G1 X126.344 Y113.444 E4.33442
G1 X127.184 Y114.604 E4.38308
G1 X127.764 Y115.924 E4.43207
G1 X128.034 Y117.334 E4.48085
G1 X128.004 Y118.774 E4.52978
G1 X127.654 Y120.174 E4.57882
G1 X127.014 Y121.464 E4.62774
G1 X126.114 Y122.584 E4.67656
G1 X122.584 Y126.114 E4.84618
G1 X121.474 Y127.014 E4.89473
G1 X120.184 Y127.654 E4.94366
G1 X118.794 Y127.994 E4.99228
G1 X117.364 Y128.034 E5.04089
G1 X115.964 Y127.774 E5.08927
G1 X114.644 Y127.204 E5.13812
G1 X113.474 Y126.374 E5.18686
G1 X106.794 Y120.414 E5.49103
G1 X61.874 Y78.334 E7.58235
G1 X50.444 Y66.904 E8.13157
G1 X49.574 Y65.844 E8.17816
G1 X48.944 Y64.634 E8.22452
G1 X48.574 Y63.324 E8.27077
G1 X48.484 Y61.964 E8.31708
G1 X48.674 Y60.604 E8.36373
G1 X49.134 Y59.324 E8.40995
G1 X49.744 Y58.054 E8.45782
G1 X50.314 Y57.084 E8.49604
G1 X51.034 Y56.234 E8.53389
G1 X56.056 Y51.211 E8.77523
G1 F1800.000 E7.77523
G92 E0
G1 X60.816 Y55.833 F7800.000
G1 F1800.000 E1.00000
G1 X62.899 Y55.833 F1440.000 E1.07077
G1 X64.170 Y57.104 E1.13185
G1 X61.352 Y57.104 E1.22761
G1 X62.623 Y58.375 E1.28869
G1 X65.441 Y58.375 E1.38445
G1 X66.713 Y59.647 E1.44554
G1 X63.894 Y59.647 E1.54130
G1 X65.166 Y60.918 E1.60238
G1 X67.984 Y60.918 E1.69814
G1 X69.255 Y62.189 E1.75922
G1 X66.437 Y62.189 E1.85498
G1 X67.708 Y63.460 E1.91607
G1 X70.526 Y63.460 E2.01182
G1 X71.798 Y64.732 E2.07291
G1 X68.979 Y64.732 E2.16867
G1 X70.250 Y66.003 E2.22975
G1 X73.069 Y66.003 E2.32551
G1 X74.340 Y67.274 E2.38659
G1 X71.522 Y67.274 E2.48235
G1 X72.659 Y68.545 E2.54030
G1 X73.689 Y68.545 E2.57532
G1 X74.054 Y69.817 F7800.000
G1 X71.387 Y69.817 F1440.000 E2.66593
G1 X70.116 Y71.088 E2.72701
G1 X75.325 Y71.088 E2.90400
G1 X76.597 Y72.359 E2.96509
G1 X68.845 Y72.359 E3.22847
G1 X68.111 Y72.359 F7800.000
G1 X65.293 Y72.359 F1440.000 E3.32423
G1 X66.564 Y73.630 E3.38531
G1 X68.604 Y73.630 E3.45463
G1 X69.393 Y73.630 F7800.000
G1 X77.868 Y73.630 F1440.000 E3.74259
G1 X79.139 Y74.901 E3.80368
G1 X70.664 Y74.901 E4.09164
G1 X71.935 Y76.173 E4.15272
G1 X80.410 Y76.173 E4.44068
G1 X81.682 Y77.444 E4.50177
G1 X73.206 Y77.444 E4.78973
G1 X74.478 Y78.715 E4.85081
G1 X82.953 Y78.715 E5.13877
G1 X84.224 Y79.986 E5.19986
G1 X75.749 Y79.986 E5.48782
G1 X77.020 Y81.258 E5.54890
G1 X85.495 Y81.258 E5.83686
G1 X86.767 Y82.529 E5.89795
G1 X78.291 Y82.529 E6.18591
G1 X79.563 Y83.800 E6.24699
G1 X88.038 Y83.800 E6.53495
G1 X89.309 Y85.071 E6.59604
G1 X80.834 Y85.071 E6.88400
G1 X82.105 Y86.343 E6.94508
G1 X90.580 Y86.343 E7.23304
G1 X91.851 Y87.614 E7.29413
G1 X83.376 Y87.614 E7.58209
G1 X84.648 Y88.885 E7.64317
G1 X93.123 Y88.885 E7.93113
G1 X94.394 Y90.156 E7.99222
G1 X85.919 Y90.156 E8.28018
G1 X87.190 Y91.428 E8.34126
G1 X95.665 Y91.428 E8.62922
G1 X96.936 Y92.699 E8.69031
G1 X88.461 Y92.699 E8.97827
G1 X89.732 Y93.970 E9.03935
G1 X98.208 Y93.970 E9.32732
G1 X99.479 Y95.241 E9.38840
G1 X91.004 Y95.241 E9.67636
G1 X92.275 Y96.513 E9.73744
G1 X100.750 Y96.513 E10.02541
G1 X102.021 Y97.784 E10.08649
G1 X93.546 Y97.784 E10.37445
G1 X94.817 Y99.055 E10.43553
G1 X103.293 Y99.055 E10.72350
G1 X104.564 Y100.326 E10.78458
G1 X96.089 Y100.326 E11.07254
G1 X97.360 Y101.598 E11.13362
G1 X105.835 Y101.598 E11.42159
G1 X107.106 Y102.869 E11.48267
G1 X98.631 Y102.869 E11.77063
G1 X99.902 Y104.140 E11.83172
G1 X108.378 Y104.140 E12.11968
G1 X109.649 Y105.411 E12.18076
G1 X101.174 Y105.411 E12.46872
G1 X102.445 Y106.682 E12.52981
G1 X110.920 Y106.682 E12.81777
G1 F1800.000 E11.81777
G92 E0
G1 X129.258 Y121.540 F7800.000
G1 X110.732 Y109.225
G1 F1800.000 E1.00000
G1 X112.319 Y109.225 F1440.000 E1.05395
G1 X112.191 Y107.954 E1.09736
G1 X103.716 Y107.954 E1.38532
G1 X104.987 Y109.225 E1.44641
G1 X109.042 Y109.225 E1.58416
G1 X109.460 Y110.496 F7800.000
G1 X112.862 Y110.496 F1440.000 E1.69974
G1 X112.869 Y110.496 F7800.000
G1 X114.734 Y110.496 F1440.000 E1.76309
G1 X115.250 Y111.767 E1.80971
G1 X112.599 Y111.767 E1.89981
G1 X112.591 Y111.767 F7800.000
G1 X108.784 Y111.767 F1440.000 E2.02915
G1 X108.801 Y113.039 E2.07235
G1 X113.979 Y113.039 E2.24827
G1 X112.708 Y114.310 E2.30936
G1 X110.072 Y114.310 E2.39890
G1 X111.344 Y115.581 E2.45998
G1 X111.436 Y115.581 E2.46314
G1 F1800.000 E1.46314
G92 E0
G1 X112.661 Y119.025 F7800.000
G1 X108.776 Y111.767
G1 F1800.000 E1.00000
G1 X107.530 Y111.767 F1440.000 E1.04233
G1 X106.259 Y110.496 E1.10341
G1 X108.495 Y110.496 E1.17941
G1 F1800.000 E0.17941
G92 E0
G1 X112.661 Y119.025 F7800.000
G1 X119.025 Y112.661
G1 X112.324 Y109.225
G1 F1800.000 E1.00000
G1 X113.463 Y109.225 F1440.000 E1.03869
G1 F1800.000 E0.03869
G92 E0
G1 X119.025 Y112.661 F7800.000
G1 X112.661 Y119.025
G1 X64.022 Y71.088
G1 F1800.000 E1.00000
G1 X66.840 Y71.088 F1440.000 E1.09576
G1 X65.569 Y69.817 E1.15684
G1 X62.751 Y69.817 E1.25260
G1 X61.479 Y68.545 E1.31369
G1 X64.298 Y68.545 E1.40944
G1 X63.026 Y67.274 E1.47053
G1 X60.208 Y67.274 E1.56629
G1 X58.937 Y66.003 E1.62737
G1 X61.755 Y66.003 E1.72313
G1 X60.484 Y64.732 E1.78421
G1 X57.666 Y64.732 E1.87997
G1 X56.394 Y63.460 E1.94106
G1 X59.213 Y63.460 E2.03681
G1 X57.941 Y62.189 E2.09790
G1 X55.123 Y62.189 E2.19366
G1 X55.731 Y60.918 E2.24154
G1 X56.670 Y60.918 E2.27344
G1 F1800.000 E1.27344
G92 E0
G1 X112.661 Y119.025 F7800.000
G1 X116.838 Y119.025
G1 F1800.000 E1.00000
G1 X119.025 Y116.838 F720.000 E1.10510
G1 X120.084 Y117.897 E1.15597
G1 X117.897 Y120.084 E1.26106
G1 X116.906 Y119.093 E1.30870
G1 X116.525 Y119.611 F7800.000
G1 X115.939 Y119.025 F720.000 E1.33685
G1 X119.025 Y115.939 E1.48514
G1 X120.983 Y117.897 E1.57921
G1 X117.897 Y120.983 E1.72750
G1 X116.593 Y119.679 E1.79016
G1 X116.690 Y118.997 F7800.000
G1 X118.069 Y118.968
G1 X117.954 Y118.853 F480.000 E1.79567
G1 X118.404 Y118.404 E1.81727
G1 X118.518 Y118.518 E1.82277
G1 X118.968 Y118.069 E1.84438
G1 X118.853 Y117.954 E1.84988
M106 S650
G1 F1800.000 E0.84988
G92 E0
G1 Z0.560 F7800.000
G1 X117.887 Y115.875
G1 X113.761 Y112.802
G1 F1800.000 E1.00000
G1 X113.761 Y109.978 F816.265 E1.05419
G1 X112.261 Y108.478 E1.09490
G1 X112.261 Y109.148 E1.10777
G1 X112.261 Y109.165 F7800.000
G1 X112.261 Y112.197 F816.265 E1.16595
G1 X112.261 Y112.208 F7800.000
G1 X112.261 Y114.302 F816.265 E1.20615
G1 X110.761 Y114.543 E1.23531
G1 X110.761 Y112.876 E1.26730
G1 X110.761 Y112.869 F7800.000
G1 X110.761 Y109.196 F816.265 E1.33780
G1 X110.761 Y108.481 F7800.000
G1 X110.761 Y106.978 F816.265 E1.36665
G1 X109.261 Y105.478 E1.40736
G1 X109.261 Y109.012 E1.47518
G1 X109.261 Y110.696 F7800.000
G1 X109.261 Y112.344 F816.265 E1.50682
G1 X109.261 Y112.354 F7800.000
G1 X109.261 Y113.043 F816.265 E1.52005
G1 X107.761 Y111.543 E1.56077
G1 X107.761 Y103.978 E1.70596
G1 X106.261 Y102.478 E1.74667
G1 X106.261 Y110.043 E1.89187
G1 X104.761 Y108.543 E1.93258
G1 X104.761 Y100.978 E2.07777
G1 X103.261 Y99.478 E2.11849
G1 X103.261 Y107.043 E2.26368
G1 X101.761 Y105.543 E2.30440
G1 X101.761 Y97.978 E2.44959
G1 X100.261 Y96.478 E2.49030
G1 X100.261 Y104.043 E2.63550
G1 X98.761 Y102.543 E2.67621
G1 X98.761 Y94.978 E2.82140
G1 X97.261 Y93.478 E2.86212
G1 X97.261 Y101.043 E3.00731
G1 X95.761 Y99.543 E3.04803
G1 X95.761 Y91.978 E3.19322
G1 X94.261 Y90.478 E3.23393
G1 X94.261 Y98.043 E3.37913
G1 X92.761 Y96.543 E3.41984
G1 X92.761 Y88.978 E3.56503
G1 X91.261 Y87.478 E3.60575
G1 X91.261 Y95.043 E3.75094
G1 X89.761 Y93.543 E3.79166
G1 X89.761 Y85.978 E3.93685
G1 X88.261 Y84.478 E3.97756
G1 X88.261 Y92.043 E4.12276
G1 X86.761 Y90.543 E4.16347
G1 X86.761 Y82.978 E4.30866
G1 X85.261 Y81.478 E4.34938
G1 X85.261 Y89.043 E4.49457
G1 X83.761 Y87.543 E4.53529
G1 X83.761 Y79.978 E4.68048
G1 X82.261 Y78.478 E4.72119
G1 X82.261 Y86.043 E4.86639
G1 X80.761 Y84.543 E4.90710
G1 X80.761 Y76.978 E5.05229
G1 X79.261 Y75.478 E5.09301
G1 X79.261 Y83.043 E5.23820
G1 X77.761 Y81.543 E5.27891
G1 X77.761 Y73.978 E5.42411
G1 X76.261 Y72.478 E5.46482
G1 X76.261 Y80.043 E5.61002
G1 X74.761 Y78.543 E5.65073
G1 X74.761 Y70.978 E5.79592
G1 X73.261 Y69.478 F7800.000
G1 X73.261 Y77.043 F816.265 E5.94112
G1 X71.761 Y75.543 E5.98183
G1 X71.761 Y69.898 E6.09018
G1 X70.261 Y71.398 E6.13089
G1 X70.261 Y74.043 E6.18166
G1 X68.761 Y72.898 E6.21788
G1 X68.761 Y73.019 E6.22020
G1 X67.261 Y73.872 E6.25331
G1 X67.261 Y71.963 E6.28994
G1 X65.761 Y72.372 E6.31978
G1 X65.761 Y70.463 E6.35640
G1 X64.261 Y70.872 E6.38624
G1 X64.261 Y68.963 E6.42286
G1 X62.761 Y69.372 E6.45270
G1 X62.761 Y67.463 E6.48932
G1 X61.261 Y67.872 E6.51916
G1 X61.261 Y65.963 E6.55579
G1 X59.761 Y66.372 E6.58562
G1 X59.761 Y64.463 E6.62225
G1 X58.261 Y64.872 E6.65209
G1 X58.261 Y62.963 E6.68871
G1 X56.761 Y63.372 E6.71855
G1 X56.761 Y61.463 E6.75517
G1 X55.261 Y61.843 E6.78487
G1 X55.261 Y61.872 E6.78542
G1 F1800.000 E5.78542
G92 E0
G1 X111.931 Y118.295 F7800.000
G1 X116.119 Y114.107
G1 X118.295 Y111.931
G1 X61.261 Y56.558
G1 F1800.000 E1.00000
G1 X61.261 Y55.843 F816.265 E1.01372
G1 X62.761 Y56.150 E1.04310
G1 X62.761 Y58.058 E1.07973
G1 X64.261 Y57.650 E1.10957
G1 X64.261 Y59.558 E1.14619
G1 X65.761 Y59.150 E1.17603
G1 X65.761 Y61.058 E1.21265
G1 X67.261 Y60.650 E1.24249
G1 X67.261 Y62.558 E1.27912
G1 X68.761 Y62.150 E1.30895
G1 X68.761 Y64.058 E1.34558
G1 X70.261 Y63.650 E1.37541
G1 X70.261 Y65.558 E1.41204
G1 X71.761 Y65.150 E1.44188
G1 X71.761 Y67.058 E1.47850
G1 X73.261 Y66.650 E1.50834
G1 X73.261 Y68.519 E1.54421
G1 F1800.000 E0.54421
G92 E0
G1 X118.295 Y111.931 F7800.000
G1 X118.627 Y120.893
G1 F1800.000 E1.00000
G1 X116.029 Y118.295 F600.000 E1.07052
G1 X118.295 Y116.029 E1.13203
G1 X120.893 Y118.627 E1.20256
G1 X118.691 Y120.830 E1.26234
G1 X118.365 Y121.478 F7800.000
G1 X115.183 Y118.295 F600.000 E1.34873
G1 X118.295 Y115.183 E1.43321
G1 X121.740 Y118.627 E1.52670
G1 X118.627 Y121.740 E1.61118
G1 X118.429 Y121.541 E1.61656
G1 X118.520 Y120.900 F7800.000
G1 X116.891 Y118.544
G1 X118.544 Y116.891 F816.265 E1.66142
G1 X118.967 Y117.315 E1.67292
G1 X117.315 Y118.967 E1.71778
G1 X117.738 Y119.391 E1.72927
G1 X119.391 Y117.738 E1.77413
G1 X119.814 Y118.162 E1.78563
G1 X118.162 Y119.814 E1.83049
G1 X118.585 Y120.238 E1.84198
G1 X120.238 Y118.585 E1.88684
G1 F1800.000 E0.88684
G92 E0
G1 Z0.770 F7800.000
G1 X121.846 Y119.017
G1 X113.761 Y112.802
G1 F1800.000 E1.00000
G1 X113.761 Y109.978 F831.606 E1.05419
G1 X112.261 Y108.478 E1.09490
G1 X112.261 Y109.148 E1.10777
G1 X112.261 Y109.165 F7800.000
G1 X112.261 Y112.197 F831.606 E1.16595
G1 X112.261 Y112.208 F7800.000
G1 X112.261 Y114.302 F831.606 E1.20615
G1 X110.761 Y114.543 E1.23531
G1 X110.761 Y112.876 E1.26730
G1 X110.761 Y112.869 F7800.000
G1 X110.761 Y109.196 F831.606 E1.33780
G1 X110.761 Y108.481 F7800.000
G1 X110.761 Y106.978 F831.606 E1.36665
G1 X109.261 Y105.478 E1.40736
G1 X109.261 Y109.012 E1.47518
G1 X109.261 Y110.696 F7800.000
G1 X109.261 Y112.344 F831.606 E1.50682
G1 X109.261 Y112.354 F7800.000
G1 X109.261 Y113.043 F831.606 E1.52005
G1 X107.761 Y111.543 E1.56077
G1 X107.761 Y103.978 E1.70596
G1 X106.261 Y102.478 E1.74667
G1 X106.261 Y110.043 E1.89187
G1 X104.761 Y108.543 E1.93258
G1 X104.761 Y100.978 E2.07777
G1 X103.261 Y99.478 E2.11849
G1 X103.261 Y107.043 E2.26368
G1 X101.761 Y105.543 E2.30440
G1 X101.761 Y97.978 E2.44959
G1 X100.261 Y96.478 E2.49030
G1 X100.261 Y104.043 E2.63550
G1 X98.761 Y102.543 E2.67621
G1 X98.761 Y94.978 E2.82140
G1 X97.261 Y93.478 E2.86212
G1 X97.261 Y101.043 E3.00731
G1 X95.761 Y99.543 E3.04803
G1 X95.761 Y91.978 E3.19322
G1 X94.261 Y90.478 E3.23393
G1 X94.261 Y98.043 E3.37913
G1 X92.761 Y96.543 E3.41984
G1 X92.761 Y88.978 E3.56503
G1 X91.261 Y87.478 E3.60575
G1 X91.261 Y95.043 E3.75094
G1 X89.761 Y93.543 E3.79166
G1 X89.761 Y85.978 E3.93685
G1 X88.261 Y84.478 E3.97756
G1 X88.261 Y92.043 E4.12276
G1 X86.761 Y90.543 E4.16347
G1 X86.761 Y82.978 E4.30866
G1 X85.261 Y81.478 E4.34938
G1 X85.261 Y89.043 E4.49457
G1 X83.761 Y87.543 E4.53529
G1 X83.761 Y79.978 E4.68048
G1 X82.261 Y78.478 E4.72119
G1 X82.261 Y86.043 E4.86639
G1 X80.761 Y84.543 E4.90710
G1 X80.761 Y76.978 E5.05229
G1 X79.261 Y75.478 E5.09301
G1 X79.261 Y83.043 E5.23820
G1 X77.761 Y81.543 E5.27891
G1 X77.761 Y73.978 E5.42411
G1 X76.261 Y72.478 E5.46482
G1 X76.261 Y80.043 E5.61002
G1 X74.761 Y78.543 E5.65073
G1 X74.761 Y70.978 E5.79592
G1 X73.261 Y69.478 F7800.000
G1 X73.261 Y77.043 F831.606 E5.94112
G1 X71.761 Y75.543 E5.98183
G1 X71.761 Y69.898 E6.09018
G1 X70.261 Y71.398 E6.13089
G1 X70.261 Y74.043 E6.18166
G1 X68.761 Y72.898 E6.21788
G1 X68.761 Y73.019 E6.22020
G1 X67.261 Y73.872 E6.25331
G1 X67.261 Y71.963 E6.28994
G1 X65.761 Y72.372 E6.31978
G1 X65.761 Y70.463 E6.35640
G1 X64.261 Y70.872 E6.38624
G1 X64.261 Y68.963 E6.42286
G1 X62.761 Y69.372 E6.45270
G1 X62.761 Y67.463 E6.48932
G1 X61.261 Y67.872 E6.51916
G1 X61.261 Y65.963 E6.55579
G1 X59.761 Y66.372 E6.58562
G1 X59.761 Y64.463 E6.62225
G1 X58.261 Y64.872 E6.65209
G1 X58.261 Y62.963 E6.68871
G1 X56.761 Y63.372 E6.71855
G1 X56.761 Y61.463 E6.75517
G1 X55.261 Y61.843 E6.78487
G1 X55.261 Y61.872 E6.78542
G1 F1800.000 E5.78542
G92 E0
G1 X111.541 Y117.905 F7800.000
G1 X117.905 Y111.541
G1 X61.261 Y56.558
G1 F1800.000 E1.00000
G1 X61.261 Y55.843 F831.606 E1.01372
G1 X62.761 Y56.150 E1.04310
G1 X62.761 Y58.058 E1.07973
G1 X64.261 Y57.650 E1.10957
G1 X64.261 Y59.558 E1.14619
G1 X65.761 Y59.150 E1.17603
G1 X65.761 Y61.058 E1.21265
G1 X67.261 Y60.650 E1.24249
G1 X67.261 Y62.558 E1.27912
G1 X68.761 Y62.150 E1.30895
G1 X68.761 Y64.058 E1.34558
G1 X70.261 Y63.650 E1.37541
G1 X70.261 Y65.558 E1.41204
G1 X71.761 Y65.150 E1.44188
G1 X71.761 Y67.058 E1.47850
G1 X73.261 Y66.650 E1.50834
G1 X73.261 Y68.519 E1.54421
G1 F1800.000 E0.54421
G92 E0
G1 X117.905 Y111.541 F7800.000
G1 X117.905 Y115.639
G1 F1800.000 E1.00000
G1 X121.283 Y119.017 F600.000 E1.09170
G1 X119.017 Y121.283 E1.15320
G1 X115.639 Y117.905 E1.24490
G1 X117.841 Y115.702 E1.30468
G1 X118.217 Y115.105 F7800.000
G1 X122.130 Y119.017 F600.000 E1.41087
G1 X119.017 Y122.130 E1.49535
G1 X114.793 Y117.905 E1.61002
G1 X117.905 Y114.793 E1.69449
G1 X118.154 Y115.041 E1.70125
G1 X118.062 Y115.683 F7800.000
G1 X117.502 Y116.655
G1 X120.267 Y119.420 F831.606 E1.77629
G1 X119.844 Y119.843 E1.78779
G1 X117.079 Y117.079 E1.86284
G1 X116.655 Y117.502 E1.87433
G1 X119.420 Y120.267 E1.94938
G1 F1800.000 E0.94938
G92 E0
G1 Z0.980 F7800.000
G1 X119.344 Y122.172
G1 X113.761 Y112.802
G1 F1800.000 E1.00000
G1 X113.761 Y109.978 F866.324 E1.05419
G1 X112.261 Y108.478 E1.09490
G1 X112.261 Y109.148 E1.10777
G1 X112.261 Y109.165 F7800.000
G1 X112.261 Y112.197 F866.324 E1.16595
G1 X112.261 Y112.208 F7800.000
G1 X112.261 Y114.302 F866.324 E1.20615
G1 X110.761 Y114.543 E1.23531
G1 X110.761 Y112.876 E1.26730
G1 X110.761 Y112.869 F7800.000
G1 X110.761 Y109.196 F866.324 E1.33780
G1 X110.761 Y108.481 F7800.000
G1 X110.761 Y106.978 F866.324 E1.36665
G1 X109.261 Y105.478 E1.40736
G1 X109.261 Y109.012 E1.47518
G1 X109.261 Y110.696 F7800.000
G1 X109.261 Y112.344 F866.324 E1.50682
G1 X109.261 Y112.354 F7800.000
G1 X109.261 Y113.043 F866.324 E1.52005
G1 X107.761 Y111.543 E1.56077
