; generated by Slic3r 0.9.10b on 2013-10-13 at 16:40:45

; layer_height = 0.21
; perimeters = 2
; top_solid_layers = 3
; bottom_solid_layers = 3
; fill_density = 0.2
; perimeter_speed = 50
; infill_speed = 60
; travel_speed = 130
; nozzle_diameter = 0.4
; filament_diameter = 2.9
; extrusion_multiplier = 1.0088
; perimeters extrusion width = 0.64mm
; infill extrusion width = 0.64mm
; solid infill extrusion width = 0.64mm
; top infill extrusion width = 0.64mm
; support material extrusion width = 0.64mm
; first layer extrusion width = 0.70mm

G21 ; set units to millimeters
M107
M190 S60 ; wait for bed temperature to be reached
M104 S200 ; set temperature
G28 ; home all axes
G1 Z5 F5000 ; lift nozzle
M109 S200 ; wait for temperature to be reached
G90 ; use absolute coordinates
G92 E0
M82 ; use absolute distances for extrusion
G1 F1800.000 E-1.00000
G92 E0
G1 Z0.350 F7800.000
G1 X90.922 Y65.882
G1 F1800.000 E1.00000
G1 X91.352 Y65.442 F1200.000 E1.02090
G1 X91.752 Y65.072 E1.03942
G1 X92.472 Y64.462 E1.07148
G1 X93.372 Y63.782 E1.10981
G1 X94.162 Y63.262 E1.14194
G1 X94.682 Y62.952 E1.16251
G1 X95.922 Y62.312 E1.20992
G1 X96.482 Y62.062 E1.23076
G1 X97.562 Y61.662 E1.26989
G1 X98.552 Y61.372 E1.30494
G1 X99.452 Y61.152 E1.33642
G1 X100.582 Y60.962 E1.37535
G1 X101.522 Y60.862 E1.40747
G1 X102.792 Y60.802 E1.45067
G1 X104.052 Y60.862 E1.49353
G1 X104.982 Y60.962 E1.52531
G1 X106.132 Y61.152 E1.56491
G1 X107.092 Y61.382 E1.59846
G1 X107.672 Y61.552 E1.61899
G1 X109.052 Y62.042 E1.66875
G1 X109.622 Y62.292 E1.68989
G1 X110.842 Y62.922 E1.73655
G1 X111.372 Y63.232 E1.75741
G1 X112.252 Y63.812 E1.79322
G1 X113.082 Y64.442 E1.82862
G1 X113.822 Y65.072 E1.86164
G1 X114.162 Y65.392 E1.87751
G1 X114.882 Y66.132 E1.91259
G1 X115.572 Y66.932 E1.94848
G1 X115.942 Y67.412 E1.96908
G1 X116.762 Y68.622 E2.01874
G1 X117.252 Y69.492 E2.05266
G1 X117.702 Y70.402 E2.08716
G1 X118.092 Y71.322 E2.12111
G1 X118.302 Y71.892 E2.14175
G1 X118.622 Y72.932 E2.17872
G1 X118.862 Y73.962 E2.21465
G1 X119.022 Y74.912 E2.24739
G1 X119.072 Y75.332 E2.26176
G1 X119.162 Y76.372 E2.29723
G1 X119.182 Y76.982 E2.31796
G1 X119.162 Y78.032 E2.35364
G1 X119.022 Y79.492 E2.40348
G1 X118.862 Y80.442 E2.43621
G1 X118.732 Y81.042 E2.45707
G1 X118.422 Y82.122 E2.49525
G1 X111.772 Y104.192 E3.27842
G1 X111.432 Y105.192 E3.31431
G1 X111.322 Y105.462 E3.32421
G1 X110.962 Y106.202 E3.35217
G1 X110.682 Y106.702 E3.37164
G1 X110.252 Y107.382 E3.39898
G1 X109.862 Y107.912 E3.42134
G1 X109.492 Y108.362 E3.44113
G1 X108.842 Y109.052 E3.47334
G1 X108.362 Y109.492 E3.49546
G1 X107.912 Y109.862 E3.51526
G1 X107.382 Y110.252 E3.53762
G1 X106.702 Y110.682 E3.56495
G1 X106.202 Y110.962 E3.58442
G1 X105.372 Y111.352 E3.61558
G1 X104.332 Y111.732 E3.65320
G1 X82.082 Y118.442 E4.44282
G1 X81.042 Y118.732 E4.47950
G1 X80.442 Y118.862 E4.50036
G1 X79.492 Y119.022 E4.53310
G1 X78.032 Y119.162 E4.58293
G1 X76.982 Y119.182 E4.61861
G1 X75.942 Y119.132 E4.65399
G1 X74.912 Y119.022 E4.68918
G1 X73.962 Y118.862 E4.72192
G1 X73.362 Y118.732 E4.74278
G1 X72.342 Y118.452 E4.77871
G1 X71.322 Y118.092 E4.81547
G1 X70.942 Y117.942 E4.82935
G1 X70.072 Y117.552 E4.86174
G1 X69.532 Y117.282 E4.88225
G1 X68.622 Y116.762 E4.91787
G1 X67.412 Y115.942 E4.96753
G1 X66.562 Y115.262 E5.00451
G1 X65.882 Y114.652 E5.03555
G1 X65.442 Y114.222 E5.05646
G1 X64.672 Y113.362 E5.09568
G1 X63.812 Y112.252 E5.14339
G1 X63.232 Y111.372 E5.17920
G1 X62.922 Y110.842 E5.20006
G1 X62.292 Y109.592 E5.24762
G1 X61.882 Y108.622 E5.28340
G1 X61.672 Y108.032 E5.30468
G1 X61.542 Y107.642 E5.31865
G1 X61.292 Y106.742 E5.35038
G1 X61.152 Y106.152 E5.37099
G1 X60.962 Y104.982 E5.41126
G1 X60.832 Y103.622 E5.45768
G1 X60.812 Y103.012 E5.47842
G1 X60.832 Y101.962 E5.51410
G1 X60.922 Y100.912 E5.54990
G1 X61.052 Y99.982 E5.58181
G1 X61.152 Y99.452 E5.60014
G1 X61.372 Y98.522 E5.63261
G1 X61.542 Y97.932 E5.65347
G1 X61.852 Y97.032 E5.68581
G1 X62.062 Y96.482 E5.70581
G1 X62.312 Y95.922 E5.72665
G1 X62.952 Y94.682 E5.77406
G1 X63.262 Y94.162 E5.79463
G1 X63.782 Y93.372 E5.82677
G1 X64.062 Y92.982 E5.84308
G1 X64.442 Y92.492 E5.86415
G1 X65.072 Y91.752 E5.89717
G1 X65.392 Y91.412 E5.91303
G1 X90.872 Y65.943 E7.13711
G1 F1800.000 E6.13711
G92 E0
G1 X94.534 Y69.423 F7800.000
G1 F1800.000 E1.00000
G1 X95.010 Y68.947 F1200.000 E1.02289
G1 X95.525 Y68.491 E1.04624
G1 X96.138 Y68.013 E1.07267
G1 X96.696 Y67.634 E1.09557
G1 X97.300 Y67.275 E1.11945
G1 X97.989 Y66.924 E1.14572
G1 X98.597 Y66.661 E1.16825
G1 X99.243 Y66.427 E1.19159
G1 X100.000 Y66.206 E1.21837
G1 X100.687 Y66.054 E1.24227
G1 X101.352 Y65.949 E1.26514
G1 X102.061 Y65.880 E1.28936
G1 X102.729 Y65.858 E1.31205
G1 X103.536 Y65.881 E1.33951
G1 X104.236 Y65.949 E1.36339
G1 X104.901 Y66.054 E1.38627
G1 X105.652 Y66.223 E1.41241
G1 X106.320 Y66.418 E1.43607
G1 X106.953 Y66.647 E1.45895
G1 X107.659 Y66.953 E1.48509
G1 X108.279 Y67.270 E1.50875
G1 X108.858 Y67.613 E1.53161
G1 X109.489 Y68.042 E1.55753
G1 X110.044 Y68.474 E1.58142
G1 X110.548 Y68.919 E1.60429
G1 X111.037 Y69.406 E1.62774
G1 X111.518 Y69.947 E1.65230
G1 X111.964 Y70.519 E1.67696
G1 X112.392 Y71.150 E1.70288
G1 X112.749 Y71.756 E1.72676
G1 X113.064 Y72.377 E1.75042
G1 X113.338 Y73.008 E1.77381
G1 X113.578 Y73.671 E1.79775
G1 X113.792 Y74.403 E1.82367
G1 X113.938 Y75.060 E1.84654
G1 X114.050 Y75.754 E1.87042
G1 X114.123 Y76.523 E1.89668
G1 X114.143 Y77.226 E1.92057
G1 X114.122 Y77.899 E1.94344
G1 X114.056 Y78.609 E1.96766
G1 X113.948 Y79.303 E1.99155
G1 X113.778 Y80.060 E2.01790
G1 X113.586 Y80.717 E2.04116
G1 X113.357 Y81.356 E2.06422
G1 X113.050 Y82.066 E2.09048
G1 X112.730 Y82.691 E2.11437
G1 X112.387 Y83.271 E2.13724
G1 X111.956 Y83.903 E2.16325
G1 X111.536 Y84.443 E2.18650
G1 X111.081 Y84.961 E2.20991
G1 X110.541 Y85.500 E2.23583
G1 X110.013 Y85.964 E2.25972
G1 X109.481 Y86.376 E2.28259
G1 X108.850 Y86.805 E2.30851
G1 X108.244 Y87.161 E2.33239
G1 X107.608 Y87.484 E2.35662
G1 X106.990 Y87.751 E2.37950
G1 X106.322 Y87.993 E2.40362
G1 X105.597 Y88.204 E2.42929
G1 X104.940 Y88.351 E2.45216
G1 X104.246 Y88.462 E2.47605
G1 X103.477 Y88.535 E2.50231
G1 X102.814 Y88.556 E2.52484
G1 X102.111 Y88.535 E2.54872
G1 X101.342 Y88.462 E2.57498
G1 X100.647 Y88.351 E2.59887
G1 X99.991 Y88.204 E2.62174
G1 X99.321 Y88.011 E2.64542
G1 X98.645 Y87.770 E2.66979
G1 X97.928 Y87.460 E2.69633
G1 X97.309 Y87.142 E2.71999
G1 X96.729 Y86.800 E2.74286
G1 X96.099 Y86.370 E2.76878
G1 X95.544 Y85.938 E2.79267
G1 X95.039 Y85.493 E2.81554
G1 X94.550 Y85.006 E2.83899
G1 X94.070 Y84.466 E2.86355
G1 X93.624 Y83.893 E2.88821
G1 X93.195 Y83.262 E2.91413
G1 X92.839 Y82.656 E2.93802
G1 X92.524 Y82.036 E2.96166
G1 X92.249 Y81.404 E2.98505
G1 X92.009 Y80.742 E3.00900
G1 X91.796 Y80.009 E3.03491
G1 X91.649 Y79.353 E3.05778
G1 X91.538 Y78.658 E3.08167
G1 X91.467 Y77.906 E3.10734
G1 X91.445 Y77.174 E3.13223
G1 X91.470 Y76.451 E3.15681
G1 X91.536 Y75.764 E3.18026
G1 X91.642 Y75.099 E3.20313
G1 X91.794 Y74.413 E3.22702
G1 X92.009 Y73.671 E3.25328
G1 X92.234 Y73.047 E3.27581
G1 X92.512 Y72.401 E3.29969
G1 X92.863 Y71.712 E3.32595
G1 X93.222 Y71.108 E3.34984
G1 X93.600 Y70.551 E3.37271
G1 X94.026 Y70.000 E3.39639
G1 X94.470 Y69.494 E3.41925
G1 X94.969 Y69.888 F7800.000
G1 X95.474 Y69.383 F1200.000 E3.44351
G1 X95.960 Y68.955 E3.46549
G1 X96.488 Y68.545 E3.48820
G1 X97.070 Y68.150 E3.51212
G1 X97.641 Y67.813 E3.53465
G1 X98.223 Y67.516 E3.55684
G1 X98.841 Y67.248 E3.57971
G1 X99.449 Y67.028 E3.60171
G1 X100.139 Y66.827 E3.62611
G1 X100.776 Y66.684 E3.64831
G1 X101.431 Y66.580 E3.67084
G1 X102.141 Y66.512 E3.69506
G1 X102.804 Y66.492 E3.71760
G1 X103.457 Y66.513 E3.73979
G1 X104.127 Y66.576 E3.76265
G1 X104.782 Y66.679 E3.78519
G1 X105.484 Y66.836 E3.80963
G1 X106.114 Y67.020 E3.83194
G1 X106.719 Y67.238 E3.85379
G1 X107.379 Y67.524 E3.87823
G1 X107.964 Y67.822 E3.90054
G1 X108.526 Y68.155 E3.92273
G1 X109.107 Y68.550 E3.94662
G1 X109.631 Y68.957 E3.96915
G1 X110.121 Y69.389 E3.99134
G1 X110.581 Y69.849 E4.01344
G1 X111.035 Y70.360 E4.03667
G1 X111.456 Y70.901 E4.05994
G1 X111.850 Y71.482 E4.08382
G1 X112.187 Y72.053 E4.10635
G1 X112.485 Y72.639 E4.12867
G1 X112.762 Y73.281 E4.15242
G1 X112.986 Y73.905 E4.17496
G1 X113.174 Y74.551 E4.19783
G1 X113.316 Y75.189 E4.22002
G1 X113.420 Y75.844 E4.24255
G1 X113.488 Y76.553 E4.26677
G1 X113.508 Y77.216 E4.28930
G1 X113.487 Y77.869 E4.31149
G1 X113.424 Y78.539 E4.33436
G1 X113.321 Y79.194 E4.35689
G1 X113.165 Y79.892 E4.38117
G1 X112.979 Y80.529 E4.40375
G1 X112.762 Y81.132 E4.42549
G1 X112.479 Y81.786 E4.44972
G1 X112.178 Y82.376 E4.47225
G1 X111.845 Y82.939 E4.49444
G1 X111.449 Y83.521 E4.51838
G1 X111.040 Y84.045 E4.54095
G1 X110.611 Y84.533 E4.56304
G1 X110.113 Y85.030 E4.58692
G1 X109.615 Y85.468 E4.60945
G1 X109.099 Y85.868 E4.63164
G1 X108.518 Y86.263 E4.65553
G1 X107.946 Y86.600 E4.67806
G1 X107.346 Y86.905 E4.70093
G1 X106.747 Y87.164 E4.72312
G1 X106.117 Y87.391 E4.74588
G1 X105.449 Y87.586 E4.76953
G1 X104.811 Y87.728 E4.79172
G1 X104.156 Y87.833 E4.81425
G1 X103.447 Y87.900 E4.83848
G1 X102.804 Y87.920 E4.86033
G1 X102.141 Y87.900 E4.88286
G1 X101.431 Y87.833 E4.90708
G1 X100.776 Y87.728 E4.92961
G1 X100.139 Y87.586 E4.95180
G1 X99.508 Y87.403 E4.97413
G1 X98.869 Y87.175 E4.99716
G1 X98.208 Y86.889 E5.02164
G1 X97.624 Y86.590 E5.04395
G1 X97.061 Y86.258 E5.06614
G1 X96.480 Y85.862 E5.09003
G1 X95.957 Y85.455 E5.11256
G1 X95.467 Y85.023 E5.13475
G1 X95.006 Y84.563 E5.15685
G1 X94.553 Y84.052 E5.18008
G1 X94.132 Y83.512 E5.20335
G1 X93.737 Y82.930 E5.22724
G1 X93.400 Y82.359 E5.24976
G1 X93.103 Y81.773 E5.27208
G1 X92.825 Y81.132 E5.29583
G1 X92.601 Y80.507 E5.31837
G1 X92.419 Y79.880 E5.34056
G1 X92.266 Y79.194 E5.36444
G1 X92.163 Y78.539 E5.38697
G1 X92.101 Y77.875 E5.40962
G1 X92.080 Y77.185 E5.43310
G1 X92.104 Y76.501 E5.45634
G1 X92.166 Y75.854 E5.47844
G1 X92.268 Y75.208 E5.50063
G1 X92.412 Y74.561 E5.52316
G1 X92.611 Y73.877 E5.54739
G1 X92.836 Y73.253 E5.56992
G1 X93.091 Y72.663 E5.59177
G1 X93.415 Y72.027 E5.61599
G1 X93.753 Y71.457 E5.63852
G1 X94.120 Y70.917 E5.66071
G1 X94.523 Y70.397 E5.68305
G1 X94.906 Y69.959 E5.70283
G1 X95.440 Y70.315 F7800.000
G1 X95.902 Y69.853 F1200.000 E5.72503
G1 X96.366 Y69.445 E5.74601
G1 X96.862 Y69.059 E5.76736
G1 X97.402 Y68.692 E5.78957
G1 X97.930 Y68.380 E5.81040
G1 X98.494 Y68.092 E5.83191
G1 X99.075 Y67.840 E5.85343
G1 X99.656 Y67.630 E5.87442
G1 X100.297 Y67.442 E5.89713
G1 X100.896 Y67.309 E5.91796
G1 X101.521 Y67.209 E5.93947
G1 X102.171 Y67.147 E5.96166
G1 X102.784 Y67.128 E5.98249
G1 X103.417 Y67.147 E6.00400
G1 X104.067 Y67.209 E6.02619
G1 X104.692 Y67.309 E6.04771
G1 X105.297 Y67.444 E6.06876
G1 X105.918 Y67.625 E6.09073
G1 X106.513 Y67.840 E6.11224
G1 X107.082 Y68.086 E6.13329
G1 X107.658 Y68.380 E6.15526
G1 X108.202 Y68.702 E6.17677
G1 X108.726 Y69.059 E6.19828
G1 X109.210 Y69.435 E6.21912
G1 X109.685 Y69.853 E6.24063
G1 X110.131 Y70.299 E6.26206
G1 X110.552 Y70.774 E6.28363
G1 X110.941 Y71.274 E6.30516
G1 X111.308 Y71.815 E6.32735
G1 X111.630 Y72.360 E6.34886
G1 X111.910 Y72.910 E6.36984
G1 X112.160 Y73.487 E6.39119
G1 X112.375 Y74.082 E6.41272
G1 X112.558 Y74.710 E6.43491
G1 X112.691 Y75.308 E6.45574
G1 X112.791 Y75.933 E6.47725
G1 X112.853 Y76.583 E6.49944
G1 X112.872 Y77.196 E6.52027
G1 X112.853 Y77.829 E6.54179
G1 X112.791 Y78.479 E6.56397
G1 X112.691 Y79.104 E6.58549
G1 X112.558 Y79.703 E6.60632
G1 X112.368 Y80.350 E6.62925
G1 X112.160 Y80.925 E6.65002
G1 X111.908 Y81.506 E6.67153
G1 X111.630 Y82.053 E6.69236
G1 X111.308 Y82.598 E6.71388
G1 X110.941 Y83.139 E6.73609
G1 X110.551 Y83.639 E6.75766
G1 X110.147 Y84.098 E6.77841
G1 X109.685 Y84.560 E6.80060
G1 X109.225 Y84.965 E6.82143
G1 X108.726 Y85.354 E6.84294
G1 X108.185 Y85.721 E6.86513
G1 X107.640 Y86.042 E6.88664
G1 X107.094 Y86.321 E6.90748
G1 X106.494 Y86.580 E6.92967
G1 X105.892 Y86.796 E6.95140
G1 X105.290 Y86.970 E6.97269
G1 X104.672 Y87.108 E6.99420
G1 X104.067 Y87.204 E7.01503
G1 X103.417 Y87.265 E7.03722
G1 X102.804 Y87.284 E7.05806
G1 X102.171 Y87.265 E7.07957
G1 X101.521 Y87.204 E7.10176
G1 X100.915 Y87.108 E7.12259
G1 X100.297 Y86.970 E7.14410
G1 X99.704 Y86.798 E7.16509
G1 X99.094 Y86.580 E7.18711
G1 X98.488 Y86.318 E7.20953
G1 X97.930 Y86.033 E7.23082
G1 X97.402 Y85.721 E7.25166
G1 X96.862 Y85.354 E7.27385
G1 X96.377 Y84.978 E7.29468
G1 X95.902 Y84.560 E7.31619
G1 X95.456 Y84.114 E7.33762
G1 X95.035 Y83.638 E7.35919
G1 X94.646 Y83.138 E7.38072
G1 X94.279 Y82.598 E7.40291
G1 X93.958 Y82.053 E7.42443
G1 X93.678 Y81.502 E7.44540
G1 X93.420 Y80.907 E7.46745
G1 X93.212 Y80.330 E7.48828
G1 X93.035 Y79.722 E7.50979
G1 X92.892 Y79.085 E7.53198
G1 X92.794 Y78.459 E7.55349
G1 X92.736 Y77.845 E7.57447
G1 X92.716 Y77.196 E7.59654
G1 X92.737 Y76.561 E7.61811
G1 X92.796 Y75.933 E7.63954
G1 X92.896 Y75.308 E7.66105
G1 X93.030 Y74.710 E7.68188
G1 X93.212 Y74.082 E7.70407
G1 X93.427 Y73.487 E7.72558
G1 X93.671 Y72.924 E7.74642
G1 X93.967 Y72.342 E7.76860
G1 X94.279 Y71.815 E7.78944
G1 X94.635 Y71.291 E7.81095
G1 X95.013 Y70.802 E7.83194
G1 X95.377 Y70.387 E7.85072
G1 F1800.000 E6.85072
G92 E0
G1 X88.174 Y72.862 F7800.000
G1 X89.009 Y77.238
G1 X87.899 Y82.202
G1 X85.281 Y85.805
G1 X100.155 Y94.846
G1 F1800.000 E1.00000
G1 X100.753 Y94.796 F1200.000 E1.02038
G1 X101.066 Y94.789 E1.03101
G1 X101.794 Y94.839 E1.05581
G1 X102.179 Y94.902 E1.06906
G1 X102.593 Y94.997 E1.08350
G1 X103.230 Y95.204 E1.10626
G1 X103.689 Y95.403 E1.12324
G1 X104.356 Y95.776 E1.14922
G1 X104.918 Y96.184 E1.17282
G1 X105.402 Y96.626 E1.19507
G1 X105.808 Y97.074 E1.21561
G1 X106.213 Y97.632 E1.23905
G1 X106.506 Y98.142 E1.25903
G1 X106.784 Y98.753 E1.28183
G1 X106.995 Y99.399 E1.30494
G1 X107.092 Y99.823 E1.31971
G1 X107.170 Y100.371 E1.33851
G1 X107.204 Y101.041 E1.36131
G1 X107.161 Y101.720 E1.38441
G1 X107.086 Y102.202 E1.40099
G1 X106.963 Y102.700 E1.41844
G1 X106.784 Y103.241 E1.43779
G1 X106.589 Y103.689 E1.45438
G1 X106.266 Y104.276 E1.47714
G1 X105.976 Y104.701 E1.49463
G1 X105.559 Y105.205 E1.51688
G1 X105.249 Y105.518 E1.53183
G1 X104.689 Y105.986 E1.55662
G1 X104.276 Y106.266 E1.57360
G1 X103.603 Y106.630 E1.59958
G1 X102.957 Y106.886 E1.62319
G1 X102.377 Y107.046 E1.64362
G1 X101.802 Y107.152 E1.66349
G1 X100.936 Y107.203 E1.69297
G1 X100.213 Y107.155 E1.71760
G1 X99.457 Y107.010 E1.74375
G1 X98.762 Y106.788 E1.76854
G1 X98.357 Y106.616 E1.78349
G1 X97.716 Y106.266 E1.80828
G1 X97.303 Y105.986 E1.82526
G1 X96.787 Y105.559 E1.84802
G1 X96.474 Y105.249 E1.86297
G1 X96.007 Y104.689 E1.88776
G1 X95.726 Y104.276 E1.90474
G1 X95.362 Y103.603 E1.93072
G1 X95.106 Y102.957 E1.95433
G1 X94.946 Y102.377 E1.97476
G1 X94.840 Y101.802 E1.99463
G1 X94.788 Y101.036 E2.02073
G1 X94.830 Y100.287 E2.04620
G1 X94.896 Y99.843 E2.06148
G1 X95.029 Y99.292 E2.08073
G1 X95.208 Y98.751 E2.10009
G1 X95.403 Y98.303 E2.11667
G1 X95.733 Y97.703 E2.13994
G1 X96.169 Y97.094 E2.16542
G1 X96.457 Y96.761 E2.18036
G1 X96.787 Y96.434 E2.19615
G1 X97.303 Y96.007 E2.21891
G1 X97.729 Y95.718 E2.23640
G1 X98.312 Y95.398 E2.25899
G1 X98.867 Y95.167 E2.27943
G1 X99.425 Y94.990 E2.29929
G1 X100.062 Y94.864 E2.32136
G1 X100.256 Y95.474 F7800.000
G1 X101.041 Y95.425 F1200.000 E2.34806
G1 X101.694 Y95.468 E2.37032
G1 X102.411 Y95.607 E2.39511
G1 X103.019 Y95.804 E2.41685
G1 X103.396 Y95.967 E2.43078
G1 X103.999 Y96.302 E2.45421
G1 X104.530 Y96.688 E2.47652
G1 X104.943 Y97.066 E2.49555
G1 X105.304 Y97.462 E2.51377
G1 X105.688 Y97.991 E2.53597
G1 X105.952 Y98.454 E2.55409
G1 X106.185 Y98.966 E2.57321
G1 X106.385 Y99.581 E2.59519
G1 X106.474 Y99.975 E2.60888
G1 X106.538 Y100.444 E2.62497
G1 X106.568 Y101.019 E2.64455
G1 X106.528 Y101.665 E2.66652
G1 X106.465 Y102.063 E2.68022
G1 X106.349 Y102.536 E2.69676
G1 X106.185 Y103.026 E2.71431
G1 X106.025 Y103.396 E2.72801
G1 X105.717 Y103.956 E2.74976
G1 X105.477 Y104.307 E2.76419
G1 X105.078 Y104.788 E2.78543
G1 X104.811 Y105.058 E2.79834
G1 X104.295 Y105.486 E2.82110
G1 X103.956 Y105.717 E2.83502
G1 X103.351 Y106.047 E2.85846
G1 X102.740 Y106.288 E2.88077
G1 X102.226 Y106.429 E2.89889
G1 X101.708 Y106.523 E2.91677
G1 X100.956 Y106.568 E2.94236
G1 X100.298 Y106.525 E2.96478
G1 X99.610 Y106.393 E2.98855
