; generated by Slic3r 0.9.10b on 2013-10-13 at 16:32:04

; layer_height = 0.21
; perimeters = 2
; top_solid_layers = 3
; bottom_solid_layers = 3
; fill_density = 0.2
; perimeter_speed = 50
; infill_speed = 60
; travel_speed = 130
; nozzle_diameter = 0.4
; filament_diameter = 2.9
; extrusion_multiplier = 1.0088
; perimeters extrusion width = 0.64mm
; infill extrusion width = 0.64mm
; solid infill extrusion width = 0.64mm
; top infill extrusion width = 0.64mm
; support material extrusion width = 0.64mm
; first layer extrusion width = 0.70mm

G21 ; set units to millimeters
M107
M190 S60 ; wait for bed temperature to be reached
M104 S200 ; set temperature
G28 ; home all axes
G1 Z5 F5000 ; lift nozzle
M109 S200 ; wait for temperature to be reached
G90 ; use absolute coordinates
G92 E0
M82 ; use absolute distances for extrusion
G1 F1800.000 E-1.00000
G92 E0
G1 Z0.350 F7800.000
G1 X71.182 Y73.260
G1 F1800.000 E1.00000
G1 X71.972 Y72.550 F699.242 E1.03609
G1 X72.682 Y72.030 E1.06599
G1 X72.952 Y71.860 E1.07683
G1 X73.622 Y71.500 E1.10267
G1 X74.332 Y71.210 E1.12873
G1 X75.192 Y70.940 E1.15936
G1 X76.122 Y70.770 E1.19148
G1 X77.112 Y70.690 E1.22523
G1 X102.792 Y70.690 E2.09776
G1 X103.432 Y70.730 E2.11954
G1 X104.352 Y70.840 E2.15103
G1 X105.262 Y71.080 E2.18300
G1 X106.102 Y71.390 E2.21342
G1 X106.282 Y71.470 E2.22012
G1 X107.272 Y72.010 E2.25843
G1 X107.452 Y72.130 E2.26578
G1 X108.022 Y72.550 E2.28984
G1 X108.812 Y73.260 E2.32593
G1 X109.292 Y73.830 E2.35125
G1 X109.832 Y74.590 E2.38292
G1 X110.142 Y75.130 E2.40408
G1 X110.522 Y75.960 E2.43510
G1 X110.712 Y76.530 E2.45551
G1 X110.952 Y77.440 E2.48749
G1 X111.062 Y78.360 E2.51897
G1 X111.102 Y79.000 E2.54076
G1 X111.032 Y79.950 E2.57312
G1 X110.942 Y80.590 E2.59508
G1 X110.702 Y81.520 E2.62771
G1 X110.322 Y82.490 E2.66311
G1 X110.182 Y82.780 E2.67405
G1 X109.822 Y83.420 E2.69900
G1 X109.402 Y84.020 E2.72389
G1 X109.212 Y84.260 E2.73429
G1 X108.552 Y84.980 E2.76747
G1 X80.702 Y109.180 E4.02106
G1 X79.882 Y109.790 E4.05579
G1 X79.272 Y110.140 E4.07968
G1 X78.442 Y110.520 E4.11070
G1 X77.562 Y110.800 E4.14208
G1 X76.962 Y110.950 E4.16309
G1 X76.042 Y111.060 E4.19457
G1 X75.402 Y111.100 E4.21636
G1 X74.452 Y111.030 E4.24872
G1 X73.812 Y110.940 E4.27068
G1 X72.882 Y110.700 E4.30332
G1 X71.912 Y110.320 E4.33871
G1 X71.622 Y110.180 E4.34965
G1 X70.962 Y109.810 E4.37536
G1 X70.352 Y109.380 E4.40072
G1 X70.102 Y109.180 E4.41160
G1 X69.422 Y108.550 E4.44309
G1 X68.692 Y107.690 E4.48142
G1 X68.572 Y107.520 E4.48849
G1 X68.012 Y106.570 E4.52596
G1 X67.872 Y106.280 E4.53690
G1 X67.492 Y105.310 E4.57230
G1 X67.402 Y105.010 E4.58294
G1 X67.252 Y104.380 E4.60494
G1 X67.132 Y103.430 E4.63748
G1 X67.112 Y102.290 E4.67622
G1 X68.912 Y78.500 E5.48684
G1 X68.962 Y78.050 E5.50222
G1 X69.132 Y77.030 E5.53736
G1 X69.212 Y76.720 E5.54824
G1 X69.462 Y75.970 E5.57510
G1 X69.792 Y75.250 E5.60201
G1 X69.942 Y74.970 E5.61280
G1 X70.512 Y74.080 E5.64871
G1 X71.121 Y73.333 E5.68145
G1 F1800.000 E4.68145
G92 E0
G1 X74.787 Y76.814 F7800.000
G1 F1800.000 E1.00000
G1 X75.240 Y76.400 F699.242 E1.02087
G1 X75.362 Y76.313 E1.02596
G1 X75.871 Y76.027 E1.04581
G1 X76.458 Y75.828 E1.06684
G1 X76.928 Y75.755 E1.08301
G1 X77.196 Y75.741 E1.09213
G1 X77.881 Y75.812 E1.11553
G1 X78.445 Y75.986 E1.13557
G1 X78.745 Y76.127 E1.14683
G1 X79.083 Y76.335 E1.16035
G1 X79.522 Y76.706 E1.17986
G1 X79.645 Y76.837 E1.18596
G1 X79.929 Y77.205 E1.20175
G1 X80.217 Y77.747 E1.22262
G1 X80.399 Y78.334 E1.24349
G1 X80.468 Y78.944 E1.26435
G1 X80.422 Y79.556 E1.28522
G1 X80.261 Y80.149 E1.30608
G1 X79.993 Y80.701 E1.32695
G1 X79.635 Y81.182 E1.34731
G1 X79.316 Y81.492 E1.36241
G1 X78.996 Y81.732 E1.37599
G1 X78.490 Y82.003 E1.39550
G1 X78.323 Y82.069 E1.40161
G1 X77.876 Y82.197 E1.41740
G1 X77.296 Y82.265 E1.43725
G1 X77.116 Y82.265 E1.44336
G1 X76.652 Y82.219 E1.45922
G1 X76.083 Y82.065 E1.47925
G1 X75.599 Y81.843 E1.49734
G1 X75.209 Y81.583 E1.51326
G1 X74.787 Y81.193 E1.53277
G1 X74.420 Y80.701 E1.55364
G1 X74.151 Y80.149 E1.57451
G1 X74.020 Y79.703 E1.59030
G1 X73.986 Y79.527 E1.59640
G1 X73.944 Y78.944 E1.61625
G1 X73.986 Y78.481 E1.63204
G1 X74.020 Y78.305 E1.63815
G1 X74.207 Y77.720 E1.65901
G1 X74.420 Y77.307 E1.67480
G1 X74.728 Y76.889 E1.69243
G1 X75.251 Y77.251 F7800.000
G1 X75.638 Y76.897 F699.242 E1.71024
G1 X76.115 Y76.615 E1.72906
G1 X76.585 Y76.452 E1.74596
G1 X77.006 Y76.386 E1.76044
G1 X77.196 Y76.377 E1.76691
G1 X77.731 Y76.430 E1.78516
G1 X78.195 Y76.571 E1.80166
G1 X78.455 Y76.693 E1.81142
G1 X78.722 Y76.859 E1.82208
G1 X79.079 Y77.163 E1.83803
G1 X79.408 Y77.571 E1.85583
G1 X79.637 Y78.009 E1.87263
G1 X79.781 Y78.482 E1.88943
G1 X79.833 Y78.974 E1.90623
G1 X79.792 Y79.467 E1.92303
G1 X79.659 Y79.943 E1.93983
G1 X79.440 Y80.386 E1.95663
G1 X79.148 Y80.773 E1.97309
G1 X78.896 Y81.015 E1.98497
G1 X78.643 Y81.203 E1.99567
G1 X78.228 Y81.423 E2.01162
G1 X77.728 Y81.578 E2.02943
G1 X77.266 Y81.629 E2.04521
G1 X76.742 Y81.589 E2.06307
G1 X76.286 Y81.463 E2.07915
G1 X75.923 Y81.296 E2.09273
G1 X75.611 Y81.089 E2.10544
G1 X75.271 Y80.780 E2.12105
G1 X74.972 Y80.386 E2.13785
G1 X74.753 Y79.943 E2.15465
G1 X74.616 Y79.437 E2.17246
G1 X74.580 Y78.974 E2.18824
G1 X74.639 Y78.453 E2.20605
G1 X74.787 Y77.982 E2.22284
G1 X74.972 Y77.622 E2.23660
G1 X75.193 Y77.326 E2.24914
G1 X75.735 Y77.664 F7800.000
G1 X76.061 Y77.377 F699.242 E2.26389
G1 X76.386 Y77.191 E2.27662
G1 X76.742 Y77.069 E2.28939
G1 X77.196 Y77.013 E2.30494
G1 X77.610 Y77.056 E2.31907
G1 X77.969 Y77.165 E2.33182
G1 X78.183 Y77.269 E2.33990
G1 X78.360 Y77.382 E2.34704
G1 X78.636 Y77.620 E2.35943
G1 X78.870 Y77.913 E2.37215
G1 X79.045 Y78.244 E2.38488
G1 X79.155 Y78.602 E2.39761
G1 X79.196 Y78.974 E2.41033
G1 X79.166 Y79.347 E2.42306
G1 X79.067 Y79.708 E2.43578
G1 X78.902 Y80.045 E2.44851
G1 X78.677 Y80.344 E2.46123
G1 X78.490 Y80.525 E2.47006
G1 X78.290 Y80.674 E2.47855
G1 X77.966 Y80.843 E2.49094
G1 X77.608 Y80.953 E2.50367
G1 X77.236 Y80.994 E2.51639
G1 X76.863 Y80.964 E2.52912
G1 X76.490 Y80.860 E2.54228
G1 X76.230 Y80.739 E2.55203
G1 X76.013 Y80.596 E2.56086
G1 X75.735 Y80.344 E2.57358
G1 X75.510 Y80.045 E2.58631
G1 X75.345 Y79.708 E2.59903
G1 X75.246 Y79.347 E2.61176
G1 X75.217 Y78.974 E2.62448
G1 X75.257 Y78.602 E2.63721
G1 X75.367 Y78.244 E2.64993
G1 X75.510 Y77.963 E2.66063
G1 X75.677 Y77.739 E2.67012
G1 F1800.000 E1.67012
G92 E0
G1 X76.230 Y78.994 F7800.000
G1 X99.533 Y78.914
G1 F1800.000 E1.00000
G1 X99.601 Y78.334 F699.242 E1.01985
G1 X99.783 Y77.747 E1.04072
G1 X100.071 Y77.205 E1.06158
G1 X100.457 Y76.727 E1.08245
G1 X100.925 Y76.329 E1.10331
G1 X101.459 Y76.027 E1.12418
G1 X102.045 Y75.828 E1.14521
G1 X102.516 Y75.755 E1.16139
G1 X102.804 Y75.741 E1.17118
G1 X103.469 Y75.812 E1.19390
G1 X104.032 Y75.986 E1.21395
G1 X104.332 Y76.127 E1.22521
G1 X104.671 Y76.335 E1.23872
G1 X105.131 Y76.727 E1.25925
G1 X105.516 Y77.205 E1.28011
G1 X105.805 Y77.747 E1.30098
G1 X105.987 Y78.334 E1.32184
G1 X106.055 Y78.914 E1.34169
G1 X106.056 Y79.064 E1.34679
G1 X105.987 Y79.674 E1.36765
G1 X105.805 Y80.261 E1.38852
G1 X105.516 Y80.803 E1.40938
G1 X105.138 Y81.273 E1.42991
G1 X104.904 Y81.492 E1.44078
G1 X104.584 Y81.732 E1.45436
G1 X104.050 Y82.015 E1.47489
G1 X103.464 Y82.197 E1.49576
G1 X102.884 Y82.265 E1.51561
G1 X102.734 Y82.266 E1.52070
G1 X102.119 Y82.196 E1.54173
G1 X101.533 Y82.013 E1.56260
G1 X101.186 Y81.843 E1.57570
G1 X100.917 Y81.673 E1.58654
G1 X100.457 Y81.281 E1.60707
G1 X100.071 Y80.803 E1.62793
G1 X99.783 Y80.261 E1.64880
G1 X99.601 Y79.674 E1.66967
G1 X99.531 Y79.009 E1.69237
G1 X100.167 Y79.034 F7800.000
G1 X100.219 Y78.482 F699.242 E1.71120
G1 X100.363 Y78.009 E1.72800
G1 X100.592 Y77.571 E1.74480
G1 X100.900 Y77.184 E1.76159
G1 X101.274 Y76.861 E1.77839
G1 X101.703 Y76.615 E1.79519
G1 X102.172 Y76.452 E1.81208
G1 X102.593 Y76.386 E1.82656
G1 X102.784 Y76.377 E1.83304
G1 X103.318 Y76.430 E1.85129
G1 X103.783 Y76.571 E1.86779
G1 X104.043 Y76.693 E1.87754
G1 X104.309 Y76.859 E1.88820
G1 X104.688 Y77.184 E1.90517
G1 X104.995 Y77.571 E1.92197
G1 X105.225 Y78.009 E1.93877
G1 X105.368 Y78.482 E1.95557
G1 X105.420 Y78.974 E1.97236
G1 X105.380 Y79.467 E1.98916
G1 X105.247 Y79.943 E2.00596
G1 X105.028 Y80.386 E2.02276
G1 X104.702 Y80.809 E2.04091
G1 X104.483 Y81.015 E2.05110
G1 X104.231 Y81.203 E2.06180
G1 X103.789 Y81.435 E2.07877
G1 X103.315 Y81.578 E2.09557
G1 X102.824 Y81.631 E2.11237
G1 X102.330 Y81.589 E2.12921
G1 X101.805 Y81.437 E2.14779
G1 X101.545 Y81.315 E2.15754
G1 X101.278 Y81.149 E2.16820
G1 X100.921 Y80.845 E2.18415
G1 X100.592 Y80.437 E2.20196
G1 X100.363 Y79.999 E2.21876
G1 X100.219 Y79.526 E2.23556
G1 X100.175 Y79.129 E2.24912
G1 X100.804 Y79.034 F7800.000
G1 X100.845 Y78.602 F699.242 E2.26387
G1 X100.955 Y78.244 E2.27660
G1 X101.130 Y77.913 E2.28932
G1 X101.364 Y77.620 E2.30205
G1 X101.649 Y77.377 E2.31477
G1 X101.974 Y77.191 E2.32750
G1 X102.329 Y77.069 E2.34027
G1 X102.784 Y77.013 E2.35582
G1 X103.197 Y77.056 E2.36995
G1 X103.556 Y77.165 E2.38270
G1 X103.770 Y77.269 E2.39078
G1 X103.948 Y77.382 E2.39792
G1 X104.224 Y77.620 E2.41031
G1 X104.458 Y77.913 E2.42304
G1 X104.633 Y78.244 E2.43576
G1 X104.743 Y78.602 E2.44849
G1 X104.783 Y78.974 E2.46121
G1 X104.754 Y79.347 E2.47394
G1 X104.655 Y79.708 E2.48666
G1 X104.490 Y80.045 E2.49939
G1 X104.231 Y80.381 E2.51380
G1 X104.078 Y80.525 E2.52094
G1 X103.877 Y80.674 E2.52943
G1 X103.554 Y80.843 E2.54182
G1 X103.196 Y80.953 E2.55455
G1 X102.824 Y80.994 E2.56727
G1 X102.450 Y80.964 E2.58000
G1 X102.031 Y80.842 E2.59482
G1 X101.817 Y80.739 E2.60290
G1 X101.640 Y80.626 E2.61004
G1 X101.364 Y80.388 E2.62243
G1 X101.130 Y80.095 E2.63516
G1 X100.955 Y79.764 E2.64788
G1 X100.845 Y79.406 E2.66061
G1 X100.813 Y79.129 E2.67009
G1 F1800.000 E1.67009
G92 E0
G1 X81.708 Y79.004 F7800.000
G1 X77.206 Y83.506
G1 X77.885 Y100.670
G1 F1800.000 E1.00000
G1 X78.202 Y101.110 F699.242 E1.01841
G1 X78.464 Y101.649 E1.03877
G1 X78.624 Y102.241 E1.05963
G1 X78.669 Y102.704 E1.07542
G1 X78.669 Y102.884 E1.08153
G1 X78.602 Y103.464 E1.10138
G1 X78.473 Y103.911 E1.11717
G1 X78.407 Y104.078 E1.12328
G1 X78.136 Y104.584 E1.14279
G1 X77.898 Y104.902 E1.15630
G1 X77.599 Y105.211 E1.17089
G1 X77.108 Y105.579 E1.19176
G1 X76.554 Y105.849 E1.21270
G1 X75.961 Y106.010 E1.23356
G1 X75.498 Y106.055 E1.24935
G1 X75.319 Y106.055 E1.25546
G1 X74.738 Y105.987 E1.27531
G1 X74.292 Y105.859 E1.29110
G1 X74.124 Y105.793 E1.29721
G1 X73.581 Y105.496 E1.31826
G1 X73.218 Y105.211 E1.33393
G1 X72.932 Y104.917 E1.34785
G1 X72.615 Y104.478 E1.36626
G1 X72.353 Y103.939 E1.38662
G1 X72.193 Y103.346 E1.40748
G1 X72.146 Y102.734 E1.42835
G1 X72.215 Y102.124 E1.44922
G1 X72.397 Y101.537 E1.47008
G1 X72.686 Y100.995 E1.49095
G1 X72.970 Y100.627 E1.50674
G1 X73.093 Y100.496 E1.51285
G1 X73.539 Y100.119 E1.53270
G1 X74.074 Y99.816 E1.55356
G1 X74.660 Y99.618 E1.57459
G1 X75.130 Y99.545 E1.59077
G1 X75.418 Y99.531 E1.60057
G1 X76.079 Y99.601 E1.62312
G1 X76.665 Y99.783 E1.64399
G1 X77.081 Y99.993 E1.65983
G1 X77.236 Y100.092 E1.66608
G1 X77.599 Y100.377 E1.68175
G1 X77.820 Y100.601 E1.69243
G1 X77.407 Y101.090 F7800.000
G1 X77.647 Y101.420 F699.242 E1.70630
G1 X77.862 Y101.855 E1.72276
G1 X77.994 Y102.331 E1.73955
G1 X78.034 Y102.854 E1.75736
G1 X77.983 Y103.315 E1.77315
G1 X77.827 Y103.816 E1.79096
G1 X77.607 Y104.231 E1.80690
G1 X77.420 Y104.483 E1.81757
G1 X77.188 Y104.725 E1.82899
G1 X76.792 Y105.027 E1.84590
G1 X76.348 Y105.247 E1.86274
G1 X75.871 Y105.380 E1.87954
G1 X75.349 Y105.419 E1.89735
G1 X74.887 Y105.368 E1.91313
G1 X74.386 Y105.213 E1.93094
G1 X73.948 Y104.976 E1.94785
G1 X73.629 Y104.725 E1.96165
G1 X73.410 Y104.497 E1.97240
G1 X73.170 Y104.167 E1.98627
G1 X72.955 Y103.733 E2.00273
G1 X72.823 Y103.257 E2.01953
G1 X72.782 Y102.764 E2.03632
G1 X72.834 Y102.272 E2.05312
G1 X72.977 Y101.799 E2.06992
G1 X73.207 Y101.361 E2.08672
G1 X73.536 Y100.953 E2.10453
G1 X73.889 Y100.651 E2.12031
G1 X74.317 Y100.404 E2.13711
G1 X74.787 Y100.242 E2.15400
G1 X75.208 Y100.176 E2.16848
G1 X75.418 Y100.167 E2.17564
G1 X75.930 Y100.219 E2.19311
G1 X76.403 Y100.363 E2.20991
G1 X76.844 Y100.594 E2.22680
G1 X77.188 Y100.862 E2.24164
G1 X77.342 Y101.021 E2.24915
G1 X76.930 Y101.510 F7800.000
G1 X77.104 Y101.753 F699.242 E2.25932
G1 X77.269 Y102.089 E2.27205
G1 X77.368 Y102.450 E2.28477
G1 X77.398 Y102.824 E2.29750
G1 X77.357 Y103.196 E2.31022
G1 X77.247 Y103.554 E2.32295
G1 X77.078 Y103.877 E2.33533
G1 X76.930 Y104.078 E2.34381
G1 X76.758 Y104.256 E2.35222
G1 X76.449 Y104.490 E2.36538
G1 X76.113 Y104.655 E2.37811
G1 X75.752 Y104.754 E2.39083
G1 X75.378 Y104.783 E2.40356
G1 X75.006 Y104.743 E2.41628
G1 X74.648 Y104.633 E2.42901
G1 X74.316 Y104.457 E2.44178
G1 X74.059 Y104.256 E2.45286
G1 X73.887 Y104.078 E2.46127
G1 X73.713 Y103.835 E2.47144
G1 X73.548 Y103.498 E2.48417
G1 X73.448 Y103.137 E2.49689
G1 X73.419 Y102.764 E2.50962
G1 X73.460 Y102.392 E2.52234
G1 X73.570 Y102.033 E2.53507
G1 X73.745 Y101.702 E2.54779
G1 X73.979 Y101.410 E2.56052
G1 X74.263 Y101.167 E2.57324
G1 X74.588 Y100.981 E2.58597
G1 X74.944 Y100.859 E2.59874
G1 X75.398 Y100.803 E2.61429
G1 X75.811 Y100.845 E2.62837
G1 X76.169 Y100.955 E2.64110
G1 X76.501 Y101.131 E2.65387
G1 X76.758 Y101.332 E2.66495
G1 X76.865 Y101.440 E2.67013
G1 F1800.000 E1.67013
G92 E0
G1 X77.206 Y80.359 F7800.000
G1 F1800.000 E1.00000
G1 X76.952 Y80.335 F600.000 E1.00867
G1 X76.707 Y80.264 E1.01733
G1 X76.410 Y80.100 E1.02888
G1 X76.218 Y79.932 E1.03754
G1 X76.062 Y79.730 E1.04621
G1 X75.946 Y79.503 E1.05488
G1 X75.875 Y79.258 E1.06354
G1 X75.851 Y79.004 E1.07221
G1 X75.875 Y78.750 E1.08088
G1 X75.946 Y78.505 E1.08955
G1 X76.062 Y78.278 E1.09821
G1 X76.218 Y78.076 E1.10688
G1 X76.410 Y77.908 E1.11555
G1 X76.629 Y77.778 E1.12421
G1 X76.869 Y77.691 E1.13288
G1 X77.121 Y77.651 E1.14155
G1 X77.376 Y77.659 E1.15021
G1 X77.625 Y77.715 E1.15888
G1 X77.859 Y77.816 E1.16755
G1 X78.070 Y77.960 E1.17621
G1 X78.250 Y78.140 E1.18488
G1 X78.394 Y78.351 E1.19355
G1 X78.519 Y78.667 E1.20509
G1 X78.559 Y78.919 E1.21376
G1 X78.551 Y79.174 E1.22242
G1 X78.495 Y79.423 E1.23109
G1 X78.394 Y79.657 E1.23976
G1 X78.250 Y79.868 E1.24843
G1 X78.070 Y80.048 E1.25709
G1 X77.859 Y80.192 E1.26576
G1 X77.625 Y80.293 E1.27443
G1 X77.301 Y80.356 E1.28562
G1 X77.081 Y80.137 F7800.000
G1 X77.341 Y79.711
G1 X77.206 Y79.723 F600.000 E1.29023
G1 X77.071 Y79.711 E1.29483
G1 X76.941 Y79.673 E1.29943
G1 X76.821 Y79.611 E1.30403
G1 X76.714 Y79.528 E1.30862
G1 X76.624 Y79.427 E1.31323
G1 X76.555 Y79.310 E1.31783
G1 X76.509 Y79.183 E1.32243
G1 X76.488 Y79.049 E1.32703
G1 X76.493 Y78.914 E1.33163
G1 X76.522 Y78.782 E1.33623
G1 X76.576 Y78.657 E1.34083
G1 X76.652 Y78.545 E1.34543
G1 X76.748 Y78.450 E1.35003
G1 X76.860 Y78.374 E1.35463
G1 X77.027 Y78.307 E1.36075
G1 X77.161 Y78.286 E1.36535
G1 X77.296 Y78.290 E1.36995
G1 X77.428 Y78.320 E1.37455
G1 X77.553 Y78.374 E1.37915
G1 X77.665 Y78.450 E1.38375
G1 X77.760 Y78.545 E1.38835
G1 X77.837 Y78.657 E1.39295
G1 X77.890 Y78.782 E1.39755
G1 X77.920 Y78.914 E1.40215
G1 X77.924 Y79.049 E1.40675
G1 X77.903 Y79.183 E1.41135
G1 X77.857 Y79.310 E1.41595
G1 X77.788 Y79.427 E1.42056
G1 X77.699 Y79.528 E1.42516
G1 X77.592 Y79.611 E1.42976
G1 X77.433 Y79.686 E1.43571
G1 F1800.000 E0.43571
G92 E0
G1 X82.617 Y90.618 F7800.000
G1 X77.254 Y91.817
G1 X75.549 Y91.792
G1 X75.061 Y91.807
G1 X75.494 Y101.441
G1 F1800.000 E1.00000
G1 X75.745 Y101.481 F600.000 E1.00867
G1 X75.985 Y101.568 E1.01733
G1 X76.205 Y101.697 E1.02600
G1 X76.396 Y101.866 E1.03467
G1 X76.553 Y102.068 E1.04333
G1 X76.669 Y102.295 E1.05200
G1 X76.740 Y102.540 E1.06067
G1 X76.764 Y102.794 E1.06934
G1 X76.740 Y103.048 E1.07800
G1 X76.669 Y103.293 E1.08667
G1 X76.505 Y103.590 E1.09821
G1 X76.336 Y103.782 E1.10688
G1 X76.135 Y103.938 E1.11555
G1 X75.907 Y104.054 E1.12421
G1 X75.662 Y104.125 E1.13288
G1 X75.408 Y104.149 E1.14155
G1 X75.155 Y104.125 E1.15021
G1 X74.910 Y104.054 E1.15888
G1 X74.682 Y103.938 E1.16755
G1 X74.481 Y103.782 E1.17621
G1 X74.312 Y103.590 E1.18488
G1 X74.148 Y103.293 E1.19642
G1 X74.077 Y103.048 E1.20509
G1 X74.053 Y102.794 E1.21376
G1 X74.077 Y102.540 E1.22242
G1 X74.148 Y102.295 E1.23109
G1 X74.264 Y102.068 E1.23976
