; generated by Slic3r 0.9.10b on 2013-10-18 at 19:23:07

; layer_height = 0.21
; perimeters = 2
; top_solid_layers = 3
; bottom_solid_layers = 3
; fill_density = 0.2
; perimeter_speed = 50
; infill_speed = 60
; travel_speed = 130
; nozzle_diameter = 0.4
; filament_diameter = 2.9
; extrusion_multiplier = 1.0088
; perimeters extrusion width = 0.64mm
; infill extrusion width = 0.64mm
; solid infill extrusion width = 0.64mm
; top infill extrusion width = 0.64mm
; support material extrusion width = 0.64mm
; first layer extrusion width = 0.70mm

G21 ; set units to millimeters
M107
M190 S60 ; wait for bed temperature to be reached
M104 S200 ; set temperature
G28 ; home all axes
G1 Z5 F5000 ; lift nozzle
M109 S200 ; wait for temperature to be reached
G90 ; use absolute coordinates
G92 E0
M82 ; use absolute distances for extrusion
G1 F1800.000 E-1.00000
G92 E0
G1 Z0.350 F7800.000
G1 X86.560 Y37.660
G1 F1800.000 E1.00000
G1 X87.360 Y36.430 F1200.000 E1.04985
G1 X88.400 Y35.400 E1.09959
G1 X89.650 Y34.630 E1.14947
G1 X91.040 Y34.150 E1.19943
G1 X92.500 Y33.980 E1.24938
G1 X102.500 Y33.980 E1.58914
G1 X103.790 Y34.110 E1.63320
G1 X105.040 Y34.490 E1.67759
G1 X106.190 Y35.100 E1.72182
G1 X107.190 Y35.930 E1.76597
G1 X108.020 Y36.930 E1.81013
G1 X108.630 Y38.080 E1.85436
G1 X109.010 Y39.330 E1.89875
G1 X109.140 Y40.620 E1.94280
G1 X109.140 Y50.790 E2.28835
G1 X106.630 Y136.140 E5.18953
G1 X106.440 Y137.530 E5.23720
G1 X105.970 Y138.850 E5.28481
G1 X105.220 Y140.040 E5.33260
G1 X104.250 Y141.050 E5.38018
G1 X103.080 Y141.830 E5.42796
G1 X101.780 Y142.340 E5.47541
G1 X100.390 Y142.570 E5.52328
G1 X85.390 Y143.460 E6.03383
G1 X85.000 Y143.480 E6.04710
G1 X79.990 Y143.480 E6.21732
G1 X78.730 Y143.360 E6.26032
G1 X77.520 Y143.000 E6.30322
G1 X76.400 Y142.420 E6.34607
G1 X75.410 Y141.640 E6.38889
G1 X74.580 Y140.680 E6.43201
G1 X73.950 Y139.590 E6.47479
G1 X73.540 Y138.390 E6.51788
G1 X73.360 Y137.140 E6.56079
G1 X70.870 Y82.480 E8.41989
G1 X70.860 Y70.740 E8.81878
G1 X71.040 Y69.220 E8.87079
G1 X71.560 Y67.780 E8.92281
G1 X86.517 Y37.745 E10.06284
G1 F1800.000 E9.06284
G92 E0
G1 X88.751 Y38.720 F7800.000
G1 F1800.000 E1.00000
G1 X90.605 Y36.865 F1200.000 E1.08910
G1 X90.839 Y36.768 E1.09769
G1 X95.277 Y36.768 E1.24848
G1 X95.399 Y36.793 E1.25273
G1 X96.566 Y37.276 E1.29565
G1 X96.670 Y37.346 E1.29990
G1 X97.397 Y38.073 E1.33483
G1 X98.605 Y36.865 E1.39286
G1 X98.839 Y36.768 E1.40145
G1 X103.277 Y36.768 E1.55224
G1 X103.399 Y36.793 E1.55649
G1 X104.566 Y37.276 E1.59941
G1 X104.670 Y37.346 E1.60366
G1 X105.769 Y38.444 E1.65643
G1 X105.838 Y38.548 E1.66069
G1 X106.322 Y39.715 E1.70360
G1 X106.346 Y39.838 E1.70786
G1 X106.346 Y52.445 E2.13622
G1 X106.249 Y52.679 E2.14482
G1 X104.395 Y54.533 E2.23392
G1 X104.161 Y54.630 E2.24251
G1 X103.681 Y54.630 E2.25883
G1 X103.822 Y54.970 E2.27133
G1 X103.846 Y55.093 E2.27558
G1 X103.846 Y137.618 E5.07956
G1 X103.749 Y137.852 E5.08815
G1 X101.895 Y139.706 E5.17725
G1 X101.661 Y139.803 E5.18584
G1 X94.223 Y139.803 E5.43856
G1 X94.101 Y139.779 E5.44281
G1 X92.934 Y139.295 E5.48573
G1 X92.830 Y139.226 E5.48998
G1 X91.731 Y138.128 E5.54275
G1 X91.662 Y138.024 E5.54700
G1 X91.178 Y136.857 E5.58992
G1 X91.154 Y136.734 E5.59418
G1 X91.154 Y84.170 E7.38013
G1 X89.395 Y85.929 E7.46466
G1 X89.161 Y86.026 E7.47325
G1 X88.846 Y86.026 E7.48396
G1 X88.846 Y138.504 E9.26702
G1 X88.749 Y138.738 E9.27561
G1 X86.895 Y140.592 E9.36471
G1 X86.661 Y140.689 E9.37331
G1 X79.223 Y140.689 E9.62602
G1 X79.101 Y140.665 E9.63028
G1 X77.934 Y140.181 E9.67319
G1 X77.830 Y140.112 E9.67745
G1 X76.731 Y139.014 E9.73022
G1 X76.662 Y138.909 E9.73447
G1 X76.178 Y137.743 E9.77739
G1 X76.154 Y137.620 E9.78164
G1 X76.154 Y86.757 E11.50981
G1 X75.961 Y85.908 E11.53937
G1 X75.974 Y85.742 E11.54504
G1 X75.434 Y85.518 E11.56491
G1 X75.330 Y85.449 E11.56917
G1 X74.231 Y84.350 E11.62194
G1 X74.162 Y84.246 E11.62619
G1 X73.679 Y83.079 E11.66911
G1 X73.654 Y82.956 E11.67336
G1 X73.654 Y69.962 E12.11486
G1 X73.679 Y69.839 E12.11912
G1 X74.162 Y68.673 E12.16203
G1 X74.231 Y68.568 E12.16629
G1 X75.330 Y67.470 E12.21906
G1 X75.434 Y67.401 E12.22331
G1 X76.601 Y66.917 E12.26623
G1 X76.723 Y66.893 E12.27048
G1 X81.161 Y66.893 E12.42126
G1 X81.395 Y66.990 E12.42986
G1 X82.603 Y68.197 E12.48788
G1 X83.330 Y67.470 E12.52281
G1 X83.434 Y67.401 E12.52707
G1 X84.601 Y66.917 E12.56998
G1 X84.723 Y66.893 E12.57424
G1 X89.161 Y66.893 E12.72503
G1 X89.395 Y66.990 E12.73362
G1 X91.154 Y68.749 E12.81814
G1 X91.154 Y55.093 E13.28213
G1 X91.178 Y54.970 E13.28639
G1 X91.369 Y54.510 E13.30331
G1 X90.434 Y54.122 E13.33771
G1 X90.330 Y54.053 E13.34196
G1 X89.231 Y52.955 E13.39473
G1 X89.162 Y52.851 E13.39898
G1 X88.679 Y51.684 E13.44190
G1 X88.654 Y51.561 E13.44615
G1 X88.654 Y38.953 E13.87452
G1 X88.714 Y38.808 E13.87987
G1 X89.386 Y38.983 F7800.000
G1 X90.868 Y37.501 F1200.000 E13.95108
G1 X91.102 Y37.404 E13.95967
G1 X95.150 Y37.404 E14.09722
G1 X95.273 Y37.428 E14.10147
G1 X96.206 Y37.815 E14.13580
G1 X96.310 Y37.885 E14.14005
G1 X97.230 Y38.804 E14.18423
G1 X97.299 Y38.908 E14.18848
G1 X97.358 Y39.050 E14.19372
G1 X97.386 Y38.983 E14.19621
G1 X98.868 Y37.501 E14.26742
G1 X99.102 Y37.404 E14.27601
G1 X103.150 Y37.404 E14.41355
G1 X103.273 Y37.428 E14.41781
G1 X104.206 Y37.815 E14.45213
G1 X104.310 Y37.885 E14.45639
G1 X105.230 Y38.804 E14.50056
G1 X105.299 Y38.908 E14.50482
G1 X105.686 Y39.841 E14.53914
G1 X105.710 Y39.964 E14.54340
G1 X105.710 Y52.182 E14.95852
G1 X105.614 Y52.416 E14.96712
G1 X104.132 Y53.898 E15.03833
G1 X103.898 Y53.995 E15.04692
G1 X102.665 Y53.995 E15.08880
G1 X102.799 Y54.163 E15.09611
G1 X103.186 Y55.096 E15.13043
G1 X103.210 Y55.219 E15.13469
G1 X103.210 Y137.355 E17.92542
G1 X103.114 Y137.589 E17.93401
G1 X101.632 Y139.071 E18.00522
G1 X101.398 Y139.168 E18.01381
G1 X94.350 Y139.168 E18.25329
G1 X94.227 Y139.143 E18.25754
G1 X93.294 Y138.757 E18.29187
G1 X93.190 Y138.687 E18.29612
G1 X92.270 Y137.768 E18.34030
G1 X92.201 Y137.663 E18.34455
G1 X91.814 Y136.730 E18.37888
G1 X91.790 Y136.607 E18.38313
G1 X91.790 Y55.219 E21.14846
G1 X91.814 Y55.096 E21.15271
G1 X92.201 Y54.163 E21.18703
G1 X92.335 Y53.995 E21.19435
G1 X91.850 Y53.995 E21.21081
G1 X91.727 Y53.970 E21.21507
G1 X90.794 Y53.584 E21.24939
G1 X90.690 Y53.514 E21.25364
G1 X89.770 Y52.595 E21.29782
G1 X89.701 Y52.490 E21.30207
G1 X89.314 Y51.557 E21.33640
G1 X89.290 Y51.434 E21.34065
G1 X89.290 Y39.216 E21.75578
G1 X89.350 Y39.071 E21.76113
G1 F1800.000 E20.76113
G92 E0
G1 X97.642 Y52.348 F7800.000
G1 F1800.000 E1.00000
G1 X97.701 Y52.490 F1200.000 E1.00524
G1 X97.835 Y52.659 E1.01255
G1 X97.370 Y52.659 E1.02831
G1 X97.598 Y52.431 E1.03925
G1 X96.978 Y52.152 F7800.000
G1 X95.868 Y53.262 F1200.000 E1.09257
G1 X95.790 Y53.295 E1.09544
G1 X99.757 Y53.295 E1.23022
G1 X99.154 Y53.045 E1.25241
G1 X99.050 Y52.975 E1.25666
G1 X98.309 Y52.235 E1.29225
G1 X98.239 Y52.130 E1.29650
G1 X97.950 Y51.431 E1.32223
G1 X97.925 Y51.308 E1.32649
G1 X97.925 Y48.989 E1.40527
G1 X97.948 Y48.877 E1.40914
G1 X97.925 Y48.765 E1.41302
G1 X97.925 Y46.447 E1.49180
G1 X97.948 Y46.335 E1.49568
G1 X97.925 Y46.223 E1.49956
G1 X97.925 Y43.904 E1.57834
G1 X97.948 Y43.792 E1.58221
G1 X97.925 Y43.680 E1.58609
G1 X97.925 Y39.480 E1.72882
G1 X98.022 Y39.246 E1.73741
G1 X99.132 Y38.136 E1.79073
G1 X99.365 Y38.040 E1.79932
G1 X103.024 Y38.040 E1.92363
G1 X103.147 Y38.064 E1.92788
G1 X103.846 Y38.354 E1.95362
G1 X103.950 Y38.423 E1.95787
G1 X104.691 Y39.164 E1.99345
G1 X104.761 Y39.268 E1.99771
G1 X105.050 Y39.968 E2.02344
G1 X105.075 Y40.091 E2.02770
G1 X105.075 Y42.409 E2.10647
G1 X105.052 Y42.521 E2.11035
G1 X105.075 Y42.633 E2.11423
G1 X105.075 Y44.952 E2.19301
G1 X105.052 Y45.064 E2.19689
G1 X105.075 Y45.176 E2.20077
G1 X105.075 Y47.494 E2.27954
G1 X105.052 Y47.606 E2.28342
G1 X105.075 Y47.718 E2.28730
G1 X105.075 Y51.919 E2.43003
G1 X104.978 Y52.152 E2.43862
G1 X103.868 Y53.262 E2.49194
G1 X103.635 Y53.359 E2.50053
G1 X100.743 Y53.359 E2.59878
G1 X101.346 Y53.609 E2.62097
G1 X101.450 Y53.678 E2.62522
G1 X102.191 Y54.419 E2.66081
G1 X102.261 Y54.523 E2.66506
G1 X102.550 Y55.223 E2.69080
G1 X102.575 Y55.346 E2.69505
G1 X102.575 Y57.664 E2.77383
G1 X102.552 Y57.776 E2.77771
G1 X102.575 Y57.888 E2.78158
G1 X102.575 Y60.207 E2.86036
G1 X102.552 Y60.319 E2.86424
G1 X102.575 Y60.430 E2.86812
G1 X102.575 Y62.749 E2.94690
G1 X102.552 Y62.861 E2.95078
G1 X102.575 Y62.973 E2.95465
G1 X102.575 Y69.105 E3.16301
G1 X102.552 Y69.217 E3.16689
G1 X102.575 Y69.329 E3.17077
G1 X102.575 Y71.648 E3.24954
G1 X102.552 Y71.760 E3.25342
G1 X102.575 Y71.872 E3.25730
G1 X102.575 Y74.190 E3.33608
G1 X102.552 Y74.302 E3.33996
G1 X102.575 Y74.414 E3.34384
G1 X102.575 Y76.733 E3.42261
G1 X102.552 Y76.845 E3.42649
G1 X102.575 Y76.957 E3.43037
G1 X102.575 Y79.275 E3.50915
G1 X102.552 Y79.387 E3.51303
G1 X102.575 Y79.499 E3.51691
G1 X102.575 Y81.818 E3.59568
G1 X102.552 Y81.930 E3.59956
G1 X102.575 Y82.042 E3.60344
G1 X102.575 Y84.360 E3.68222
G1 X102.552 Y84.472 E3.68610
G1 X102.575 Y84.584 E3.68998
G1 X102.575 Y86.903 E3.76875
G1 X102.552 Y87.015 E3.77263
G1 X102.575 Y87.127 E3.77651
G1 X102.575 Y89.445 E3.85529
G1 X102.552 Y89.557 E3.85917
G1 X102.575 Y89.669 E3.86305
G1 X102.575 Y91.988 E3.94182
G1 X102.552 Y92.100 E3.94570
G1 X102.575 Y92.211 E3.94958
G1 X102.575 Y94.530 E4.02836
G1 X102.552 Y94.642 E4.03224
G1 X102.575 Y94.754 E4.03611
G1 X102.575 Y97.072 E4.11489
G1 X102.552 Y97.184 E4.11877
G1 X102.575 Y97.296 E4.12265
G1 X102.575 Y99.615 E4.20143
G1 X102.552 Y99.727 E4.20531
G1 X102.575 Y99.839 E4.20918
G1 X102.575 Y102.157 E4.28796
G1 X102.552 Y102.269 E4.29184
G1 X102.575 Y102.381 E4.29572
G1 X102.575 Y104.700 E4.37450
G1 X102.552 Y104.812 E4.37837
G1 X102.575 Y104.924 E4.38225
G1 X102.575 Y107.242 E4.46103
G1 X102.552 Y107.354 E4.46491
G1 X102.575 Y107.466 E4.46879
G1 X102.575 Y109.785 E4.54757
G1 X102.552 Y109.897 E4.55144
G1 X102.575 Y110.009 E4.55532
G1 X102.575 Y112.327 E4.63410
G1 X102.552 Y112.439 E4.63798
G1 X102.575 Y112.551 E4.64186
G1 X102.575 Y114.870 E4.72064
G1 X102.552 Y114.982 E4.72451
G1 X102.575 Y115.094 E4.72839
G1 X102.575 Y117.412 E4.80717
G1 X102.552 Y117.524 E4.81105
G1 X102.575 Y117.636 E4.81493
G1 X102.575 Y123.769 E5.02328
G1 X102.552 Y123.880 E5.02716
G1 X102.575 Y123.992 E5.03104
G1 X102.575 Y126.311 E5.10982
G1 X102.552 Y126.423 E5.11370
G1 X102.575 Y126.535 E5.11757
G1 X102.575 Y132.667 E5.32593
G1 X102.552 Y132.779 E5.32981
G1 X102.575 Y132.891 E5.33369
G1 X102.575 Y137.092 E5.47642
G1 X102.478 Y137.325 E5.48501
G1 X101.368 Y138.435 E5.53833
G1 X101.135 Y138.532 E5.54692
G1 X94.476 Y138.532 E5.77316
G1 X94.353 Y138.507 E5.77741
G1 X93.654 Y138.218 E5.80314
G1 X93.550 Y138.148 E5.80740
G1 X92.809 Y137.408 E5.84298
G1 X92.739 Y137.303 E5.84724
G1 X92.450 Y136.604 E5.87297
G1 X92.425 Y136.481 E5.87722
G1 X92.425 Y134.162 E5.95600
G1 X92.448 Y134.050 E5.95988
G1 X92.425 Y133.938 E5.96376
G1 X92.425 Y131.620 E6.04253
G1 X92.448 Y131.508 E6.04641
G1 X92.425 Y131.396 E6.05029
G1 X92.425 Y129.077 E6.12907
G1 X92.448 Y128.965 E6.13295
G1 X92.425 Y128.853 E6.13683
G1 X92.425 Y126.535 E6.21560
G1 X92.448 Y126.423 E6.21948
G1 X92.425 Y126.311 E6.22336
G1 X92.425 Y123.992 E6.30214
G1 X92.448 Y123.880 E6.30602
G1 X92.425 Y123.769 E6.30990
G1 X92.425 Y121.450 E6.38867
G1 X92.448 Y121.338 E6.39255
G1 X92.425 Y121.226 E6.39643
G1 X92.425 Y118.907 E6.47521
G1 X92.448 Y118.796 E6.47909
G1 X92.425 Y118.684 E6.48297
G1 X92.425 Y116.365 E6.56174
G1 X92.448 Y116.253 E6.56562
G1 X92.425 Y116.141 E6.56950
G1 X92.425 Y113.823 E6.64828
G1 X92.448 Y113.711 E6.65216
G1 X92.425 Y113.599 E6.65604
G1 X92.425 Y111.280 E6.73481
G1 X92.448 Y111.168 E6.73869
G1 X92.425 Y111.056 E6.74257
G1 X92.425 Y108.738 E6.82135
G1 X92.448 Y108.626 E6.82523
G1 X92.425 Y108.514 E6.82910
G1 X92.425 Y106.195 E6.90788
G1 X92.448 Y106.083 E6.91176
G1 X92.425 Y105.971 E6.91564
G1 X92.425 Y103.653 E6.99442
G1 X92.448 Y103.541 E6.99830
G1 X92.425 Y103.429 E7.00217
G1 X92.425 Y101.110 E7.08095
G1 X92.448 Y100.998 E7.08483
G1 X92.425 Y100.886 E7.08871
G1 X92.425 Y98.568 E7.16749
G1 X92.447 Y98.456 E7.17136
G1 X92.425 Y98.344 E7.17524
G1 X92.425 Y96.025 E7.25402
G1 X92.448 Y95.913 E7.25790
G1 X92.425 Y95.801 E7.26178
G1 X92.425 Y93.483 E7.34056
G1 X92.448 Y93.371 E7.34443
G1 X92.425 Y93.259 E7.34831
G1 X92.425 Y90.940 E7.42709
G1 X92.448 Y90.828 E7.43097
G1 X92.425 Y90.716 E7.43485
G1 X92.425 Y88.398 E7.51363
G1 X92.448 Y88.286 E7.51750
G1 X92.425 Y88.174 E7.52138
G1 X92.425 Y85.855 E7.60016
G1 X92.448 Y85.743 E7.60404
G1 X92.425 Y85.631 E7.60792
G1 X92.425 Y83.313 E7.68669
G1 X92.448 Y83.201 E7.69057
G1 X92.425 Y83.089 E7.69445
G1 X92.425 Y80.770 E7.77323
G1 X92.448 Y80.658 E7.77711
G1 X92.425 Y80.546 E7.78099
G1 X92.425 Y78.228 E7.85976
G1 X92.448 Y78.116 E7.86364
G1 X92.425 Y78.004 E7.86752
G1 X92.425 Y75.685 E7.94630
G1 X92.448 Y75.573 E7.95018
G1 X92.425 Y75.461 E7.95406
G1 X92.425 Y73.143 E8.03283
G1 X92.448 Y73.031 E8.03671
G1 X92.425 Y72.919 E8.04059
G1 X92.425 Y70.600 E8.11937
G1 X92.448 Y70.488 E8.12325
G1 X92.425 Y70.376 E8.12713
G1 X92.425 Y68.058 E8.20590
G1 X92.448 Y67.946 E8.20978
G1 X92.425 Y67.834 E8.21366
G1 X92.425 Y65.515 E8.29244
G1 X92.448 Y65.403 E8.29632
G1 X92.425 Y65.292 E8.30019
G1 X92.425 Y62.973 E8.37897
G1 X92.448 Y62.861 E8.38285
G1 X92.425 Y62.749 E8.38673
G1 X92.425 Y60.430 E8.46551
G1 X92.448 Y60.319 E8.46939
G1 X92.425 Y60.207 E8.47326
G1 X92.425 Y57.888 E8.55204
G1 X92.448 Y57.776 E8.55592
G1 X92.425 Y57.664 E8.55980
G1 X92.425 Y55.346 E8.63858
G1 X92.450 Y55.223 E8.64283
G1 X92.739 Y54.523 E8.66856
G1 X92.809 Y54.419 E8.67282
G1 X93.550 Y53.678 E8.70840
G1 X93.654 Y53.609 E8.71266
G1 X94.257 Y53.359 E8.73484
G1 X91.976 Y53.359 E8.81233
G1 X91.854 Y53.334 E8.81659
G1 X91.154 Y53.045 E8.84232
G1 X91.050 Y52.975 E8.84657
G1 X90.309 Y52.235 E8.88216
G1 X90.240 Y52.130 E8.88641
G1 X89.950 Y51.431 E8.91214
G1 X89.925 Y51.308 E8.91640
G1 X89.925 Y48.989 E8.99518
G1 X89.948 Y48.877 E8.99905
G1 X89.925 Y48.765 E9.00293
G1 X89.925 Y46.447 E9.08171
G1 X89.948 Y46.335 E9.08559
G1 X89.925 Y46.223 E9.08947
G1 X89.925 Y43.904 E9.16825
G1 X89.948 Y43.792 E9.17212
G1 X89.925 Y43.680 E9.17600
G1 X89.925 Y39.480 E9.31873
G1 X90.022 Y39.246 E9.32732
G1 X91.132 Y38.136 E9.38064
G1 X91.365 Y38.040 E9.38923
G1 X95.024 Y38.040 E9.51354
G1 X95.147 Y38.064 E9.51779
G1 X95.846 Y38.354 E9.54352
G1 X95.950 Y38.423 E9.54778
G1 X96.691 Y39.164 E9.58336
G1 X96.761 Y39.268 E9.58762
G1 X97.050 Y39.968 E9.61335
G1 X97.075 Y40.091 E9.61760
G1 X97.075 Y42.409 E9.69638
G1 X97.052 Y42.521 E9.70026
G1 X97.075 Y42.633 E9.70414
G1 X97.075 Y44.952 E9.78292
G1 X97.052 Y45.064 E9.78679
G1 X97.075 Y45.176 E9.79067
G1 X97.075 Y47.494 E9.86945
G1 X97.052 Y47.606 E9.87333
G1 X97.075 Y47.718 E9.87721
G1 X97.075 Y51.919 E10.01994
G1 X97.014 Y52.064 E10.02529
G1 X96.342 Y51.889 F7800.000
G1 X95.605 Y52.627 F1200.000 E10.06072
G1 X95.371 Y52.723 E10.06931
G1 X92.103 Y52.723 E10.18037
G1 X91.980 Y52.699 E10.18462
G1 X91.514 Y52.506 E10.20176
G1 X91.410 Y52.436 E10.20602
G1 X90.848 Y51.874 E10.23301
G1 X90.778 Y51.770 E10.23727
G1 X90.585 Y51.304 E10.25441
G1 X90.561 Y51.181 E10.25866
G1 X90.561 Y49.116 E10.32885
G1 X90.633 Y48.877 E10.33731
G1 X90.561 Y48.639 E10.34578
G1 X90.561 Y46.573 E10.41596
G1 X90.633 Y46.335 E10.42443
G1 X90.561 Y46.097 E10.43289
G1 X90.561 Y44.031 E10.50308
G1 X90.633 Y43.792 E10.51154
G1 X90.561 Y43.554 E10.52000
G1 X90.561 Y39.743 E10.64949
G1 X90.658 Y39.509 E10.65808
G1 X91.395 Y38.772 E10.69351
G1 X91.629 Y38.675 E10.70210
G1 X94.897 Y38.675 E10.81316
G1 X95.020 Y38.700 E10.81742
G1 X95.486 Y38.893 E10.83456
G1 X95.590 Y38.962 E10.83881
G1 X96.152 Y39.524 E10.86581
G1 X96.222 Y39.628 E10.87006
G1 X96.415 Y40.094 E10.88720
G1 X96.439 Y40.217 E10.89146
G1 X96.439 Y42.283 E10.96164
G1 X96.367 Y42.521 E10.97011
G1 X96.439 Y42.760 E10.97857
G1 X96.439 Y44.825 E11.04876
G1 X96.367 Y45.064 E11.05722
G1 X96.439 Y45.302 E11.06569
G1 X96.439 Y47.368 E11.13587
G1 X96.367 Y47.606 E11.14434
G1 X96.439 Y47.845 E11.15280
G1 X96.439 Y51.656 E11.28229
G1 X96.379 Y51.801 E11.28764
G1 X95.707 Y51.626 F7800.000
G1 X95.342 Y51.991 F1200.000 E11.30518
