; generated by Slic3r 0.9.10b on 2013-10-15 at 23:30:45

; layer_height = 0.21
; perimeters = 2
; top_solid_layers = 3
; bottom_solid_layers = 3
; fill_density = 0.2
; perimeter_speed = 50
; infill_speed = 60
; travel_speed = 130
; nozzle_diameter = 0.4
; filament_diameter = 2.9
; extrusion_multiplier = 1.0088
; perimeters extrusion width = 0.64mm
; infill extrusion width = 0.64mm
; solid infill extrusion width = 0.64mm
; top infill extrusion width = 0.64mm
; support material extrusion width = 0.64mm
; first layer extrusion width = 0.70mm

G21 ; set units to millimeters
M107
M190 S60 ; wait for bed temperature to be reached
M104 S200 ; set temperature
G28 ; home all axes
G1 Z5 F5000 ; lift nozzle
M109 S200 ; wait for temperature to be reached
G90 ; use absolute coordinates
G92 E0
M82 ; use absolute distances for extrusion
G1 F1800.000 E-1.00000
G92 E0
G1 Z0.350 F7800.000
G1 X81.430 Y39.630
G1 F1800.000 E1.00000
G1 X82.050 Y38.510 F1200.000 E1.04350
G1 X82.880 Y37.540 E1.08687
G1 X83.870 Y36.740 E1.13012
G1 X85.010 Y36.150 E1.17373
G1 X86.230 Y35.790 E1.21695
G1 X87.500 Y35.660 E1.26033
G1 X92.500 Y35.660 E1.43021
G1 X93.770 Y35.790 E1.47359
G1 X94.990 Y36.150 E1.51681
G1 X96.130 Y36.740 E1.56042
G1 X97.120 Y37.540 E1.60367
G1 X97.950 Y38.510 E1.64704
G1 X98.570 Y39.630 E1.69054
G1 X98.970 Y40.840 E1.73384
G1 X99.130 Y42.110 E1.77733
G1 X101.640 Y127.600 E4.68327
G1 X101.640 Y140.390 E5.11784
G1 X101.510 Y141.680 E5.16189
G1 X101.130 Y142.930 E5.20628
G1 X100.520 Y144.080 E5.25051
G1 X99.690 Y145.080 E5.29467
G1 X98.690 Y145.910 E5.33882
G1 X97.540 Y146.520 E5.38305
G1 X96.290 Y146.900 E5.42744
G1 X95.000 Y147.030 E5.47150
G1 X85.000 Y147.030 E5.81127
G1 X83.710 Y146.900 E5.85532
G1 X82.460 Y146.520 E5.89971
G1 X81.310 Y145.910 E5.94394
G1 X80.310 Y145.080 E5.98809
G1 X79.480 Y144.080 E6.03225
G1 X78.870 Y142.930 E6.07648
G1 X78.490 Y141.680 E6.12087
G1 X78.360 Y140.390 E6.16492
G1 X78.360 Y127.600 E6.59949
G1 X80.870 Y42.110 E9.50543
G1 X81.030 Y40.840 E9.54892
G1 X81.400 Y39.721 E9.58898
G1 F1800.000 E8.58898
G92 E0
G1 X90.243 Y53.367 F7800.000
G1 F1800.000 E1.00000
G1 X90.243 Y54.635 F1440.000 E1.04306
G1 F1800.000 E0.04306
G92 E0
G1 X95.464 Y34.200 F7800.000
G1 X93.718 Y32.502
G1 X86.282 Y32.502
G1 X84.536 Y34.200
G1 X82.000 Y123.452
G1 X86.682 Y127.927
G1 F1800.000 E1.00000
G1 X86.682 Y140.073 F720.000 E1.41266
G1 X85.318 Y140.073 E1.45902
G1 X85.318 Y127.927 E1.87168
G1 X86.587 Y127.927 E1.91480
G1 X86.364 Y128.478 F7800.000
G1 F1800.000 E0.91480
G92 E0
G1 X86.500 Y128.109 F7800.000
G1 X93.500 Y128.109
G1 X93.318 Y127.927
G1 F1800.000 E1.00000
G1 X94.682 Y127.927 F720.000 E1.04636
G1 X94.682 Y140.073 E1.45902
G1 X93.318 Y140.073 E1.50538
G1 X93.318 Y128.023 E1.91480
G1 X93.868 Y128.245 F7800.000
G1 F1800.000 E0.91480
G92 E0
G1 X93.500 Y128.109 F7800.000
G1 X90.500 Y127.661
G1 F1800.000 E1.00000
G1 X92.833 Y127.649 F720.000 E1.07927
G1 F1800.000 E0.07927
G92 E0
G1 X93.500 Y128.109 F7800.000
G1 X90.500 Y127.661
G1 F1800.000 E1.00000
G1 X88.833 Y127.671 F720.000 E1.05663
G1 X88.833 Y127.671 F7800.000
G1 X88.500 Y127.675 F720.000 E1.06796
G1 X88.500 Y127.675 F7800.000
G1 X87.833 Y127.679 F720.000 E1.09062
G1 X87.833 Y127.679 F7800.000
G1 X87.500 Y127.679 F720.000 E1.10194
G1 X87.500 Y127.679 F7800.000
G1 X87.500 Y127.681 F720.000 E1.10201
G1 F1800.000 E0.10201
G92 E0
G1 X86.500 Y128.109 F7800.000
G1 X86.500 Y139.890
G1 X86.014 Y139.366
G1 F1800.000 E1.00000
G1 X85.986 Y139.337 F480.000 E1.00139
G1 X86.014 Y138.466 E1.03104
G1 X85.986 Y138.437 E1.03243
G1 X86.014 Y137.566 E1.06208
G1 X85.986 Y137.537 E1.06347
G1 X86.014 Y136.666 E1.09311
G1 X85.986 Y136.638 E1.09451
G1 X86.014 Y135.767 E1.12415
G1 X85.986 Y135.738 E1.12555
G1 X86.014 Y134.867 E1.15519
G1 X85.986 Y134.838 E1.15658
G1 X86.014 Y133.967 E1.18623
G1 X85.986 Y133.938 E1.18762
G1 X86.014 Y133.067 E1.21727
G1 X85.986 Y133.038 E1.21866
G1 X86.014 Y132.167 E1.24830
G1 X85.986 Y132.138 E1.24970
G1 X86.014 Y131.267 E1.27934
G1 X85.986 Y131.238 E1.28074
G1 X86.014 Y130.367 E1.31038
G1 X85.986 Y130.338 E1.31177
G1 X86.014 Y129.467 E1.34142
G1 X85.986 Y129.438 E1.34281
G1 F1800.000 E0.34281
G92 E0
G1 X85.500 Y128.109 F7800.000
G1 X86.500 Y128.109
G1 X93.500 Y128.109
G1 X94.500 Y139.890
G1 X94.014 Y139.267
G1 F1800.000 E1.00000
G1 X93.986 Y139.238 F480.000 E1.00139
G1 X94.014 Y138.367 E1.03100
G1 X93.986 Y138.338 E1.03239
G1 X94.014 Y137.467 E1.06200
G1 X93.986 Y137.438 E1.06340
G1 X94.014 Y136.567 E1.09301
G1 X93.986 Y136.538 E1.09440
G1 X94.014 Y135.667 E1.12401
G1 X93.986 Y135.638 E1.12540
G1 X94.014 Y134.767 E1.15501
G1 X93.986 Y134.738 E1.15640
G1 X94.014 Y133.867 E1.18601
G1 X93.986 Y133.838 E1.18740
G1 X94.014 Y132.967 E1.21701
G1 X93.986 Y132.938 E1.21840
G1 X94.014 Y132.067 E1.24801
G1 X93.986 Y132.038 E1.24941
G1 X94.014 Y131.167 E1.27902
G1 X93.986 Y131.138 E1.28041
G1 X94.014 Y130.267 E1.31002
G1 X93.986 Y130.238 E1.31141
G1 X94.014 Y129.367 E1.34102
G1 X93.986 Y129.338 E1.34241
G1 F1800.000 E0.34241
G92 E0
G1 X93.500 Y128.109 F7800.000
G1 X92.000 Y124.500
G1 X90.000 Y56.357
G1 X91.547 Y56.167
G1 F1800.000 E1.00000
G1 X91.547 Y124.047 F1200.000 E3.30634
G1 X88.453 Y124.047 E3.41144
G1 X88.453 Y56.167 E5.71777
G1 X89.041 Y56.421 E5.73953
G1 X89.352 Y56.522 E5.75062
G1 X89.674 Y56.583 E5.76176
G1 X90.000 Y56.604 E5.77284
G1 X90.326 Y56.583 E5.78396
G1 X90.648 Y56.522 E5.79508
G1 X90.958 Y56.421 E5.80618
G1 X91.459 Y56.205 E5.82471
G1 X91.065 Y55.654 F7800.000
G1 X91.255 Y55.516 F840.000 E5.83268
G1 X91.435 Y55.347 E5.84107
G1 X91.662 Y55.055 E5.85365
G1 X91.830 Y54.724 E5.86624
G1 X91.986 Y54.214 E5.88437
G1 X92.182 Y54.242 E5.89110
G1 X92.182 Y124.682 E8.28445
G1 X87.818 Y124.682 E8.43273
G1 X87.818 Y54.242 E10.82607
G1 X88.014 Y54.214 E10.83281
G1 X88.170 Y54.724 E10.85094
G1 X88.275 Y54.948 E10.85934
G1 X88.408 Y55.157 E10.86773
G1 X88.565 Y55.347 E10.87613
G1 X88.746 Y55.516 E10.88453
G1 X88.946 Y55.662 E10.89293
G1 X89.162 Y55.781 E10.90133
G1 X89.392 Y55.872 E10.90971
G1 X89.631 Y55.933 E10.91812
G1 X89.876 Y55.964 E10.92651
G1 X90.124 Y55.964 E10.93491
G1 X90.369 Y55.933 E10.94330
G1 X90.608 Y55.872 E10.95171
G1 X90.983 Y55.704 E10.96568
G1 X91.273 Y55.762 F7800.000
G1 X90.000 Y56.357
G1 X92.000 Y54.357
G1 X92.000 Y53.643
G1 X90.217 Y51.856
G1 X91.547 Y51.833
G1 X90.958 Y51.579 F720.000 E10.98745
G1 X90.648 Y51.478 E10.99854
G1 X90.326 Y51.417 E11.00967
G1 X90.000 Y51.396 E11.02078
G1 X89.674 Y51.417 E11.03187
G1 X89.352 Y51.478 E11.04301
G1 X89.041 Y51.579 E11.05410
G1 X88.453 Y51.833 E11.07586
G1 X88.453 Y43.251 E11.36743
G1 X91.547 Y43.251 E11.47252
G1 X91.547 Y51.738 E11.76086
G1 X91.157 Y52.408 F7800.000
G1 X90.948 Y52.276 F720.000 E11.76925
G1 X90.724 Y52.170 E11.77766
G1 X90.489 Y52.094 E11.78605
G1 X90.247 Y52.048 E11.79445
G1 X90.000 Y52.032 E11.80285
G1 X89.753 Y52.048 E11.81124
G1 X89.510 Y52.094 E11.81964
G1 X89.276 Y52.170 E11.82804
G1 X89.052 Y52.276 E11.83644
G1 X88.843 Y52.408 E11.84483
G1 X88.565 Y52.653 E11.85742
G1 X88.346 Y52.935 E11.86956
G1 X88.219 Y53.162 E11.87840
G1 X88.128 Y53.392 E11.88679
G1 X88.014 Y53.786 E11.90073
G1 X87.818 Y53.758 E11.90746
G1 X87.818 Y42.616 E12.28604
G1 X92.182 Y42.616 E12.43433
G1 X92.182 Y53.758 E12.81291
G1 X91.986 Y53.786 E12.81964
G1 X91.872 Y53.392 E12.83358
G1 X91.725 Y53.052 E12.84616
G1 X91.516 Y52.746 E12.85874
G1 X91.232 Y52.466 E12.87229
G1 X91.183 Y52.162 F7800.000
G1 X90.217 Y51.856
G1 X92.000 Y53.643
G1 X92.000 Y54.357
G1 X91.703 Y54.498
G1 X91.684 Y54.439 F720.000 E12.87440
G1 X91.684 Y54.439 F7800.000
G1 X91.876 Y54.000 F720.000 E12.89067
G1 X91.713 Y53.493 E12.90876
G1 X92.000 Y53.643 F7800.000
G1 X90.217 Y51.856
G1 X89.799 Y51.844
G1 X88.000 Y53.643
G1 X88.298 Y53.503
G1 X88.193 Y53.784 F720.000 E12.91896
G1 X88.193 Y53.784 F7800.000
G1 X88.203 Y54.242 F720.000 E12.93450
G1 X88.000 Y54.357 F7800.000
G1 X90.000 Y56.357
G1 X90.902 Y56.959
G1 X91.086 Y57.142 F1440.000 E12.94332
G1 X91.086 Y58.042 E12.97389
G1 X90.102 Y57.059 E13.02115
G1 X89.103 Y56.960 E13.05526
G1 X91.086 Y58.942 E13.15052
G1 X91.086 Y59.842 E13.18110
G1 X88.914 Y57.670 E13.28545
G1 X88.914 Y58.570 E13.31603
G1 X91.086 Y60.742 E13.42038
G1 X91.086 Y61.642 E13.45096
G1 X88.914 Y59.470 E13.55531
G1 X88.914 Y60.370 E13.58589
G1 X91.086 Y62.542 E13.69024
G1 X91.086 Y63.442 E13.72082
G1 X88.914 Y61.270 E13.82517
G1 X88.914 Y62.170 E13.85575
G1 X91.086 Y64.342 E13.96010
G1 X91.086 Y65.242 E13.99068
G1 X88.914 Y63.070 E14.09503
G1 X88.914 Y63.970 E14.12561
G1 X91.086 Y66.142 E14.22996
G1 X91.086 Y67.042 E14.26054
G1 X88.914 Y64.870 E14.36490
G1 X88.914 Y65.770 E14.39547
G1 X91.086 Y67.942 E14.49983
G1 X91.086 Y68.842 E14.53040
G1 X88.914 Y66.670 E14.63476
G1 X88.914 Y67.570 E14.66534
G1 X91.086 Y69.741 E14.76969
G1 X91.086 Y70.641 E14.80027
G1 X88.914 Y68.470 E14.90462
G1 X88.914 Y69.370 E14.93520
G1 X91.086 Y71.541 E15.03955
G1 X91.086 Y72.441 E15.07013
G1 X88.914 Y70.270 E15.17448
G1 X88.914 Y71.170 E15.20506
G1 X91.086 Y73.341 E15.30941
G1 X91.086 Y74.241 E15.33999
G1 X88.914 Y72.070 E15.44434
G1 X88.914 Y72.969 E15.47492
G1 X91.086 Y75.141 E15.57927
G1 X91.086 Y76.041 E15.60985
G1 X88.914 Y73.869 E15.71421
G1 X88.914 Y74.769 E15.74478
G1 X91.086 Y76.941 E15.84914
G1 X91.086 Y77.841 E15.87971
G1 X88.914 Y75.669 E15.98407
G1 X88.914 Y76.569 E16.01464
G1 X91.086 Y78.741 E16.11900
G1 X91.086 Y79.641 E16.14958
G1 X88.914 Y77.469 E16.25393
G1 X88.914 Y78.369 E16.28451
G1 X91.086 Y80.541 E16.38886
G1 X91.086 Y81.441 E16.41944
G1 X88.914 Y79.269 E16.52379
G1 X88.914 Y80.169 E16.55437
G1 X91.086 Y82.341 E16.65872
G1 X91.086 Y83.241 E16.68930
G1 X88.914 Y81.069 E16.79365
G1 X88.914 Y81.969 E16.82423
G1 X91.086 Y84.141 E16.92858
G1 X91.086 Y85.041 E16.95916
G1 X88.914 Y82.869 E17.06351
G1 X88.914 Y83.769 E17.09409
G1 X91.086 Y85.941 E17.19845
G1 X91.086 Y86.841 E17.22902
G1 X88.914 Y84.669 E17.33338
G1 X88.914 Y85.569 E17.36395
G1 X91.086 Y87.741 E17.46831
G1 X91.086 Y88.641 E17.49889
G1 X88.914 Y86.469 E17.60324
G1 X88.914 Y87.369 E17.63382
G1 X91.086 Y89.540 E17.73817
G1 X91.086 Y90.440 E17.76875
G1 X88.914 Y88.269 E17.87310
G1 X88.914 Y89.169 E17.90368
G1 X91.086 Y91.340 E18.00803
G1 X91.086 Y92.240 E18.03861
G1 X88.914 Y90.069 E18.14296
G1 X88.914 Y90.969 E18.17354
G1 X91.086 Y93.140 E18.27789
G1 X91.086 Y94.040 E18.30847
G1 X88.914 Y91.869 E18.41282
G1 X88.914 Y92.768 E18.44340
G1 X91.086 Y94.940 E18.54776
G1 X91.086 Y95.840 E18.57833
G1 X88.914 Y93.668 E18.68269
G1 X88.914 Y94.568 E18.71326
G1 X91.086 Y96.740 E18.81762
G1 X91.086 Y97.640 E18.84819
G1 X88.914 Y95.468 E18.95255
G1 X88.914 Y96.368 E18.98313
G1 X91.086 Y98.540 E19.08748
G1 X91.086 Y99.440 E19.11806
G1 X88.914 Y97.268 E19.22241
G1 X88.914 Y98.168 E19.25299
G1 X91.086 Y100.340 E19.35734
G1 X91.086 Y101.240 E19.38792
G1 X88.914 Y99.068 E19.49227
G1 X88.914 Y99.968 E19.52285
G1 X91.086 Y102.140 E19.62720
G1 X91.086 Y103.040 E19.65778
G1 X88.914 Y100.868 E19.76213
G1 X88.914 Y101.768 E19.79271
G1 X91.086 Y103.940 E19.89706
G1 X91.086 Y104.840 E19.92764
G1 X88.914 Y102.668 E20.03200
G1 X88.914 Y103.568 E20.06257
G1 X91.086 Y105.740 E20.16693
G1 X91.086 Y106.640 E20.19750
G1 X88.914 Y104.468 E20.30186
G1 X88.914 Y105.368 E20.33244
G1 X91.086 Y107.540 E20.43679
G1 X91.086 Y108.440 E20.46737
G1 X88.914 Y106.268 E20.57172
G1 X88.914 Y107.168 E20.60230
G1 X91.086 Y109.339 E20.70665
G1 X91.086 Y110.239 E20.73723
G1 X88.914 Y108.068 E20.84158
G1 X88.914 Y108.968 E20.87216
G1 X91.086 Y111.139 E20.97651
G1 X91.086 Y112.039 E21.00709
G1 X88.914 Y109.868 E21.11144
G1 X88.914 Y110.768 E21.14202
G1 X91.086 Y112.939 E21.24637
G1 X91.086 Y113.839 E21.27695
G1 X88.914 Y111.668 E21.38131
G1 X88.914 Y112.567 E21.41188
G1 X91.086 Y114.739 E21.51624
G1 X91.086 Y115.639 E21.54681
G1 X88.914 Y113.467 E21.65117
G1 X88.914 Y114.367 E21.68174
G1 X91.086 Y116.539 E21.78610
G1 X91.086 Y117.439 E21.81668
G1 X88.914 Y115.267 E21.92103
G1 X88.914 Y116.167 E21.95161
G1 X91.086 Y118.339 E22.05596
G1 X91.086 Y119.239 E22.08654
G1 X88.914 Y117.067 E22.19089
G1 X88.914 Y117.967 E22.22147
G1 X91.086 Y120.139 E22.32582
G1 X91.086 Y121.039 E22.35640
G1 X88.914 Y118.867 E22.46075
G1 X88.914 Y119.767 E22.49133
G1 X91.086 Y121.939 E22.59568
G1 X91.086 Y122.839 E22.62626
G1 X88.914 Y120.667 E22.73061
G1 X88.914 Y121.567 E22.76119
G1 X90.933 Y123.586 E22.85820
G1 X90.033 Y123.586 E22.88878
G1 X88.914 Y122.467 E22.94254
G1 X88.914 Y123.367 E22.97312
G1 X89.133 Y123.586 E22.98364
G1 X88.000 Y124.500 F7800.000
G1 X88.000 Y54.357
G1 X88.000 Y53.643
G1 X89.799 Y51.844
G1 X89.432 Y50.988
G1 X88.914 Y50.471 F1440.000 E23.00852
G1 X88.914 Y49.571 E23.03910
G1 X90.297 Y50.954 E23.10555
G1 X91.086 Y50.842 E23.13261
G1 X88.914 Y48.671 E23.23697
G1 X88.914 Y47.771 E23.26754
G1 X91.086 Y49.942 E23.37190
G1 X91.086 Y49.043 E23.40247
G1 X88.914 Y46.871 E23.50683
G1 X88.914 Y45.971 E23.53741
G1 X91.086 Y48.143 E23.64176
G1 X91.086 Y47.243 E23.67234
G1 X88.914 Y45.071 E23.77669
G1 X88.914 Y44.171 E23.80727
G1 X91.086 Y46.343 E23.91162
G1 X91.086 Y45.443 E23.94220
G1 X89.355 Y43.712 E24.02536
G1 X90.255 Y43.712 E24.05593
G1 X91.086 Y44.543 E24.09585
M106 S650
G1 F1800.000 E23.09585
G92 E0
G1 Z0.560 F7800.000
G1 X92.000 Y41.765
G1 X92.000 Y53.643
G1 X92.000 Y54.357
G1 X88.000 Y124.500
G1 X86.500 Y127.756
G1 X86.701 Y127.555
G1 F1800.000 E1.00000
G1 X86.701 Y140.445 F1018.826 E1.24740
G1 X85.299 Y140.445 E1.27430
G1 X85.299 Y127.555 E1.52170
G1 X86.611 Y127.555 E1.54688
G1 X86.402 Y128.073 F7800.000
G1 F1800.000 E0.54688
G92 E0
G1 X86.500 Y127.756 F7800.000
G1 X93.500 Y127.756
G1 X93.299 Y127.555
G1 F1800.000 E1.00000
G1 X94.701 Y127.555 F1018.826 E1.02690
G1 X94.701 Y140.445 E1.27430
G1 X93.299 Y140.445 E1.30120
G1 X93.299 Y127.645 E1.54688
G1 X93.817 Y127.854 F7800.000
G1 F1800.000 E0.54688
G92 E0
G1 X93.500 Y127.756 F7800.000
G1 X86.500 Y127.756
G1 X87.474 Y127.432
G1 F1800.000 E1.00000
G1 X92.842 Y127.351 F1018.826 E1.10304
G1 X93.920 Y128.575 F7800.000
G1 X94.080 Y128.415 F679.217 E1.10739
G1 X93.920 Y129.425 F7800.000
G1 X94.080 Y129.265 F679.217 E1.11173
G1 X93.920 Y130.275 F7800.000
G1 X94.080 Y130.115 F679.217 E1.11607
G1 X93.920 Y131.125 F7800.000
G1 X94.080 Y130.965 F679.217 E1.12041
G1 X93.920 Y131.975 F7800.000
G1 X94.080 Y131.815 F679.217 E1.12475
G1 X93.920 Y132.824 F7800.000
G1 X94.080 Y132.665 F679.217 E1.12909
G1 X93.920 Y133.674 F7800.000
G1 X94.080 Y133.515 F679.217 E1.13343
G1 X93.920 Y134.524 F7800.000
G1 X94.080 Y134.364 F679.217 E1.13777
G1 X93.920 Y135.374 F7800.000
G1 X94.080 Y135.214 F679.217 E1.14211
G1 X93.920 Y136.224 F7800.000
G1 X94.080 Y136.064 F679.217 E1.14646
G1 X93.920 Y137.074 F7800.000
G1 X94.080 Y136.914 F679.217 E1.15080
G1 X93.920 Y137.924 F7800.000
G1 X94.080 Y137.764 F679.217 E1.15514
G1 X93.920 Y138.774 F7800.000
G1 X94.080 Y138.614 F679.217 E1.15948
G1 X94.080 Y139.464 F7800.000
G1 X93.920 Y139.624 F679.217 E1.16382
G1 F1800.000 E0.16382
G92 E0
G1 X93.500 Y140.244 F7800.000
G1 X86.500 Y140.244
G1 X86.080 Y139.815
G1 F1800.000 E1.00000
G1 X86.070 Y139.824 F679.217 E1.00027
G1 X85.920 Y139.125 E1.01407
G1 X86.080 Y138.965 E1.01843
G1 X85.920 Y138.275 E1.03208
G1 X86.080 Y138.115 E1.03644
G1 X85.920 Y137.425 E1.05009
G1 X86.080 Y137.265 E1.05445
G1 X85.920 Y136.575 E1.06811
G1 X86.080 Y136.415 E1.07247
G1 X85.920 Y135.725 E1.08612
G1 X86.080 Y135.565 E1.09048
G1 X85.920 Y134.875 E1.10413
G1 X86.080 Y134.715 E1.10849
G1 X85.920 Y134.025 E1.12215
G1 X86.080 Y133.865 E1.12651
G1 X85.920 Y133.175 E1.14016
G1 X86.080 Y133.015 E1.14452
G1 X85.920 Y132.325 E1.15817
G1 X86.080 Y132.165 E1.16253
G1 X85.920 Y131.475 E1.17619
G1 X86.080 Y131.315 E1.18055
G1 X85.920 Y130.625 E1.19420
G1 X86.080 Y130.465 E1.19856
G1 X85.920 Y129.775 E1.21222
G1 X86.080 Y129.615 E1.21658
G1 X85.920 Y128.925 E1.23023
G1 X86.080 Y128.765 E1.23459
G1 F1800.000 E0.23459
G92 E0
G1 X86.500 Y127.756 F7800.000
G1 X88.000 Y124.500
G1 X92.000 Y124.500
G1 X91.602 Y124.102
G1 F1800.000 E1.00000
G1 X88.398 Y124.102 F1698.044 E1.06151
G1 X88.398 Y56.042 E2.36776
G1 X88.915 Y56.306 E2.37891
G1 X89.212 Y56.423 E2.38504
G1 X89.523 Y56.503 E2.39119
G1 X90.000 Y56.548 E2.40039
G1 X90.477 Y56.503 E2.40959
