; generated by Slic3r 0.9.10b on 2013-10-15 at 21:49:06

; layer_height = 0.21
; perimeters = 2
; top_solid_layers = 3
; bottom_solid_layers = 3
; fill_density = 0.2
; perimeter_speed = 50
; infill_speed = 60
; travel_speed = 130
; nozzle_diameter = 0.4
; filament_diameter = 2.9
; extrusion_multiplier = 1.0088
; perimeters extrusion width = 0.64mm
; infill extrusion width = 0.64mm
; solid infill extrusion width = 0.64mm
; top infill extrusion width = 0.64mm
; support material extrusion width = 0.64mm
; first layer extrusion width = 0.70mm

G21 ; set units to millimeters
M107
M190 S60 ; wait for bed temperature to be reached
M104 S200 ; set temperature
G28 ; home all axes
G1 Z5 F5000 ; lift nozzle
M109 S200 ; wait for temperature to be reached
G90 ; use absolute coordinates
G92 E0
M82 ; use absolute distances for extrusion
G1 F1800.000 E-1.00000
G92 E0
G1 Z0.350 F7800.000
G1 X50.910 Y79.480
G1 F1800.000 E1.00000
G1 X52.060 Y78.870 F1200.000 E1.04423
G1 X53.310 Y78.490 E1.08862
G1 X54.600 Y78.360 E1.13267
G1 X67.390 Y78.360 E1.56724
G1 X123.000 Y80.870 E3.45862
G1 X124.250 Y81.050 E3.50153
G1 X125.450 Y81.460 E3.54462
G1 X126.540 Y82.090 E3.58739
G1 X127.500 Y82.920 E3.63051
G1 X128.280 Y83.910 E3.67333
G1 X128.860 Y85.030 E3.71619
G1 X129.220 Y86.240 E3.75908
G1 X129.340 Y87.500 E3.80209
G1 X129.340 Y92.500 E3.97197
G1 X129.220 Y93.760 E4.01497
G1 X128.860 Y94.970 E4.05787
G1 X128.280 Y96.090 E4.10072
G1 X127.500 Y97.080 E4.14354
G1 X126.540 Y97.910 E4.18666
G1 X125.450 Y98.540 E4.22944
G1 X124.250 Y98.950 E4.27253
G1 X123.000 Y99.130 E4.31544
G1 X67.690 Y101.630 E6.19662
G1 X54.600 Y101.640 E6.64138
G1 X53.310 Y101.510 E6.68543
G1 X52.060 Y101.130 E6.72982
G1 X50.910 Y100.520 E6.77405
G1 X49.910 Y99.690 E6.81821
G1 X49.080 Y98.690 E6.86236
G1 X48.470 Y97.540 E6.90659
G1 X48.090 Y96.290 E6.95098
G1 X47.960 Y95.000 E6.99503
G1 X47.960 Y85.000 E7.33480
G1 X48.090 Y83.710 E7.37886
G1 X48.470 Y82.460 E7.42325
G1 X49.080 Y81.310 E7.46748
G1 X49.910 Y80.310 E7.51163
G1 X50.837 Y79.541 E7.55255
G1 F1800.000 E6.55255
G92 E0
G1 X111.373 Y89.434 F7800.000
G1 F1800.000 E1.00000
G1 X111.373 Y90.570 F1440.000 E1.03862
G1 F1800.000 E0.03862
G92 E0
G1 X130.831 Y95.445 F7800.000
G1 X71.573 Y98.000
G1 X67.073 Y93.318
G1 F1800.000 E1.00000
G1 X67.073 Y94.682 F720.000 E1.04636
G1 X54.927 Y94.682 E1.45902
G1 X54.927 Y93.318 E1.50538
G1 X66.977 Y93.318 E1.91480
G1 X66.755 Y93.868 F7800.000
G1 F1800.000 E0.91480
G92 E0
G1 X66.891 Y93.500 F7800.000
G1 X66.891 Y86.500
G1 X67.073 Y86.682
G1 F1800.000 E1.00000
G1 X54.927 Y86.682 F720.000 E1.41266
G1 X54.927 Y85.318 E1.45902
G1 X67.073 Y85.318 E1.87168
G1 X67.073 Y86.587 E1.91480
G1 X66.522 Y86.364 F7800.000
G1 F1800.000 E0.91480
G92 E0
G1 X66.891 Y86.500 F7800.000
G1 X67.366 Y89.166
G1 F1800.000 E1.00000
G1 X67.388 Y92.500 F720.000 E1.11327
G1 F1800.000 E0.11327
G92 E0
G1 X66.891 Y93.500 F7800.000
G1 X66.891 Y86.500
G1 X67.366 Y89.166
G1 F1800.000 E1.00000
G1 X67.362 Y88.500 F720.000 E1.02265
G1 X67.362 Y88.500 F7800.000
G1 X67.358 Y87.500 F720.000 E1.05662
G1 X67.358 Y87.500 F7800.000
G1 X67.356 Y87.500 F720.000 E1.05669
G1 X67.356 Y87.500 F7800.000
G1 X67.356 Y87.167 F720.000 E1.06800
G1 F1800.000 E0.06800
G92 E0
G1 X66.891 Y86.500 F7800.000
G1 X66.891 Y93.500
G1 X55.110 Y94.500
G1 X56.161 Y94.014
G1 F1800.000 E1.00000
G1 X56.132 Y93.986 F480.000 E1.00139
G1 X57.031 Y93.986 E1.03194
G1 X57.060 Y94.014 E1.03333
G1 X57.930 Y93.986 E1.06292
G1 X57.959 Y94.014 E1.06431
G1 X58.829 Y93.986 E1.09389
G1 X58.858 Y94.014 E1.09529
G1 X59.728 Y93.986 E1.12487
G1 X59.757 Y94.014 E1.12626
G1 X60.627 Y93.986 E1.15584
G1 X60.656 Y94.014 E1.15724
G1 X61.526 Y93.986 E1.18682
G1 X61.555 Y94.014 E1.18821
G1 X62.425 Y93.986 E1.21779
G1 X62.454 Y94.014 E1.21919
G1 X63.324 Y93.986 E1.24877
G1 X63.353 Y94.014 E1.25016
G1 X64.223 Y93.986 E1.27974
G1 X64.252 Y94.014 E1.28114
G1 X65.122 Y93.986 E1.31072
G1 X65.151 Y94.014 E1.31211
G1 X66.021 Y93.986 E1.34169
G1 X66.050 Y94.014 E1.34309
G1 F1800.000 E0.34309
G92 E0
G1 X66.891 Y94.500 F7800.000
G1 X55.110 Y93.500
G1 X55.110 Y86.500
G1 X56.252 Y86.014
G1 F1800.000 E1.00000
G1 X56.223 Y85.986 F480.000 E1.00139
G1 X57.122 Y85.986 E1.03194
G1 X57.151 Y86.014 E1.03333
G1 X58.021 Y85.986 E1.06291
G1 X58.050 Y86.014 E1.06430
G1 X58.920 Y85.986 E1.09388
G1 X58.949 Y86.014 E1.09527
G1 X59.819 Y85.986 E1.12485
G1 X59.848 Y86.014 E1.12624
G1 X60.718 Y85.986 E1.15582
G1 X60.747 Y86.014 E1.15721
G1 X61.617 Y85.986 E1.18679
G1 X61.646 Y86.014 E1.18818
G1 X62.516 Y85.986 E1.21776
G1 X62.545 Y86.014 E1.21915
G1 X63.415 Y85.986 E1.24873
G1 X63.444 Y86.014 E1.25012
G1 X64.314 Y85.986 E1.27970
G1 X64.343 Y86.014 E1.28109
G1 X65.214 Y85.986 E1.31067
G1 X65.242 Y86.014 E1.31206
G1 X66.113 Y85.986 E1.34164
G1 X66.142 Y86.014 E1.34304
G1 F1800.000 E0.34304
G92 E0
G1 X66.891 Y86.500 F7800.000
G1 X70.500 Y88.000
G1 X70.500 Y92.000
G1 X70.953 Y91.547
G1 F1800.000 E1.00000
G1 X70.953 Y88.453 F1200.000 E1.10510
G1 X108.833 Y88.453 E2.39213
G1 X108.579 Y89.041 E2.41390
G1 X108.478 Y89.352 E2.42499
G1 X108.417 Y89.674 E2.43614
G1 X108.396 Y90.000 E2.44722
G1 X108.417 Y90.326 E2.45833
G1 X108.478 Y90.648 E2.46946
G1 X108.579 Y90.958 E2.48056
G1 X108.833 Y91.547 E2.50233
G1 X71.049 Y91.547 E3.78612
G1 X70.318 Y92.182 F7800.000
G1 X70.318 Y87.818 F840.000 E3.93441
G1 X110.758 Y87.818 E5.30844
G1 X110.786 Y88.014 E5.31517
G1 X110.392 Y88.128 E5.32911
G1 X110.052 Y88.275 E5.34169
G1 X109.833 Y88.416 E5.35053
G1 X109.565 Y88.653 E5.36268
G1 X109.338 Y88.946 E5.37526
G1 X109.170 Y89.276 E5.38785
G1 X109.067 Y89.631 E5.40044
G1 X109.032 Y90.000 E5.41301
G1 X109.067 Y90.369 E5.42560
G1 X109.170 Y90.724 E5.43819
G1 X109.276 Y90.948 E5.44659
G1 X109.484 Y91.254 E5.45917
G1 X109.746 Y91.516 E5.47176
G1 X110.052 Y91.725 E5.48434
G1 X110.392 Y91.872 E5.49693
G1 X110.786 Y91.986 E5.51086
G1 X110.758 Y92.182 E5.51760
G1 X70.413 Y92.182 E6.88839
G1 X70.636 Y91.632 F7800.000
G1 X70.500 Y92.000
G1 X110.643 Y88.000
G1 X111.360 Y88.000
G1 X122.202 Y88.000
G1 X121.749 Y88.453
G1 X121.749 Y91.547 F720.000 E6.99348
G1 X113.167 Y91.547 E7.28506
G1 X113.421 Y90.958 E7.30683
G1 X113.522 Y90.648 E7.31792
G1 X113.583 Y90.326 E7.32906
G1 X113.604 Y90.000 E7.34017
G1 X113.583 Y89.674 E7.35125
G1 X113.522 Y89.352 E7.36240
G1 X113.421 Y89.041 E7.37349
G1 X113.167 Y88.453 E7.39526
G1 X121.653 Y88.453 E7.68360
G1 X122.384 Y87.818 F7800.000
G1 X122.384 Y92.182 F720.000 E7.83189
G1 X111.242 Y92.182 E8.21046
G1 X111.214 Y91.986 E8.21720
G1 X111.608 Y91.872 E8.23113
G1 X111.948 Y91.725 E8.24372
G1 X112.255 Y91.516 E8.25631
G1 X112.516 Y91.254 E8.26889
G1 X112.724 Y90.948 E8.28147
G1 X112.830 Y90.724 E8.28987
G1 X112.933 Y90.369 E8.30246
G1 X112.968 Y90.000 E8.31505
G1 X112.933 Y89.631 E8.32762
G1 X112.834 Y89.288 E8.33977
G1 X112.725 Y89.052 E8.34861
G1 X112.516 Y88.746 E8.36120
G1 X112.254 Y88.484 E8.37378
G1 X111.948 Y88.275 E8.38637
G1 X111.608 Y88.128 E8.39895
G1 X111.214 Y88.014 E8.41289
G1 X111.242 Y87.818 E8.41962
G1 X122.289 Y87.818 E8.79496
G1 X122.066 Y88.368 F7800.000
G1 X110.493 Y88.288
G1 X110.573 Y88.315 F720.000 E8.79783
G1 X110.573 Y88.315 F7800.000
G1 X110.780 Y88.189 F720.000 E8.80605
G1 X110.780 Y88.189 F7800.000
G1 X111.015 Y88.137 F720.000 E8.81422
G1 X111.015 Y88.137 F7800.000
G1 X111.219 Y88.200 F720.000 E8.82149
G1 X111.219 Y88.200 F7800.000
G1 X111.497 Y88.298 F720.000 E8.83149
G1 X111.360 Y88.000 F7800.000
G1 X113.357 Y90.000
G1 X111.357 Y92.000
G1 X111.241 Y91.798
G1 X111.001 Y91.877 F720.000 E8.84007
G1 X110.561 Y91.685 E8.85637
G1 X110.561 Y91.685 F7800.000
G1 X110.503 Y91.703 F720.000 E8.85846
G1 X110.643 Y92.000 F7800.000
G1 X111.357 Y92.000
G1 X113.357 Y90.000
G1 X114.367 Y91.086
G1 X113.989 Y90.709 F1440.000 E8.87659
G1 X114.057 Y89.878 E8.90492
G1 X115.266 Y91.086 E8.96298
G1 X116.165 Y91.086 E8.99353
G1 X113.993 Y88.914 E9.09788
G1 X114.892 Y88.914 E9.12843
G1 X117.064 Y91.086 E9.23278
G1 X117.963 Y91.086 E9.26333
G1 X115.791 Y88.914 E9.36768
G1 X116.690 Y88.914 E9.39823
G1 X118.862 Y91.086 E9.50258
G1 X119.761 Y91.086 E9.53313
G1 X117.589 Y88.914 E9.63748
G1 X118.488 Y88.914 E9.66803
G1 X120.660 Y91.086 E9.77238
G1 X121.288 Y90.815 E9.79562
G1 X119.387 Y88.914 E9.88695
G1 X120.286 Y88.914 E9.91750
G1 X121.288 Y89.916 E9.96563
G1 X121.288 Y89.017 E9.99618
G1 X121.185 Y88.914 E10.00111
G1 X122.202 Y88.000 F7800.000
G1 X111.360 Y88.000
G1 X110.643 Y88.000
G1 X108.643 Y90.000
G1 X107.700 Y88.914
G1 X108.020 Y89.234 F1440.000 E10.01649
G1 X107.938 Y90.052 E10.04440
G1 X106.801 Y88.914 E10.09906
G1 X105.902 Y88.914 E10.12961
G1 X108.070 Y91.082 E10.23379
G1 X107.174 Y91.086 E10.26421
G1 X105.003 Y88.914 E10.36857
G1 X104.104 Y88.914 E10.39911
G1 X106.275 Y91.086 E10.50347
G1 X105.376 Y91.086 E10.53401
G1 X103.205 Y88.914 E10.63837
G1 X102.306 Y88.914 E10.66891
G1 X104.477 Y91.086 E10.77327
G1 X103.578 Y91.086 E10.80381
G1 X101.406 Y88.914 E10.90817
G1 X100.507 Y88.914 E10.93871
G1 X102.679 Y91.086 E11.04307
G1 X101.780 Y91.086 E11.07361
G1 X99.608 Y88.914 E11.17797
G1 X98.709 Y88.914 E11.20851
G1 X100.881 Y91.086 E11.31287
G1 X99.982 Y91.086 E11.34341
G1 X97.810 Y88.914 E11.44777
G1 X96.911 Y88.914 E11.47831
G1 X99.083 Y91.086 E11.58267
G1 X98.184 Y91.086 E11.61321
G1 X96.012 Y88.914 E11.71757
G1 X95.113 Y88.914 E11.74811
G1 X97.285 Y91.086 E11.85247
G1 X96.386 Y91.086 E11.88301
G1 X94.214 Y88.914 E11.98736
G1 X93.315 Y88.914 E12.01791
G1 X95.487 Y91.086 E12.12226
G1 X94.588 Y91.086 E12.15281
G1 X92.416 Y88.914 E12.25716
G1 X91.517 Y88.914 E12.28771
G1 X93.689 Y91.086 E12.39206
G1 X92.790 Y91.086 E12.42261
G1 X90.618 Y88.914 E12.52696
G1 X89.719 Y88.914 E12.55751
G1 X91.891 Y91.086 E12.66186
G1 X90.992 Y91.086 E12.69241
G1 X88.820 Y88.914 E12.79676
G1 X87.921 Y88.914 E12.82731
G1 X90.093 Y91.086 E12.93166
G1 X89.194 Y91.086 E12.96221
G1 X87.022 Y88.914 E13.06656
G1 X86.123 Y88.914 E13.09711
G1 X88.295 Y91.086 E13.20146
G1 X87.396 Y91.086 E13.23201
G1 X85.224 Y88.914 E13.33636
G1 X84.325 Y88.914 E13.36691
G1 X86.497 Y91.086 E13.47126
G1 X85.597 Y91.086 E13.50181
G1 X83.426 Y88.914 E13.60616
G1 X82.527 Y88.914 E13.63671
G1 X84.698 Y91.086 E13.74106
G1 X83.799 Y91.086 E13.77161
G1 X81.628 Y88.914 E13.87596
G1 X80.729 Y88.914 E13.90651
G1 X82.900 Y91.086 E14.01086
G1 X82.001 Y91.086 E14.04141
G1 X79.830 Y88.914 E14.14576
G1 X78.931 Y88.914 E14.17631
G1 X81.102 Y91.086 E14.28066
G1 X80.203 Y91.086 E14.31121
G1 X78.032 Y88.914 E14.41556
G1 X77.132 Y88.914 E14.44611
G1 X79.304 Y91.086 E14.55046
G1 X78.405 Y91.086 E14.58101
G1 X76.233 Y88.914 E14.68536
G1 X75.334 Y88.914 E14.71591
G1 X77.506 Y91.086 E14.82026
G1 X76.607 Y91.086 E14.85081
G1 X74.435 Y88.914 E14.95516
G1 X73.536 Y88.914 E14.98571
G1 X75.708 Y91.086 E15.09006
G1 X74.809 Y91.086 E15.12061
G1 X72.637 Y88.914 E15.22496
G1 X71.738 Y88.914 E15.25551
G1 X73.910 Y91.086 E15.35986
G1 X73.011 Y91.086 E15.39041
G1 X71.414 Y89.489 E15.46714
G1 X71.414 Y90.388 E15.49768
G1 X72.112 Y91.086 E15.53121
M106 S650
G1 F1800.000 E14.53121
G92 E0
G1 Z0.560 F7800.000
G1 X70.500 Y92.000
G1 X110.643 Y92.000
G1 X110.673 Y90.142
G1 F1800.000 E1.00000
G1 X111.327 Y90.142 F1455.368 E1.01255
G1 F1800.000 E0.01255
G92 E0
G1 X111.357 Y92.000 F7800.000
G1 X110.643 Y92.000
G1 X70.500 Y92.000
G1 X67.244 Y93.500
G1 X67.445 Y93.299
G1 F1800.000 E1.00000
G1 X67.445 Y94.701 F727.684 E1.02690
G1 X54.555 Y94.701 E1.27430
G1 X54.555 Y93.299 E1.30120
G1 X67.355 Y93.299 E1.54688
G1 X67.146 Y93.817 F7800.000
G1 F1800.000 E0.54688
G92 E0
G1 X67.244 Y93.500 F7800.000
G1 X67.244 Y86.500
G1 X67.445 Y86.701
G1 F1800.000 E1.00000
G1 X54.555 Y86.701 F727.684 E1.24740
G1 X54.555 Y85.299 E1.27430
G1 X67.445 Y85.299 E1.52170
G1 X67.445 Y86.611 E1.54688
G1 X66.927 Y86.402 F7800.000
G1 F1800.000 E0.54688
G92 E0
G1 X67.244 Y86.500 F7800.000
G1 X67.244 Y93.500
G1 X67.735 Y92.526
G1 F1800.000 E1.00000
G1 X67.740 Y92.526 F727.684 E1.00009
G1 X67.735 Y92.526 F7800.000
G1 X67.659 Y87.158 F727.684 E1.10313
G1 X66.589 Y85.920 F7800.000
G1 X66.429 Y86.080 F600.000 E1.10747
G1 X65.738 Y85.920 F7800.000
G1 X65.578 Y86.080 F600.000 E1.11181
G1 X64.888 Y85.920 F7800.000
G1 X64.728 Y86.080 F600.000 E1.11615
G1 X64.037 Y85.920 F7800.000
G1 X63.877 Y86.080 F600.000 E1.12050
G1 X63.187 Y85.920 F7800.000
G1 X63.027 Y86.080 F600.000 E1.12484
G1 X62.336 Y85.920 F7800.000
G1 X62.177 Y86.080 F600.000 E1.12918
G1 X61.486 Y85.920 F7800.000
G1 X61.326 Y86.080 F600.000 E1.13352
G1 X60.636 Y85.920 F7800.000
G1 X60.476 Y86.080 F600.000 E1.13786
G1 X59.785 Y85.920 F7800.000
G1 X59.625 Y86.080 F600.000 E1.14220
G1 X58.935 Y85.920 F7800.000
G1 X58.775 Y86.080 F600.000 E1.14654
G1 X58.084 Y85.920 F7800.000
G1 X57.924 Y86.080 F600.000 E1.15088
G1 X57.234 Y85.920 F7800.000
G1 X57.074 Y86.080 F600.000 E1.15522
G1 X56.383 Y85.920 F7800.000
G1 X56.223 Y86.080 F600.000 E1.15957
G1 X55.533 Y85.920 F7800.000
G1 X55.373 Y86.080 F600.000 E1.16391
G1 F1800.000 E0.16391
G92 E0
G1 X54.756 Y86.500 F7800.000
G1 X67.244 Y86.500
G1 X67.244 Y93.500
G1 X66.243 Y93.920
G1 F1800.000 E1.00000
G1 X66.083 Y94.080 F600.000 E1.00436
G1 X65.392 Y93.920 E1.01803
G1 X65.232 Y94.080 E1.02240
G1 X64.542 Y93.920 E1.03607
G1 X64.382 Y94.080 E1.04043
G1 X63.691 Y93.920 E1.05410
G1 X63.531 Y94.080 E1.05846
G1 X62.841 Y93.920 E1.07213
G1 X62.681 Y94.080 E1.07649
G1 X61.990 Y93.920 E1.09016
G1 X61.830 Y94.080 E1.09453
G1 X61.140 Y93.920 E1.10820
G1 X60.980 Y94.080 E1.11256
G1 X60.290 Y93.920 E1.12623
G1 X60.130 Y94.080 E1.13059
G1 X59.439 Y93.920 E1.14426
G1 X59.279 Y94.080 E1.14863
G1 X58.589 Y93.920 E1.16230
G1 X58.429 Y94.080 E1.16666
G1 X57.738 Y93.920 E1.18033
G1 X57.578 Y94.080 E1.18469
G1 X56.888 Y93.920 E1.19836
G1 X56.728 Y94.080 E1.20272
G1 X56.037 Y93.920 E1.21639
G1 X55.877 Y94.080 E1.22076
G1 X55.187 Y93.920 E1.23443
G1 X55.176 Y93.931 E1.23474
G1 F1800.000 E0.23474
G92 E0
G1 X54.756 Y93.500 F7800.000
G1 X67.244 Y93.500
G1 X70.500 Y92.000
G1 X70.898 Y91.602
G1 F1800.000 E1.00000
G1 X70.898 Y88.398 F1212.807 E1.06151
G1 X108.958 Y88.398 E1.79198
G1 X108.694 Y88.915 E1.80314
G1 X108.577 Y89.212 E1.80927
G1 X108.497 Y89.523 E1.81542
G1 X108.452 Y90.000 E1.82462
G1 X108.497 Y90.477 E1.83382
G1 X108.577 Y90.788 E1.83997
G1 X108.694 Y91.085 E1.84610
G1 X108.958 Y91.602 E1.85726
G1 X70.987 Y91.602 E2.58601
G1 X70.299 Y92.201 F7800.000
G1 X70.299 Y87.799 F848.965 E2.67049
G1 X110.961 Y87.799 E3.45088
G1 X110.984 Y88.007 E3.45490
G1 X110.515 Y88.112 E3.46412
G1 X110.170 Y88.236 E3.47116
G1 X109.854 Y88.423 E3.47820
G1 X109.579 Y88.666 E3.48524
G1 X109.354 Y88.955 E3.49228
G1 X109.188 Y89.283 E3.49933
G1 X109.085 Y89.635 E3.50637
G1 X109.051 Y90.000 E3.51341
G1 X109.085 Y90.365 E3.52045
G1 X109.188 Y90.717 E3.52749
G1 X109.292 Y90.939 E3.53219
G1 X109.498 Y91.243 E3.53923
G1 X109.666 Y91.421 E3.54393
G1 X109.854 Y91.577 E3.54863
G1 X110.170 Y91.764 E3.55567
G1 X110.515 Y91.888 E3.56271
G1 X110.984 Y91.993 E3.57193
G1 X110.961 Y92.201 E3.57595
G1 X70.389 Y92.201 E4.35462
G1 X70.598 Y91.683 F7800.000
G1 X70.500 Y92.000
G1 X110.643 Y88.000
G1 X111.365 Y88.000
G1 X123.235 Y88.000
G1 X122.837 Y88.398
G1 X122.837 Y91.602 F727.684 E4.41613
G1 X113.042 Y91.602 E4.60413
G1 X113.306 Y91.085 E4.61528
G1 X113.423 Y90.788 E4.62142
G1 X113.503 Y90.477 E4.62757
G1 X113.548 Y90.000 E4.63676
G1 X113.503 Y89.523 E4.64597
G1 X113.423 Y89.212 E4.65212
G1 X113.306 Y88.915 E4.65825
G1 X113.042 Y88.398 E4.66940
G1 X122.748 Y88.398 E4.85568
G1 X123.436 Y87.799 F7800.000
G1 X123.436 Y92.201 F727.684 E4.94016
G1 X111.039 Y92.201 E5.17808
G1 X111.016 Y91.993 E5.18210
G1 X111.485 Y91.888 E5.19131
G1 X111.830 Y91.764 E5.19836
G1 X112.045 Y91.646 E5.20305
G1 X112.243 Y91.502 E5.20775
G1 X112.502 Y91.243 E5.21479
G1 X112.708 Y90.939 E5.22183
G1 X112.812 Y90.717 E5.22654
G1 X112.915 Y90.365 E5.23358
G1 X112.949 Y90.000 E5.24062
G1 X112.915 Y89.635 E5.24766
G1 X112.812 Y89.283 E5.25470
G1 X112.708 Y89.061 E5.25940
G1 X112.502 Y88.757 E5.26644
G1 X112.242 Y88.498 E5.27348
G1 X112.044 Y88.354 E5.27818
G1 X111.830 Y88.236 E5.28288
G1 X111.485 Y88.112 E5.28992
G1 X111.016 Y88.007 E5.29914
G1 X111.039 Y87.799 E5.30315
G1 X123.346 Y87.799 E5.53935
G1 X123.136 Y88.317 F7800.000
