; generated by Slic3r 0.9.10b on 2013-10-13 at 17:38:11

; layer_height = 0.21
; perimeters = 2
; top_solid_layers = 3
; bottom_solid_layers = 3
; fill_density = 0.2
; perimeter_speed = 50
; infill_speed = 60
; travel_speed = 130
; nozzle_diameter = 0.4
; filament_diameter = 2.9
; extrusion_multiplier = 1.0088
; perimeters extrusion width = 0.64mm
; infill extrusion width = 0.64mm
; solid infill extrusion width = 0.64mm
; top infill extrusion width = 0.64mm
; support material extrusion width = 0.64mm
; first layer extrusion width = 0.70mm

G21 ; set units to millimeters
M107
M190 S60 ; wait for bed temperature to be reached
M104 S200 ; set temperature
G28 ; home all axes
G1 Z5 F5000 ; lift nozzle
M109 S200 ; wait for temperature to be reached
G90 ; use absolute coordinates
G92 E0
M82 ; use absolute distances for extrusion
G1 F1800.000 E-1.00000
G92 E0
G1 Z0.350 F7800.000
G1 X71.990 Y75.110
G1 F1800.000 E1.00000
G1 X72.930 Y74.270 F1200.000 E1.04283
G1 X73.770 Y73.630 E1.07871
G1 X74.580 Y73.100 E1.11160
G1 X75.330 Y72.660 E1.14115
G1 X75.810 Y72.410 E1.15954
G1 X76.270 Y72.200 E1.17672
G1 X77.120 Y71.850 E1.20795
G1 X78.000 Y71.540 E1.23965
G1 X78.510 Y71.390 E1.25771
G1 X79.790 Y71.110 E1.30223
G1 X80.810 Y70.950 E1.33731
G1 X81.340 Y70.900 E1.35540
G1 X82.480 Y70.860 E1.39416
G1 X83.350 Y70.880 E1.42372
G1 X104.310 Y71.900 E2.13672
G1 X105.750 Y72.130 E2.18627
G1 X107.090 Y72.670 E2.23536
G1 X108.290 Y73.480 E2.28455
G1 X109.290 Y74.540 E2.33406
G1 X110.030 Y75.780 E2.38313
G1 X112.040 Y80.200 E2.54810
G1 X112.490 Y81.540 E2.59613
G1 X112.640 Y82.950 E2.64431
G1 X112.640 Y101.040 E3.25895
G1 X112.510 Y102.330 E3.30300
G1 X112.130 Y103.580 E3.34739
G1 X111.520 Y104.730 E3.39162
G1 X110.690 Y105.730 E3.43578
G1 X109.690 Y106.560 E3.47994
G1 X108.540 Y107.170 E3.52417
G1 X107.290 Y107.550 E3.56856
G1 X106.000 Y107.680 E3.61261
G1 X97.000 Y107.680 E3.91840
G1 X96.410 Y107.650 E3.93847
G1 X95.830 Y107.570 E3.95837
G1 X78.830 Y104.530 E4.54514
G1 X77.510 Y104.150 E4.59181
G1 X76.290 Y103.500 E4.63878
G1 X75.230 Y102.620 E4.68559
G1 X74.380 Y101.530 E4.73255
G1 X69.700 Y94.080 E5.03148
G1 X69.160 Y93.160 E5.06773
G1 X68.910 Y92.680 E5.08611
G1 X68.490 Y91.730 E5.12141
G1 X68.040 Y90.490 E5.16623
G1 X67.890 Y89.980 E5.18429
G1 X67.770 Y89.480 E5.20176
G1 X67.520 Y88.170 E5.24707
G1 X67.400 Y87.150 E5.28197
G1 X67.380 Y86.650 E5.29897
G1 X67.370 Y85.860 E5.32581
G1 X67.400 Y84.840 E5.36049
G1 X67.500 Y83.900 E5.39260
G1 X67.580 Y83.390 E5.41014
G1 X67.780 Y82.440 E5.44313
G1 X68.040 Y81.500 E5.47627
G1 X68.350 Y80.620 E5.50797
G1 X68.700 Y79.770 E5.53920
G1 X68.910 Y79.310 E5.55638
G1 X69.160 Y78.830 E5.57477
G1 X69.600 Y78.080 E5.60431
G1 X70.110 Y77.300 E5.63598
G1 X70.400 Y76.890 E5.65304
G1 X70.740 Y76.460 E5.67167
G1 X71.310 Y75.810 E5.70104
G1 X71.923 Y75.177 E5.73096
G1 F1800.000 E4.73096
G92 E0
G1 X75.572 Y78.666 F7800.000
G1 F1800.000 E1.00000
G1 X76.054 Y78.239 F1200.000 E1.02187
G1 X76.538 Y77.862 E1.04274
G1 X77.075 Y77.494 E1.06486
G1 X77.613 Y77.173 E1.08614
G1 X78.186 Y76.880 E1.10801
G1 X78.758 Y76.631 E1.12921
G1 X79.411 Y76.396 E1.15278
G1 X80.010 Y76.223 E1.17397
G1 X80.629 Y76.086 E1.19551
G1 X81.255 Y75.988 E1.21704
G1 X81.886 Y75.930 E1.23858
G1 X82.520 Y75.911 E1.26011
G1 X83.153 Y75.932 E1.28165
G1 X83.745 Y75.988 E1.30183
G1 X84.371 Y76.086 E1.32336
G1 X84.990 Y76.223 E1.34490
G1 X85.599 Y76.399 E1.36643
G1 X86.195 Y76.612 E1.38797
G1 X86.769 Y76.859 E1.40916
G1 X87.387 Y77.173 E1.43273
G1 X87.923 Y77.492 E1.45393
G1 X88.454 Y77.856 E1.47580
G1 X88.946 Y78.239 E1.49700
G1 X89.421 Y78.659 E1.51853
G1 X89.868 Y79.108 E1.54007
G1 X90.286 Y79.584 E1.56160
G1 X90.661 Y80.069 E1.58242
G1 X91.029 Y80.610 E1.60463
G1 X91.331 Y81.122 E1.62485
G1 X91.620 Y81.686 E1.64638
G1 X91.865 Y82.249 E1.66725
G1 X92.085 Y82.851 E1.68902
G1 X92.277 Y83.510 E1.71234
G1 X92.407 Y84.090 E1.73252
G1 X92.506 Y84.706 E1.75372
G1 X92.570 Y85.386 E1.77695
G1 X92.589 Y85.980 E1.79713
G1 X92.571 Y86.604 E1.81832
G1 X92.507 Y87.284 E1.84155
G1 X92.414 Y87.871 E1.86173
G1 X92.279 Y88.480 E1.88293
G1 X92.088 Y89.139 E1.90624
G1 X91.880 Y89.715 E1.92705
G1 X91.641 Y90.269 E1.94753
G1 X91.327 Y90.887 E1.97110
G1 X91.008 Y91.423 E1.99229
G1 X90.674 Y91.914 E2.01247
G1 X90.286 Y92.416 E2.03401
G1 X89.875 Y92.884 E2.05520
G1 X89.384 Y93.375 E2.07877
G1 X88.916 Y93.786 E2.09997
G1 X88.414 Y94.174 E2.12150
G1 X87.923 Y94.508 E2.14168
G1 X87.387 Y94.827 E2.16288
G1 X86.589 Y95.219 E2.19308
G1 X86.589 Y98.521 E2.30528
G1 X86.492 Y98.755 E2.31387
G1 X85.755 Y99.492 E2.34930
G1 X85.521 Y99.589 E2.35789
G1 X79.479 Y99.589 E2.56320
G1 X79.245 Y99.492 E2.57180
G1 X78.508 Y98.755 E2.60722
G1 X78.411 Y98.521 E2.61582
G1 X78.411 Y95.219 E2.72802
G1 X77.657 Y94.851 E2.75653
G1 X77.067 Y94.501 E2.77985
G1 X76.569 Y94.161 E2.80031
G1 X76.092 Y93.793 E2.82079
G1 X75.572 Y93.334 E2.84436
G1 X75.132 Y92.892 E2.86555
G1 X74.745 Y92.454 E2.88539
G1 X74.326 Y91.914 E2.90862
G1 X73.966 Y91.381 E2.93050
G1 X73.669 Y90.878 E2.95034
G1 X73.384 Y90.323 E2.97153
G1 X73.127 Y89.733 E2.99341
G1 X72.896 Y89.089 E3.01664
G1 X72.723 Y88.490 E3.03783
G1 X72.595 Y87.920 E3.05767
G1 X72.493 Y87.284 E3.07955
G1 X72.430 Y86.614 E3.10244
G1 X72.411 Y85.970 E3.12431
G1 X72.433 Y85.337 E3.14585
G1 X72.488 Y84.755 E3.16569
G1 X72.583 Y84.149 E3.18655
G1 X72.733 Y83.473 E3.21008
G1 X72.914 Y82.854 E3.23198
G1 X73.112 Y82.305 E3.25182
G1 X73.359 Y81.731 E3.27302
G1 X73.649 Y81.157 E3.29489
G1 X73.971 Y80.611 E3.31643
G1 X74.343 Y80.063 E3.33893
G1 X74.745 Y79.547 E3.36117
G1 X75.132 Y79.108 E3.38103
G1 X75.504 Y78.733 E3.39899
G1 X76.014 Y79.123 F7800.000
G1 X76.466 Y78.722 F1200.000 E3.41950
G1 X76.920 Y78.370 E3.43902
G1 X77.425 Y78.024 E3.45981
G1 X77.928 Y77.726 E3.47970
G1 X78.466 Y77.451 E3.50022
G1 X79.001 Y77.218 E3.52005
G1 X79.598 Y77.003 E3.54159
G1 X80.159 Y76.841 E3.56143
G1 X80.738 Y76.712 E3.58161
G1 X81.325 Y76.620 E3.60178
G1 X81.916 Y76.565 E3.62196
G1 X82.510 Y76.547 E3.64214
G1 X83.104 Y76.566 E3.66232
G1 X83.695 Y76.622 E3.68250
G1 X84.262 Y76.712 E3.70200
G1 X84.841 Y76.841 E3.72217
G1 X85.412 Y77.006 E3.74235
G1 X85.971 Y77.207 E3.76253
G1 X86.507 Y77.438 E3.78237
G1 X87.072 Y77.726 E3.80390
G1 X87.574 Y78.024 E3.82374
G1 X88.073 Y78.364 E3.84426
G1 X88.534 Y78.722 E3.86410
G1 X88.979 Y79.116 E3.88428
G1 X89.398 Y79.536 E3.90446
G1 X89.790 Y79.982 E3.92463
G1 X90.142 Y80.436 E3.94413
G1 X90.487 Y80.942 E3.96497
G1 X90.779 Y81.437 E3.98449
G1 X91.049 Y81.966 E4.00467
G1 X91.278 Y82.493 E4.02419
G1 X91.484 Y83.058 E4.04463
G1 X91.654 Y83.639 E4.06520
G1 X91.790 Y84.248 E4.08640
G1 X91.880 Y84.825 E4.10623
G1 X91.935 Y85.416 E4.12641
G1 X91.953 Y85.990 E4.14591
G1 X91.936 Y86.574 E4.16575
G1 X91.878 Y87.195 E4.18695
G1 X91.788 Y87.762 E4.20645
G1 X91.661 Y88.332 E4.22629
G1 X91.487 Y88.932 E4.24753
G1 X91.285 Y89.489 E4.26766
G1 X91.058 Y90.016 E4.28716
G1 X90.789 Y90.545 E4.30734
G1 X90.492 Y91.048 E4.32718
G1 X90.136 Y91.573 E4.34871
G1 X89.778 Y92.034 E4.36855
G1 X89.384 Y92.479 E4.38873
G1 X88.979 Y92.884 E4.40823
G1 X88.534 Y93.278 E4.42841
G1 X88.065 Y93.642 E4.44858
G1 X87.582 Y93.971 E4.46842
G1 X87.063 Y94.279 E4.48894
G1 X86.543 Y94.545 E4.50878
G1 X85.953 Y94.800 E4.53060
G1 X85.953 Y98.258 E4.64811
G1 X85.857 Y98.492 E4.65670
G1 X85.492 Y98.857 E4.67423
G1 X85.258 Y98.953 E4.68283
G1 X79.742 Y98.953 E4.87025
G1 X79.508 Y98.857 E4.87884
G1 X79.143 Y98.492 E4.89638
G1 X79.047 Y98.258 E4.90497
G1 X79.047 Y94.800 E5.02247
G1 X78.457 Y94.545 E5.04429
G1 X77.937 Y94.279 E5.06413
G1 X77.442 Y93.987 E5.08366
G1 X76.912 Y93.624 E5.10548
G1 X76.466 Y93.278 E5.12467
G1 X76.036 Y92.898 E5.14417
G1 X75.595 Y92.457 E5.16536
G1 X75.210 Y92.018 E5.18520
G1 X74.858 Y91.565 E5.20470
G1 X74.508 Y91.048 E5.22590
G1 X74.211 Y90.545 E5.24574
G1 X73.951 Y90.034 E5.26524
G1 X73.707 Y89.471 E5.28609
G1 X73.503 Y88.902 E5.30661
G1 X73.341 Y88.341 E5.32645
G1 X73.218 Y87.791 E5.34561
G1 X73.122 Y87.195 E5.36613
G1 X73.065 Y86.584 E5.38698
G1 X73.047 Y85.980 E5.40750
G1 X73.067 Y85.386 E5.42768
G1 X73.120 Y84.825 E5.44684
G1 X73.209 Y84.258 E5.46636
G1 X73.346 Y83.640 E5.48785
G1 X73.516 Y83.060 E5.50839
G1 X73.707 Y82.529 E5.52755
G1 X73.938 Y81.993 E5.54739
G1 X74.211 Y81.455 E5.56791
G1 X74.524 Y80.926 E5.58876
G1 X74.852 Y80.444 E5.60859
G1 X75.229 Y79.959 E5.62944
G1 X75.602 Y79.536 E5.64862
G1 X75.947 Y79.190 E5.66522
G1 X76.457 Y79.579 F7800.000
G1 X76.872 Y79.212 F1200.000 E5.68404
G1 X77.294 Y78.884 E5.70222
G1 X77.766 Y78.561 E5.72166
G1 X78.243 Y78.278 E5.74050
G1 X78.737 Y78.026 E5.75932
G1 X79.245 Y77.805 E5.77814
G1 X79.766 Y77.617 E5.79696
G1 X80.297 Y77.462 E5.81578
G1 X80.858 Y77.337 E5.83528
G1 X81.405 Y77.251 E5.85410
G1 X81.956 Y77.199 E5.87293
G1 X82.510 Y77.182 E5.89175
G1 X83.064 Y77.200 E5.91057
G1 X83.615 Y77.253 E5.92939
G1 X84.162 Y77.340 E5.94821
G1 X84.703 Y77.462 E5.96703
G1 X85.234 Y77.617 E5.98585
G1 X85.755 Y77.805 E6.00467
G1 X86.263 Y78.026 E6.02349
G1 X86.739 Y78.268 E6.04164
G1 X87.216 Y78.550 E6.06046
G1 X87.675 Y78.861 E6.07928
G1 X88.113 Y79.200 E6.09810
G1 X88.529 Y79.565 E6.11692
G1 X88.921 Y79.957 E6.13574
G1 X89.288 Y80.372 E6.15456
G1 X89.616 Y80.794 E6.17275
G1 X89.950 Y81.284 E6.19288
G1 X90.232 Y81.761 E6.21171
G1 X90.483 Y82.255 E6.23053
G1 X90.694 Y82.745 E6.24869
G1 X90.883 Y83.265 E6.26747
G1 X91.043 Y83.817 E6.28699
G1 X91.163 Y84.358 E6.30581
G1 X91.247 Y84.885 E6.32395
G1 X91.301 Y85.456 E6.34345
G1 X91.318 Y85.990 E6.36159
G1 X91.301 Y86.544 E6.38042
G1 X91.247 Y87.115 E6.39992
G1 X91.160 Y87.662 E6.41874
G1 X91.043 Y88.183 E6.43688
G1 X90.883 Y88.735 E6.45640
G1 X90.687 Y89.272 E6.47583
G1 X90.474 Y89.763 E6.49402
G1 X90.222 Y90.257 E6.51284
G1 X89.950 Y90.716 E6.53098
G1 X89.628 Y91.191 E6.55048
G1 X89.288 Y91.628 E6.56930
G1 X88.921 Y92.043 E6.58813
G1 X88.529 Y92.435 E6.60695
G1 X88.113 Y92.800 E6.62577
G1 X87.691 Y93.128 E6.64391
G1 X87.233 Y93.440 E6.66273
G1 X86.757 Y93.722 E6.68155
G1 X86.263 Y93.974 E6.70037
G1 X85.755 Y94.195 E6.71920
G1 X85.318 Y94.347 E6.73493
G1 X85.318 Y97.945 E6.85720
G1 X84.945 Y98.318 E6.87509
G1 X80.055 Y98.318 E7.04127
G1 X79.682 Y97.945 E7.05916
G1 X79.682 Y94.347 E7.18142
G1 X79.245 Y94.195 E7.19716
G1 X78.737 Y93.974 E7.21598
G1 X78.243 Y93.722 E7.23480
G1 X77.784 Y93.450 E7.25294
G1 X77.294 Y93.116 E7.27308
G1 X76.872 Y92.788 E7.29126
G1 X76.471 Y92.435 E7.30941
G1 X76.065 Y92.029 E7.32891
G1 X75.700 Y91.613 E7.34773
G1 X75.361 Y91.175 E7.36655
G1 X75.050 Y90.716 E7.38537
G1 X74.778 Y90.257 E7.40351
G1 X74.517 Y89.745 E7.42301
G1 X74.298 Y89.237 E7.44183
G1 X74.111 Y88.715 E7.46065
G1 X73.962 Y88.203 E7.47880
G1 X73.840 Y87.662 E7.49762
G1 X73.753 Y87.115 E7.51644
G1 X73.699 Y86.544 E7.53594
G1 X73.682 Y85.990 E7.55476
G1 X73.700 Y85.436 E7.57358
G1 X73.751 Y84.905 E7.59172
G1 X73.834 Y84.376 E7.60991
G1 X73.957 Y83.817 E7.62934
G1 X74.117 Y83.266 E7.64886
G1 X74.305 Y82.745 E7.66768
G1 X74.526 Y82.237 E7.68651
G1 X74.768 Y81.761 E7.70465
G1 X75.050 Y81.284 E7.72347
G1 X75.361 Y80.825 E7.74231
G1 X75.712 Y80.372 E7.76179
G1 X76.065 Y79.971 E7.77993
G1 X76.389 Y79.646 E7.79551
G1 F1800.000 E6.79551
G92 E0
G1 X76.345 Y80.908 F7800.000
G1 X95.411 Y82.435
G1 F1800.000 E1.00000
G1 X95.508 Y82.201 F1200.000 E1.00859
G1 X96.245 Y81.464 E1.04402
G1 X96.479 Y81.367 E1.05261
G1 X97.065 Y81.367 E1.07252
G1 X97.065 Y77.661 E1.19847
G1 X97.161 Y77.427 E1.20706
G1 X97.899 Y76.690 E1.24248
G1 X98.132 Y76.593 E1.25108
G1 X104.394 Y76.593 E1.46382
G1 X104.516 Y76.617 E1.46808
G1 X104.983 Y76.810 E1.48522
G1 X105.087 Y76.880 E1.48947
G1 X105.648 Y77.442 E1.51646
G1 X105.718 Y77.546 E1.52072
G1 X105.911 Y78.012 E1.53786
G1 X105.935 Y78.135 E1.54211
G1 X105.935 Y81.367 E1.65195
G1 X106.521 Y81.367 E1.67186
G1 X106.755 Y81.464 E1.68045
G1 X107.492 Y82.201 E1.71588
G1 X107.589 Y82.435 E1.72447
G1 X107.589 Y101.565 E2.37444
G1 X107.492 Y101.799 E2.38303
G1 X106.755 Y102.536 E2.41846
G1 X106.521 Y102.633 E2.42705
G1 X103.979 Y102.633 E2.51345
G1 X103.745 Y102.536 E2.52204
G1 X103.008 Y101.799 E2.55747
G1 X102.911 Y101.565 E2.56606
G1 X102.911 Y85.280 E3.11937
G1 X100.089 Y85.280 E3.21525
G1 X100.089 Y101.565 E3.76856
G1 X99.992 Y101.799 E3.77715
G1 X99.255 Y102.536 E3.81258
G1 X99.021 Y102.633 E3.82117
G1 X96.479 Y102.633 E3.90756
G1 X96.245 Y102.536 E3.91615
G1 X95.508 Y101.799 E3.95158
G1 X95.411 Y101.565 E3.96017
G1 X95.411 Y82.530 E4.60691
G1 X96.047 Y82.698 F7800.000
G1 X96.143 Y82.465 F1200.000 E4.61550
G1 X96.508 Y82.100 E4.63303
G1 X96.742 Y82.003 E4.64163
G1 X98.089 Y82.003 E4.68739
G1 X97.890 Y81.805 E4.69693
G1 X97.821 Y81.700 E4.70118
G1 X97.725 Y81.468 E4.70973
G1 X97.700 Y81.345 E4.71399
G1 X97.700 Y79.532 E4.77558
G1 X97.768 Y79.304 E4.78367
G1 X97.700 Y79.140 E4.78971
G1 X97.700 Y77.924 E4.83103
G1 X97.797 Y77.690 E4.83962
G1 X98.162 Y77.325 E4.85716
G1 X98.395 Y77.228 E4.86575
G1 X104.267 Y77.228 E5.06525
G1 X104.390 Y77.253 E5.06951
G1 X104.623 Y77.349 E5.07806
G1 X104.727 Y77.419 E5.08231
G1 X105.110 Y77.802 E5.10071
G1 X105.179 Y77.906 E5.10497
G1 X105.275 Y78.138 E5.11352
G1 X105.300 Y78.261 E5.11777
G1 X105.300 Y80.074 E5.17937
G1 X105.232 Y80.302 E5.18745
G1 X105.300 Y80.466 E5.19349
G1 X105.300 Y81.682 E5.23482
G1 X105.203 Y81.916 E5.24341
G1 X105.116 Y82.003 E5.24759
G1 X106.258 Y82.003 E5.28638
G1 X106.492 Y82.100 E5.29498
G1 X106.857 Y82.465 E5.31251
G1 X106.953 Y82.698 E5.32111
G1 X106.953 Y101.302 E5.95319
G1 X106.857 Y101.535 E5.96178
G1 X106.492 Y101.900 E5.97932
G1 X106.258 Y101.997 E5.98791
G1 X104.242 Y101.997 E6.05641
G1 X104.008 Y101.900 E6.06500
G1 X103.643 Y101.535 E6.08254
G1 X103.547 Y101.302 E6.09113
G1 X103.547 Y84.644 E6.65709
G1 X99.453 Y84.644 E6.79616
G1 X99.453 Y101.302 E7.36212
G1 X99.357 Y101.535 E7.37071
G1 X98.992 Y101.900 E7.38825
G1 X98.758 Y101.997 E7.39684
G1 X96.742 Y101.997 E7.46534
G1 X96.508 Y101.900 E7.47394
G1 X96.143 Y101.535 E7.49147
G1 X96.047 Y101.302 E7.50006
G1 X96.047 Y82.794 E8.12891
G1 F1800.000 E7.12891
G92 E0
G1 X93.042 Y84.668 F7800.000
G1 X98.433 Y81.448
G1 F1800.000 E1.00000
G1 X98.336 Y81.214 F1200.000 E1.00859
G1 X98.336 Y79.663 E1.06128
G1 X98.433 Y79.430 E1.06987
G1 X98.630 Y79.232 E1.07937
G1 X98.708 Y79.200 E1.08225
G1 X98.336 Y78.827 E1.10014
G1 X98.336 Y78.236 E1.12022
G1 X98.708 Y77.864 E1.13811
G1 X104.136 Y77.864 E1.32254
G1 X104.370 Y77.961 E1.33114
G1 X104.567 Y78.159 E1.34063
G1 X104.664 Y78.392 E1.34923
G1 X104.664 Y79.943 E1.40192
G1 X104.567 Y80.177 E1.41051
G1 X104.370 Y80.374 E1.42001
G1 X104.292 Y80.407 E1.42288
G1 X104.664 Y80.779 E1.44078
G1 X104.664 Y81.370 E1.46086
G1 X104.292 Y81.742 E1.47875
G1 X98.864 Y81.742 E1.66318
G1 X98.630 Y81.645 E1.67177
G1 X98.500 Y81.515 E1.67803
G1 X98.651 Y82.603 F7800.000
G1 X98.941 Y82.658 F1200.000 E1.68805
G1 X99.059 Y82.658 E1.69205
G1 X99.087 Y82.639 E1.69321
G1 X99.185 Y82.639 E1.69656
G1 X99.349 Y82.603 E1.70223
G1 X99.392 Y82.638 E1.70410
G1 X99.629 Y82.639 E1.71216
G1 X99.646 Y82.656 E1.71299
G1 X99.705 Y82.639 E1.71506
G1 X105.945 Y82.639 E1.92711
G1 X106.318 Y83.011 E1.94500
G1 X106.318 Y100.989 E2.55584
G1 X105.945 Y101.361 E2.57373
G1 X104.555 Y101.361 E2.62099
G1 X104.182 Y100.989 E2.63888
G1 X104.182 Y84.009 E3.21582
G1 X99.705 Y84.009 E3.36795
G1 X99.646 Y83.992 E3.37002
G1 X99.629 Y84.009 E3.37085
G1 X99.392 Y84.010 E3.37891
G1 X99.349 Y84.044 E3.38078
G1 X99.185 Y84.009 E3.38645
G1 X99.087 Y84.009 E3.38981
G1 X99.059 Y83.989 E3.39097
G1 X98.818 Y84.008 E3.39918
G1 X98.818 Y100.989 E3.97614
G1 X98.445 Y101.361 E3.99403
G1 X97.055 Y101.361 E4.04129
G1 X96.682 Y100.989 E4.05918
G1 X96.682 Y83.011 E4.67002
G1 X97.055 Y82.639 E4.68791
G1 X98.591 Y82.638 E4.74012
G1 F1800.000 E3.74012
G92 E0
G1 X90.535 Y84.458 F7800.000
G1 F1800.000 E1.00000
G1 X90.618 Y84.975 F840.000 E1.01776
G1 X90.666 Y85.486 E1.03522
G1 X90.682 Y86.000 E1.05269
G1 X90.666 Y86.514 E1.07015
G1 X90.618 Y87.025 E1.08762
G1 X90.537 Y87.533 E1.10508
G1 X90.423 Y88.043 E1.12284
G1 X90.282 Y88.528 E1.14001
G1 X90.107 Y89.012 E1.15748
G1 X89.903 Y89.484 E1.17494
G1 X89.670 Y89.942 E1.19240
G1 X89.408 Y90.384 E1.20987
G1 X89.119 Y90.809 E1.22733
G1 X88.804 Y91.215 E1.24480
