; generated by Slic3r 0.9.10b on 2013-10-17 at 21:36:08

; layer_height = 0.21
; perimeters = 2
; top_solid_layers = 3
; bottom_solid_layers = 3
; fill_density = 0.2
; perimeter_speed = 50
; infill_speed = 60
; travel_speed = 130
; nozzle_diameter = 0.4
; filament_diameter = 2.9
; extrusion_multiplier = 1.0088
; perimeters extrusion width = 0.64mm
; infill extrusion width = 0.64mm
; solid infill extrusion width = 0.64mm
; top infill extrusion width = 0.64mm
; first layer extrusion width = 0.70mm

G21 ; set units to millimeters
M107
M190 S60 ; wait for bed temperature to be reached
M104 S200 ; set temperature
G28 ; home all axes
G1 Z5 F5000 ; lift nozzle
M109 S200 ; wait for temperature to be reached
G90 ; use absolute coordinates
G92 E0
M82 ; use absolute distances for extrusion
G1 F1800.000 E-1.00000
G92 E0
G1 Z0.350 F7800.000
G1 X35.910 Y55.680
G1 F1800.000 E1.00000
G1 X37.060 Y55.070 F1200.000 E1.04423
G1 X38.310 Y54.690 E1.08862
G1 X39.600 Y54.560 E1.13267
G1 X52.390 Y54.560 E1.56724
G1 X137.890 Y57.070 E4.47352
G1 X139.160 Y57.230 E4.51701
G1 X140.370 Y57.630 E4.56031
G1 X141.490 Y58.250 E4.60381
G1 X142.460 Y59.080 E4.64718
G1 X143.260 Y60.070 E4.69043
G1 X143.850 Y61.210 E4.73404
G1 X144.210 Y62.430 E4.77726
G1 X144.340 Y63.700 E4.82064
G1 X144.340 Y68.700 E4.99052
G1 X144.210 Y69.960 E5.03356
G1 X143.860 Y71.180 E5.07669
G1 X143.270 Y72.300 E5.11970
G1 X142.490 Y73.300 E5.16279
G1 X141.520 Y74.120 E5.20594
G1 X74.030 Y121.720 E8.01201
G1 X72.650 Y122.470 E8.06537
G1 X71.130 Y122.870 E8.11878
G1 X53.310 Y125.370 E8.73018
G1 X52.390 Y125.440 E8.76152
G1 X39.600 Y125.440 E9.19609
G1 X38.310 Y125.310 E9.24014
G1 X37.060 Y124.930 E9.28453
G1 X35.910 Y124.320 E9.32876
G1 X34.910 Y123.490 E9.37292
G1 X34.080 Y122.490 E9.41707
G1 X33.470 Y121.340 E9.46130
G1 X33.090 Y120.090 E9.50569
G1 X32.960 Y118.800 E9.54975
G1 X32.960 Y61.200 E11.50682
G1 X33.090 Y59.910 E11.55087
G1 X33.470 Y58.660 E11.59526
G1 X34.080 Y57.510 E11.63949
G1 X34.910 Y56.510 E11.68365
G1 X35.837 Y55.741 E11.72456
G1 F1800.000 E10.72456
G92 E0
G1 X39.927 Y117.118 F7800.000
G1 F1800.000 E1.00000
G1 X52.073 Y117.118 F720.000 E1.41266
G1 X52.073 Y118.482 E1.45902
G1 X39.927 Y118.482 E1.87168
G1 X39.927 Y117.213 E1.91480
G1 X40.478 Y117.436 F7800.000
G1 F1800.000 E0.91480
G92 E0
G1 X34.260 Y121.800 F7800.000
G1 X32.502 Y120.043
G1 X32.502 Y107.557
G1 X34.259 Y105.800
G1 X39.927 Y110.482
G1 F1800.000 E1.00000
G1 X39.927 Y109.118 F720.000 E1.04636
G1 X52.073 Y109.118 E1.45902
G1 X52.073 Y110.482 E1.50538
G1 X40.023 Y110.482 E1.91480
G1 X40.245 Y109.932 F7800.000
G1 F1800.000 E0.91480
G92 E0
G1 X40.110 Y110.300 F7800.000
G1 X51.891 Y110.300
G1 X52.366 Y112.966
G1 F1800.000 E1.00000
G1 X52.388 Y116.300 F720.000 E1.11327
G1 F1800.000 E0.11327
G92 E0
G1 X51.891 Y117.300 F7800.000
G1 X51.891 Y110.300
G1 X52.366 Y112.966
G1 F1800.000 E1.00000
G1 X52.362 Y112.300 F720.000 E1.02265
G1 X52.362 Y112.300 F7800.000
G1 X52.358 Y111.300 F720.000 E1.05662
G1 X52.358 Y111.300 F7800.000
G1 X52.356 Y111.300 F720.000 E1.05669
G1 X52.356 Y111.300 F7800.000
G1 X52.356 Y110.967 F720.000 E1.06800
G1 X51.353 Y109.786 F7800.000
G1 X51.382 Y109.814 F480.000 E1.06939
G1 X50.446 Y109.786 F7800.000
G1 X50.475 Y109.814 F480.000 E1.07079
G1 X49.540 Y109.786 F7800.000
G1 X49.569 Y109.814 F480.000 E1.07218
G1 X48.633 Y109.786 F7800.000
G1 X48.662 Y109.814 F480.000 E1.07357
G1 X47.727 Y109.786 F7800.000
G1 X47.756 Y109.814 F480.000 E1.07496
G1 X46.820 Y109.786 F7800.000
G1 X46.849 Y109.814 F480.000 E1.07635
G1 X45.914 Y109.786 F7800.000
G1 X45.943 Y109.814 F480.000 E1.07774
G1 X45.007 Y109.786 F7800.000
G1 X45.036 Y109.814 F480.000 E1.07914
G1 X44.101 Y109.786 F7800.000
G1 X44.129 Y109.814 F480.000 E1.08053
G1 X43.194 Y109.786 F7800.000
G1 X43.223 Y109.814 F480.000 E1.08192
G1 X42.287 Y109.786 F7800.000
G1 X42.316 Y109.814 F480.000 E1.08331
G1 X41.410 Y109.814 F7800.000
G1 X41.381 Y109.786 F480.000 E1.08470
G1 F1800.000 E0.08470
G92 E0
G1 X40.110 Y109.300 F7800.000
G1 X40.110 Y110.300
G1 X40.110 Y117.300
G1 X40.110 Y118.300
G1 X41.251 Y117.814
G1 F1800.000 E1.00000
G1 X41.222 Y117.786 F480.000 E1.00140
G1 X42.129 Y117.786 E1.03247
G1 X42.157 Y117.814 E1.03387
G1 X43.035 Y117.786 E1.06396
G1 X43.064 Y117.814 E1.06536
G1 X43.942 Y117.786 E1.09545
G1 X43.971 Y117.814 E1.09685
G1 X44.848 Y117.786 E1.12694
G1 X44.877 Y117.814 E1.12834
G1 X45.755 Y117.786 E1.15843
G1 X45.784 Y117.814 E1.15984
G1 X46.661 Y117.786 E1.18992
G1 X46.690 Y117.814 E1.19133
G1 X47.568 Y117.786 E1.22141
G1 X47.597 Y117.814 E1.22282
G1 X48.474 Y117.786 E1.25291
G1 X48.503 Y117.814 E1.25431
G1 X49.381 Y117.786 E1.28440
G1 X49.410 Y117.814 E1.28580
G1 X50.287 Y117.786 E1.31589
G1 X50.316 Y117.814 E1.31729
G1 X51.194 Y117.786 E1.34738
G1 X51.223 Y117.814 E1.34878
G1 F1800.000 E0.34878
G92 E0
G1 X51.891 Y118.300 F7800.000
G1 X51.891 Y117.300
G1 X55.500 Y115.800
G1 X55.500 Y111.800
G1 X55.953 Y112.253
G1 F1800.000 E1.00000
G1 X68.979 Y112.253 F720.000 E1.44257
G1 X68.734 Y112.734 E1.46089
G1 X68.619 Y113.026 E1.47159
G1 X68.516 Y113.486 E1.48759
G1 X68.496 Y113.800 E1.49828
G1 X68.516 Y114.114 E1.50896
G1 X68.619 Y114.574 E1.52496
G1 X68.734 Y114.866 E1.53566
G1 X68.979 Y115.347 E1.55398
G1 X55.953 Y115.347 E1.99655
G1 X55.953 Y112.349 E2.09841
G1 X55.318 Y111.618 F7800.000
G1 X69.899 Y111.618 F720.000 E2.59383
G1 X69.899 Y112.291 E2.61671
G1 X69.721 Y112.438 E2.62455
G1 X69.561 Y112.609 E2.63252
G1 X69.423 Y112.799 E2.64050
G1 X69.310 Y113.005 E2.64847
G1 X69.191 Y113.335 E2.66041
G1 X69.147 Y113.566 E2.66838
G1 X69.132 Y113.800 E2.67635
G1 X69.147 Y114.034 E2.68432
G1 X69.191 Y114.265 E2.69229
G1 X69.310 Y114.595 E2.70424
G1 X69.423 Y114.801 E2.71221
G1 X69.561 Y114.991 E2.72018
G1 X69.721 Y115.162 E2.72815
G1 X69.899 Y115.309 E2.73600
G1 X69.899 Y115.982 E2.75887
G1 X55.318 Y115.982 E3.25430
G1 X55.318 Y111.713 E3.39935
G1 X55.868 Y111.936 F7800.000
G1 X56.414 Y113.034
G1 X58.266 Y114.886 F1440.000 E3.48835
G1 X59.173 Y114.886 F7800.000
G1 X57.001 Y112.714 F1440.000 E3.59270
G1 X57.908 Y112.714 F7800.000
G1 X60.079 Y114.886 F1440.000 E3.69705
G1 X60.986 Y114.886 F7800.000
G1 X58.814 Y112.714 F1440.000 E3.80141
G1 X59.721 Y112.714 F7800.000
G1 X61.893 Y114.886 F1440.000 E3.90576
G1 X62.799 Y114.886 F7800.000
G1 X60.627 Y112.714 F1440.000 E4.01011
G1 X61.534 Y112.714 F7800.000
G1 X63.706 Y114.886 F1440.000 E4.11447
G1 X64.612 Y114.886 F7800.000
G1 X62.440 Y112.714 F1440.000 E4.21882
G1 X63.347 Y112.714 F7800.000
G1 X65.519 Y114.886 F1440.000 E4.32317
G1 X66.425 Y114.886 F7800.000
G1 X64.254 Y112.714 F1440.000 E4.42753
G1 X65.160 Y112.714 F7800.000
G1 X67.332 Y114.886 F1440.000 E4.53188
G1 X68.160 Y114.807 F7800.000
G1 X66.067 Y112.714 F1440.000 E4.63245
G1 X66.973 Y112.714 F7800.000
G1 X68.036 Y113.777 F1440.000 E4.68353
G1 X68.132 Y112.966 F7800.000
G1 X67.880 Y112.714 F1440.000 E4.69565
G1 X57.360 Y114.886 F7800.000
G1 X56.414 Y113.940 F1440.000 E4.74109
G1 X56.414 Y114.847 F7800.000
G1 X56.453 Y114.886 F1440.000 E4.74297
G1 F1800.000 E3.74297
G92 E0
G1 X56.752 Y121.796 F7800.000
G1 X78.637 Y118.366
G1 X77.869 Y108.586
G1 X56.661 Y105.800
G1 X56.634 Y105.798
G1 X52.073 Y102.482
G1 F1800.000 E1.00000
G1 X39.927 Y102.482 F720.000 E1.41266
G1 X39.927 Y101.118 E1.45902
G1 X52.073 Y101.118 E1.87168
G1 X52.073 Y102.387 E1.91480
G1 X51.522 Y102.164 F7800.000
G1 F1800.000 E0.91480
G92 E0
G1 X51.891 Y102.300 F7800.000
G1 X51.891 Y101.300
G1 X54.500 Y99.800
G1 X54.500 Y95.800
G1 X51.891 Y94.300
G1 X52.073 Y94.482
G1 F1800.000 E1.00000
G1 X39.927 Y94.482 F720.000 E1.41266
G1 X39.927 Y93.118 E1.45902
G1 X52.073 Y93.118 E1.87168
G1 X52.073 Y94.387 E1.91480
G1 X51.522 Y94.164 F7800.000
G1 F1800.000 E0.91480
G92 E0
G1 X51.891 Y94.300 F7800.000
G1 X54.500 Y95.800
G1 X54.500 Y99.800
G1 X51.891 Y101.300
G1 X52.376 Y98.633
G1 F1800.000 E1.00000
G1 X52.388 Y100.300 F720.000 E1.05663
G1 X52.376 Y98.633 F7800.000
G1 X52.362 Y96.300 F720.000 E1.13592
G1 X52.362 Y96.300 F7800.000
G1 X52.358 Y95.300 F720.000 E1.16989
G1 X52.358 Y95.300 F7800.000
G1 X52.356 Y95.300 F720.000 E1.16996
G1 X52.356 Y95.300 F7800.000
G1 X52.356 Y94.967 F720.000 E1.18127
G1 F1800.000 E0.18127
G92 E0
G1 X51.891 Y94.300 F7800.000
G1 X54.500 Y95.800
G1 X54.500 Y99.800
G1 X51.891 Y101.300
G1 X40.110 Y102.300
G1 X41.172 Y101.814
G1 F1800.000 E1.00000
G1 X41.143 Y101.786 F480.000 E1.00139
G1 X42.043 Y101.786 E1.03201
G1 X42.072 Y101.814 E1.03340
G1 X42.943 Y101.786 E1.06305
G1 X42.972 Y101.814 E1.06444
G1 X43.843 Y101.786 E1.09408
G1 X43.872 Y101.814 E1.09548
G1 X44.743 Y101.786 E1.12512
G1 X44.772 Y101.814 E1.12651
G1 X45.643 Y101.786 E1.15616
G1 X45.672 Y101.814 E1.15755
G1 X46.543 Y101.786 E1.18720
G1 X46.572 Y101.814 E1.18859
G1 X47.443 Y101.786 E1.21824
G1 X47.471 Y101.814 E1.21963
G1 X48.342 Y101.786 E1.24927
G1 X48.371 Y101.814 E1.25067
G1 X49.242 Y101.786 E1.28031
G1 X49.271 Y101.814 E1.28170
G1 X50.142 Y101.786 E1.31135
G1 X50.171 Y101.814 E1.31274
G1 X51.042 Y101.786 E1.34239
G1 X51.071 Y101.814 E1.34378
G1 F1800.000 E0.34378
G92 E0
G1 X51.891 Y102.300 F7800.000
G1 X51.891 Y101.300
G1 X54.500 Y99.800
G1 X54.500 Y95.800
G1 X51.891 Y94.300
G1 X40.110 Y94.300
G1 X41.271 Y93.814
G1 F1800.000 E1.00000
G1 X41.242 Y93.786 F480.000 E1.00139
G1 X42.142 Y93.786 E1.03197
G1 X42.171 Y93.814 E1.03336
G1 X43.042 Y93.786 E1.06297
G1 X43.071 Y93.814 E1.06436
G1 X43.942 Y93.786 E1.09397
G1 X43.971 Y93.814 E1.09536
G1 X44.842 Y93.786 E1.12497
G1 X44.871 Y93.814 E1.12637
G1 X45.742 Y93.786 E1.15598
G1 X45.771 Y93.814 E1.15737
G1 X46.642 Y93.786 E1.18698
G1 X46.671 Y93.814 E1.18837
G1 X47.542 Y93.786 E1.21798
G1 X47.571 Y93.814 E1.21937
G1 X48.442 Y93.786 E1.24898
G1 X48.471 Y93.814 E1.25037
G1 X49.342 Y93.786 E1.27998
G1 X49.371 Y93.814 E1.28137
G1 X50.242 Y93.786 E1.31098
G1 X50.271 Y93.814 E1.31238
G1 X51.142 Y93.786 E1.34199
G1 X51.171 Y93.814 E1.34338
G1 F1800.000 E0.34338
G92 E0
G1 X51.891 Y94.300 F7800.000
G1 X54.500 Y95.800
G1 X57.331 Y97.790
G1 X57.759 Y97.084
G1 F1800.000 E1.00000
G1 X57.969 Y96.767 F720.000 E1.01293
G1 X58.247 Y96.493 E1.02617
G1 X58.579 Y96.268 E1.03979
G1 X58.953 Y96.098 E1.05377
G1 X59.358 Y95.987 E1.06803
G1 X59.780 Y95.936 E1.08249
G1 X60.207 Y95.946 E1.09698
G1 X60.625 Y96.017 E1.11139
G1 X61.021 Y96.149 E1.12557
G1 X61.383 Y96.337 E1.13943
G1 X61.698 Y96.579 E1.15292
G1 X61.954 Y96.868 E1.16605
G1 X62.140 Y97.197 E1.17888
G1 X62.244 Y97.554 E1.19152
G1 X62.264 Y97.800 E1.19991
G1 X62.219 Y98.167 E1.21248
G1 X62.087 Y98.517 E1.22517
G1 X61.876 Y98.833 E1.23810
G1 X61.599 Y99.107 E1.25134
G1 X61.383 Y99.263 E1.26038
G1 X61.146 Y99.395 E1.26959
G1 X60.760 Y99.545 E1.28367
G1 X60.348 Y99.637 E1.29801
G1 X60.065 Y99.664 E1.30767
G1 X59.781 Y99.664 E1.31734
G1 X59.358 Y99.613 E1.33179
G1 X59.086 Y99.545 E1.34134
G1 X58.825 Y99.451 E1.35077
G1 X58.463 Y99.263 E1.36463
G1 X58.148 Y99.021 E1.37812
G1 X57.891 Y98.732 E1.39125
G1 X57.759 Y98.516 E1.39985
G1 X57.661 Y98.287 E1.40833
G1 X57.586 Y97.923 E1.42093
G1 X57.601 Y97.554 E1.43349
G1 X57.661 Y97.313 E1.44192
G1 X57.718 Y97.170 E1.44716
G1 X58.139 Y97.084 F7800.000
G1 X58.198 Y96.252
G1 X59.684 Y95.800
G1 X60.157 Y95.800
G1 X67.779 Y97.800
G1 X68.040 Y97.677
G1 X68.115 Y97.313 F720.000 E1.45976
G1 X68.275 Y96.974 E1.47252
G1 X68.509 Y96.670 E1.48554
G1 X68.806 Y96.412 E1.49891
G1 X69.153 Y96.205 E1.51265
G1 X69.539 Y96.055 E1.52673
G1 X69.951 Y95.963 E1.54107
G1 X70.234 Y95.936 E1.55072
G1 X70.519 Y95.936 E1.56040
G1 X70.941 Y95.987 E1.57485
G1 X71.346 Y96.098 E1.58911
G1 X71.721 Y96.268 E1.60309
G1 X72.052 Y96.493 E1.61670
G1 X72.330 Y96.767 E1.62996
G1 X72.540 Y97.083 E1.64287
G1 X72.673 Y97.433 E1.65557
G1 X72.718 Y97.800 E1.66814
G1 X72.673 Y98.167 E1.68071
G1 X72.540 Y98.517 E1.69340
G1 X72.330 Y98.833 E1.70632
G1 X72.052 Y99.107 E1.71957
G1 X71.720 Y99.332 E1.73319
G1 X71.346 Y99.502 E1.74716
G1 X71.079 Y99.583 E1.75665
G1 X70.802 Y99.637 E1.76625
G1 X70.375 Y99.668 E1.78077
G1 X70.092 Y99.654 E1.79040
G1 X69.812 Y99.613 E1.80003
G1 X69.407 Y99.502 E1.81429
G1 X69.033 Y99.332 E1.82826
G1 X68.700 Y99.107 E1.84188
G1 X68.423 Y98.833 E1.85512
G1 X68.213 Y98.516 E1.86805
G1 X68.080 Y98.167 E1.88074
G1 X68.040 Y97.923 E1.88914
G1 X68.036 Y97.772 E1.89429
G1 X68.383 Y97.536 F7800.000
G1 F1800.000 E0.89429
G92 E0
G1 X67.779 Y97.800 F7800.000
G1 X60.154 Y99.800
G1 X59.691 Y99.800
G1 X58.100 Y99.274
G1 X57.498 Y99.347
G1 F1800.000 E1.00000
G1 X54.953 Y99.347 F720.000 E1.08645
G1 X54.953 Y96.253 E1.19154
G1 X57.498 Y96.253 E1.27799
G1 X57.194 Y96.792 E1.29901
G1 X57.058 Y97.111 E1.31078
G1 X56.974 Y97.451 E1.32268
G1 X56.945 Y97.800 E1.33458
G1 X56.974 Y98.150 E1.34652
G1 X57.058 Y98.489 E1.35837
G1 X57.194 Y98.808 E1.37017
G1 X57.451 Y99.264 E1.38793
G1 X58.100 Y99.274 F7800.000
G1 X59.691 Y99.800
G1 X60.154 Y99.800
G1 X61.748 Y99.272
G1 X68.651 Y96.253
G1 X67.951 Y96.253
G1 X67.647 Y96.792 F720.000 E1.40894
G1 X67.512 Y97.111 E1.42073
G1 X67.428 Y97.451 E1.43261
G1 X67.399 Y97.800 E1.44452
G1 X67.428 Y98.149 E1.45643
G1 X67.512 Y98.489 E1.46831
G1 X67.647 Y98.808 E1.48010
G1 X67.951 Y99.347 E1.50110
G1 X62.348 Y99.347 E1.69148
G1 X62.652 Y98.809 E1.71248
G1 X62.787 Y98.489 E1.72428
G1 X62.872 Y98.150 E1.73616
G1 X62.900 Y97.800 E1.74807
G1 X62.872 Y97.450 E1.75999
G1 X62.787 Y97.111 E1.77187
G1 X62.652 Y96.791 E1.78367
G1 X62.348 Y96.253 E1.80466
G1 X67.856 Y96.253 E1.99181
G1 X68.651 Y96.253 F7800.000
G1 X70.138 Y95.800
G1 X70.611 Y95.800
G1 X72.202 Y96.329
G1 X72.802 Y96.253
G1 X80.749 Y96.253 F720.000 E2.26181
G1 X80.749 Y99.347 E2.36690
G1 X72.802 Y99.347 E2.63691
G1 X73.105 Y98.808 E2.65790
G1 X73.241 Y98.489 E2.66971
G1 X73.325 Y98.149 E2.68158
G1 X73.354 Y97.800 E2.69350
G1 X73.326 Y97.451 E2.70539
G1 X73.241 Y97.112 E2.71728
G1 X73.105 Y96.791 E2.72910
G1 X72.849 Y96.336 E2.74684
G1 X81.384 Y95.618 F7800.000
G1 X81.384 Y99.982 F840.000 E2.89512
G1 X54.318 Y99.982 E3.81476
G1 X54.318 Y95.618 E3.96305
G1 X81.289 Y95.618 E4.87944
G1 X81.066 Y96.168 F7800.000
G1 X80.288 Y96.833
G1 X80.169 Y96.714 F1440.000 E4.88515
G1 X79.269 Y96.714 E4.91572
G1 X80.288 Y97.733 E4.96467
G1 X80.288 Y98.633 E4.99525
G1 X78.369 Y96.714 E5.08744
G1 X77.469 Y96.714 E5.11802
G1 X79.641 Y98.886 E5.22237
G1 X78.741 Y98.886 E5.25295
G1 X76.569 Y96.714 E5.35730
G1 X75.669 Y96.714 E5.38788
G1 X77.841 Y98.886 E5.49223
G1 X76.941 Y98.886 E5.52281
G1 X74.770 Y96.714 E5.62716
G1 X73.870 Y96.714 E5.65774
G1 X76.041 Y98.886 E5.76209
G1 X75.141 Y98.886 E5.79267
G1 X73.794 Y97.539 E5.85740
G1 X73.746 Y98.391 E5.88639
G1 X74.241 Y98.886 E5.91019
G1 X72.963 Y97.800 F7800.000
G1 X72.199 Y99.274
G1 X70.608 Y99.800
G1 X70.138 Y99.800
G1 X68.651 Y99.347
G1 X67.779 Y97.800
G1 X66.670 Y96.714
G1 X67.034 Y97.078 F1440.000 E5.92769
G1 X66.945 Y97.889 E5.95540
G1 X65.770 Y96.714 E6.01185
G1 X64.870 Y96.714 E6.04243
G1 X67.042 Y98.886 E6.14678
G1 X66.142 Y98.886 E6.17736
G1 X63.970 Y96.714 E6.28171
G1 X63.221 Y96.865 E6.30767
G1 X65.242 Y98.886 E6.40476
G1 X64.342 Y98.886 E6.43534
G1 X63.354 Y97.898 E6.48282
G1 X63.233 Y98.677 E6.50961
G1 X63.442 Y98.886 E6.51964
G1 X62.509 Y97.800 F7800.000
G1 X61.748 Y99.272
G1 X60.154 Y99.800
G1 X59.691 Y99.800
G1 X58.100 Y99.274
G1 X57.331 Y97.790
G1 X56.242 Y98.886
G1 X55.414 Y98.058 F1440.000 E6.55943
G1 X55.414 Y97.158 E6.59001
G1 X56.529 Y98.272 E6.64357
G1 X56.521 Y97.365 E6.67441
G1 X55.870 Y96.714 E6.70567
G1 F1800.000 E5.70567
G92 E0
G1 X56.595 Y89.800 F7800.000
G1 X56.573 Y89.800
G1 X52.073 Y86.482
G1 F1800.000 E1.00000
G1 X39.927 Y86.482 F720.000 E1.41266
G1 X39.927 Y85.118 E1.45902
G1 X52.073 Y85.118 E1.87168
G1 X52.073 Y86.387 E1.91480
G1 X51.522 Y86.164 F7800.000
G1 F1800.000 E0.91480
G92 E0
G1 X51.891 Y86.300 F7800.000
G1 X51.891 Y85.300
G1 X51.891 Y78.300
G1 X52.073 Y78.482
G1 F1800.000 E1.00000
G1 X39.927 Y78.482 F720.000 E1.41266
G1 X39.927 Y77.118 E1.45902
G1 X52.073 Y77.118 E1.87168
G1 X52.073 Y78.387 E1.91480
G1 X51.522 Y78.164 F7800.000
G1 F1800.000 E0.91480
G92 E0
G1 X51.891 Y78.300 F7800.000
G1 X51.891 Y85.300
G1 X52.376 Y82.633
G1 F1800.000 E1.00000
G1 X52.388 Y84.300 F720.000 E1.05663
G1 X52.376 Y82.633 F7800.000
G1 X52.362 Y80.300 F720.000 E1.13592
