; generated by Slic3r 0.9.10b on 2013-11-17 at 22:42:34

; layer_height = 0.21
; perimeters = 2
; top_solid_layers = 4
; bottom_solid_layers = 4
; fill_density = 0.2
; perimeter_speed = 50
; infill_speed = 60
; travel_speed = 130
; nozzle_diameter = 0.4
; filament_diameter = 2.9
; extrusion_multiplier = 1.09
; perimeters extrusion width = 0.64mm
; infill extrusion width = 0.64mm
; solid infill extrusion width = 0.64mm
; top infill extrusion width = 0.64mm
; first layer extrusion width = 0.70mm

G21 ; set units to millimeters
M107
M190 S60 ; wait for bed temperature to be reached
M104 S200 ; set temperature
G28 ; home all axes
G1 Z5 F5000 ; lift nozzle
M109 S200 ; wait for temperature to be reached
G90 ; use absolute coordinates
G92 E0
M82 ; use absolute distances for extrusion
G1 F1800.000 E-1.00000
G1 Z0.450 F7800.000
G92 E0
G1 X42.764 Y47.310
G1 Z0.350
G1 F1800.000 E1.00000
G1 X43.764 Y46.480 F1200.000 E1.04771
G1 X44.914 Y45.870 E1.09550
G1 X46.164 Y45.490 E1.14346
G1 X47.454 Y45.360 E1.19106
G1 X65.024 Y45.360 E1.83609
G1 X65.964 Y45.430 E1.87069
G1 X66.884 Y45.630 E1.90526
G1 X75.464 Y48.130 E2.23334
G1 X76.984 Y48.790 E2.29418
G1 X78.294 Y49.810 E2.35513
G1 X138.294 Y109.810 E5.47023
G1 X139.164 Y110.880 E5.52086
G1 X139.794 Y112.110 E5.57159
G1 X140.164 Y113.070 E5.60936
G1 X140.634 Y114.580 E5.66742
G1 X140.754 Y115.020 E5.68416
G1 X140.904 Y115.690 E5.70937
G1 X141.054 Y116.480 E5.73889
G1 X141.204 Y117.500 E5.77674
G1 X141.304 Y118.550 E5.81546
G1 X141.344 Y119.770 E5.86027
G1 X141.304 Y121.440 E5.92160
G1 X141.254 Y122.080 E5.94517
G1 X141.104 Y123.200 E5.98665
G1 X140.894 Y124.310 E6.02812
G1 X140.634 Y125.410 E6.06962
G1 X140.174 Y126.890 E6.12652
G1 X139.804 Y127.860 E6.16463
G1 X139.094 Y129.220 E6.22095
G1 X138.104 Y130.380 E6.27694
G1 X136.864 Y131.280 E6.33319
G1 X135.464 Y131.870 E6.38896
G1 X126.884 Y134.370 E6.71705
G1 X125.964 Y134.570 E6.75161
G1 X125.024 Y134.640 E6.78622
G1 X47.454 Y134.640 E9.63395
G1 X46.164 Y134.510 E9.68155
G1 X44.914 Y134.130 E9.72951
G1 X43.764 Y133.520 E9.77730
G1 X42.764 Y132.690 E9.82501
G1 X41.934 Y131.690 E9.87272
G1 X41.324 Y130.540 E9.92051
G1 X40.944 Y129.290 E9.96848
G1 X40.814 Y128.000 E10.01608
G1 X40.814 Y52.000 E12.80617
G1 X40.944 Y50.710 E12.85377
G1 X41.324 Y49.460 E12.90174
G1 X41.934 Y48.310 E12.94953
G1 X42.703 Y47.383 E12.99374
G1 F1800.000 E11.99374
G1 Z0.450 F7800.000
G92 E0
G1 X47.142 Y52.055
G1 Z0.350
G1 F1800.000 E1.00000
G1 X47.514 Y51.682 F1200.000 E1.01933
G1 X64.977 Y51.682 E1.66040
G1 X65.349 Y52.055 E1.67973
G1 X65.349 Y54.182 E1.75784
G1 X73.588 Y54.182 E2.06030
G1 X73.913 Y54.406 E2.07481
G1 X74.283 Y55.378 E2.11297
G1 X74.597 Y56.425 E2.15311
G1 X74.850 Y57.670 E2.19974
G1 X74.954 Y58.387 E2.22633
G1 X75.010 Y59.070 E2.25150
G1 X75.038 Y59.990 E2.28530
G1 X75.010 Y60.930 E2.31983
G1 X74.957 Y61.593 E2.34425
G1 X74.850 Y62.330 E2.37158
G1 X74.702 Y63.107 E2.40061
G1 X74.592 Y63.597 E2.41906
G1 X74.283 Y64.622 E2.45836
G1 X73.913 Y65.594 E2.49652
G1 X73.588 Y65.818 E2.51103
G1 X65.349 Y65.818 E2.81349
G1 X65.349 Y67.945 E2.89160
G1 X64.977 Y68.318 E2.91093
G1 X47.514 Y68.318 E3.55200
G1 X47.142 Y67.945 E3.57133
G1 X47.142 Y66.055 E3.64075
G1 X47.514 Y65.682 E3.66008
G1 X58.506 Y65.682 E4.06361
G1 X58.506 Y54.318 E4.48082
G1 X47.514 Y54.318 E4.88435
G1 X47.142 Y53.945 E4.90368
G1 X47.142 Y52.150 E4.96960
G1 F1800.000 E3.96960
G1 Z0.450 F7800.000
G92 E0
G1 X47.514 Y71.682
G1 Z0.350
G1 F1800.000 E1.00000
G1 X74.977 Y71.682 F1200.000 E2.00819
G1 X75.349 Y72.055 E2.02752
G1 X75.349 Y74.182 E2.10563
G1 X83.588 Y74.182 E2.40808
G1 X83.913 Y74.406 E2.42259
G1 X84.283 Y75.378 E2.46075
G1 X84.592 Y76.403 E2.50006
G1 X84.852 Y77.684 E2.54805
G1 X84.954 Y78.384 E2.57404
G1 X85.009 Y79.054 E2.59870
G1 X85.038 Y80.010 E2.63381
G1 X85.010 Y80.930 E2.66761
G1 X84.954 Y81.613 E2.69278
G1 X84.850 Y82.330 E2.71936
G1 X84.597 Y83.575 E2.76599
G1 X84.276 Y84.644 E2.80700
G1 X83.913 Y85.594 E2.84430
G1 X83.588 Y85.818 E2.85881
G1 X75.349 Y85.818 E3.16127
G1 X75.349 Y87.945 E3.23938
G1 X74.977 Y88.318 E3.25871
G1 X47.514 Y88.318 E4.26690
G1 X47.142 Y87.945 E4.28623
G1 X47.142 Y86.055 E4.35565
G1 X47.514 Y85.682 E4.37498
G1 X60.506 Y85.682 E4.85194
G1 X60.506 Y74.318 E5.26914
G1 X47.514 Y74.318 E5.74610
G1 X47.142 Y73.945 E5.76543
G1 X47.142 Y72.055 E5.83485
G1 X47.447 Y71.750 E5.85068
G1 F1800.000 E4.85068
G1 Z0.450 F7800.000
G92 E0
G1 X47.514 Y91.682
G1 Z0.350
G1 F1800.000 E1.00000
G1 X94.977 Y91.682 F1200.000 E2.74242
G1 X95.349 Y92.055 E2.76175
G1 X95.349 Y94.182 E2.83987
G1 X103.588 Y94.182 E3.14232
G1 X103.913 Y94.406 E3.15683
G1 X104.283 Y95.378 E3.19499
G1 X104.597 Y96.425 E3.23513
G1 X104.850 Y97.670 E3.28177
G1 X104.957 Y98.407 E3.30910
G1 X105.010 Y99.070 E3.33352
G1 X105.038 Y99.990 E3.36733
G1 X105.010 Y100.930 E3.40185
G1 X104.954 Y101.613 E3.42701
G1 X104.850 Y102.330 E3.45360
G1 X104.702 Y103.107 E3.48264
G1 X104.592 Y103.597 E3.50108
G1 X104.283 Y104.622 E3.54039
G1 X103.913 Y105.594 E3.57855
G1 X103.588 Y105.818 E3.59306
G1 X95.349 Y105.818 E3.89551
G1 X95.349 Y107.945 E3.97362
G1 X94.977 Y108.318 E3.99295
G1 X47.514 Y108.318 E5.73538
G1 X47.142 Y107.945 E5.75471
G1 X47.142 Y106.055 E5.82413
G1 X47.514 Y105.682 E5.84346
G1 X64.506 Y105.682 E6.46726
G1 X64.506 Y94.318 E6.88447
G1 X47.514 Y94.318 E7.50827
G1 X47.142 Y93.945 E7.52760
G1 X47.142 Y92.055 E7.59702
G1 X47.447 Y91.750 E7.61285
G1 F1800.000 E6.61285
G1 Z0.450 F7800.000
G92 E0
G1 X47.514 Y111.682
G1 Z0.350
G1 F1800.000 E1.00000
G1 X124.977 Y111.682 F1200.000 E3.84378
G1 X125.349 Y112.055 E3.86311
G1 X125.349 Y114.182 E3.94122
G1 X133.588 Y114.182 E4.24367
G1 X133.913 Y114.406 E4.25818
G1 X134.283 Y115.378 E4.29634
G1 X134.597 Y116.425 E4.33649
G1 X134.850 Y117.670 E4.38312
G1 X134.954 Y118.387 E4.40971
G1 X135.010 Y119.070 E4.43487
G1 X135.038 Y119.990 E4.46868
G1 X135.010 Y120.930 E4.50320
G1 X134.954 Y121.613 E4.52837
G1 X134.850 Y122.330 E4.55496
G1 X134.700 Y123.117 E4.58435
G1 X134.592 Y123.597 E4.60243
G1 X134.283 Y124.622 E4.64174
G1 X133.913 Y125.594 E4.67990
G1 X133.588 Y125.818 E4.69441
G1 X125.349 Y125.818 E4.99687
G1 X125.349 Y127.945 E5.07498
G1 X124.977 Y128.318 E5.09431
G1 X47.514 Y128.318 E7.93809
G1 X47.142 Y127.945 E7.95742
G1 X47.142 Y126.055 E8.02684
G1 X47.514 Y125.682 E8.04617
G1 X70.506 Y125.682 E8.89024
G1 X70.506 Y114.318 E9.30745
G1 X47.514 Y114.318 E10.15152
G1 X47.142 Y113.945 E10.17085
G1 X47.142 Y112.055 E10.24027
G1 X47.447 Y111.750 E10.25610
G1 F1800.000 E9.25610
G1 Z0.450 F7800.000
G92 E0
G1 X47.778 Y67.682
G1 Z0.350
G1 F1800.000 E1.00000
G1 X47.778 Y66.318 F840.000 E1.05009
G1 X59.142 Y66.318 E1.46729
G1 X59.142 Y53.682 E1.93117
G1 X47.778 Y53.682 E2.34837
G1 X47.778 Y52.318 E2.39846
G1 X64.713 Y52.318 E3.02019
G1 X64.713 Y54.818 E3.11197
G1 X73.396 Y54.818 E3.43073
G1 X73.590 Y55.307 E3.45005
G1 X73.842 Y56.100 E3.48059
G1 X73.981 Y56.581 E3.49898
G1 X74.157 Y57.407 E3.52998
G1 X74.324 Y58.464 E3.56927
G1 X74.375 Y59.099 E3.59265
G1 X74.403 Y60.000 E3.62575
G1 X74.375 Y60.901 E3.65885
G1 X74.324 Y61.536 E3.68223
G1 X74.157 Y62.593 E3.72152
G1 X73.981 Y63.419 E3.75252
G1 X73.842 Y63.900 E3.77091
G1 X73.590 Y64.693 E3.80145
G1 X73.396 Y65.182 E3.82077
G1 X64.713 Y65.182 E4.13953
G1 X64.713 Y67.682 E4.23131
G1 X47.873 Y67.682 E4.84954
G1 X48.095 Y67.132 F7800.000
G1 F1800.000 E3.84954
G1 Z0.450 F7800.000
G92 E0
G1 X72.969 Y55.453
G1 Z0.350
G1 F1800.000 E1.00000
G1 X73.365 Y56.738 F1200.000 E1.04936
G1 X73.597 Y57.888 E1.09242
G1 X73.719 Y58.838 E1.12758
G1 X73.767 Y60.000 E1.17028
G1 X73.719 Y61.162 E1.21298
G1 X73.598 Y62.112 E1.24813
G1 X73.365 Y63.262 E1.29120
G1 X72.969 Y64.547 E1.34056
G1 X64.078 Y64.547 E1.66697
G1 X64.078 Y67.047 E1.75875
G1 X59.777 Y67.047 E1.91662
G1 X59.777 Y52.953 E2.43401
G1 X64.078 Y52.953 E2.59187
G1 X64.078 Y55.453 E2.68365
G1 X72.874 Y55.453 E3.00657
G1 F1800.000 E2.00657
G1 Z0.450 F7800.000
G92 E0
G1 X74.713 Y72.318
G1 Z0.350
G1 F1800.000 E1.00000
G1 X74.713 Y74.818 F840.000 E1.09178
G1 X83.396 Y74.818 E1.41054
G1 X83.590 Y75.307 E1.42986
G1 X83.842 Y76.100 E1.46040
G1 X83.981 Y76.581 E1.47878
G1 X84.157 Y77.407 E1.50979
G1 X84.324 Y78.464 E1.54907
G1 X84.375 Y79.099 E1.57246
G1 X84.403 Y80.000 E1.60556
G1 X84.375 Y80.901 E1.63865
G1 X84.324 Y81.536 E1.66203
G1 X84.157 Y82.593 E1.70133
G1 X83.981 Y83.419 E1.73233
G1 X83.842 Y83.900 E1.75071
G1 X83.590 Y84.693 E1.78125
G1 X83.396 Y85.182 E1.80057
G1 X74.713 Y85.182 E2.11933
G1 X74.713 Y87.682 E2.21111
G1 X47.778 Y87.682 E3.19997
G1 X47.778 Y86.318 E3.25006
G1 X61.142 Y86.318 E3.74068
G1 X61.142 Y73.682 E4.20456
G1 X47.778 Y73.682 E4.69518
G1 X47.778 Y72.318 E4.74527
G1 X74.618 Y72.318 E5.73063
G1 X74.395 Y72.868 F7800.000
G1 F1800.000 E4.73063
G1 Z0.450 F7800.000
G92 E0
G1 X61.777 Y72.953
G1 Z0.350
G1 F1800.000 E1.00000
G1 X74.078 Y72.953 F1200.000 E1.45156
G1 X74.078 Y75.453 E1.54334
G1 X82.969 Y75.453 E1.86976
G1 X83.365 Y76.738 E1.91911
G1 X83.597 Y77.888 E1.96218
G1 X83.719 Y78.838 E1.99734
G1 X83.767 Y80.000 E2.04003
G1 X83.719 Y81.162 E2.08273
G1 X83.597 Y82.112 E2.11789
G1 X83.365 Y83.262 E2.16096
G1 X82.969 Y84.547 E2.21031
G1 X74.078 Y84.547 E2.53673
G1 X74.078 Y87.047 E2.62851
G1 X61.777 Y87.047 E3.08007
G1 X61.777 Y73.049 E3.59396
G1 F1800.000 E2.59396
G1 Z0.450 F7800.000
G92 E0
G1 X65.142 Y93.682
G1 Z0.350
G1 F1800.000 E1.00000
G1 X47.778 Y93.682 F840.000 E1.63747
G1 X47.778 Y92.318 E1.68756
G1 X94.713 Y92.318 E3.41065
G1 X94.713 Y94.818 E3.50243
G1 X103.396 Y94.818 E3.82119
G1 X103.676 Y95.566 E3.85054
G1 X103.981 Y96.581 E3.88942
G1 X104.157 Y97.407 E3.92043
G1 X104.280 Y98.135 E3.94755
G1 X104.375 Y99.099 E3.98310
G1 X104.400 Y100.296 E4.02707
G1 X104.324 Y101.536 E4.07266
G1 X104.157 Y102.593 E4.11195
G1 X103.981 Y103.419 E4.14295
G1 X103.676 Y104.434 E4.18184
G1 X103.396 Y105.182 E4.21119
G1 X94.713 Y105.182 E4.52995
G1 X94.713 Y107.682 E4.62172
G1 X47.778 Y107.682 E6.34482
G1 X47.778 Y106.318 E6.39491
G1 X65.142 Y106.318 E7.03238
G1 X65.142 Y93.778 E7.49275
G1 X65.142 Y93.047 F7800.000
G1 F1800.000 E6.49275
G1 Z0.450 F7800.000
G92 E0
G1 X65.777 Y107.047
G1 Z0.350
G1 F1800.000 E1.00000
G1 X65.777 Y92.953 F1200.000 E1.51738
G1 X94.078 Y92.953 E2.55634
G1 X94.078 Y95.453 E2.64812
G1 X102.969 Y95.453 E2.97453
G1 X103.365 Y96.738 E3.02389
G1 X103.532 Y97.526 E3.05345
G1 X103.691 Y98.526 E3.09063
G1 X103.755 Y99.429 E3.12387
G1 X103.755 Y100.570 E3.16575
G1 X103.691 Y101.474 E3.19901
G1 X103.532 Y102.474 E3.23620
G1 X103.365 Y103.262 E3.26576
G1 X102.969 Y104.547 E3.31511
G1 X94.078 Y104.547 E3.64153
G1 X94.078 Y107.047 E3.73331
G1 X65.873 Y107.047 E4.76876
G1 F1800.000 E3.76876
G1 Z0.450 F7800.000
G92 E0
G1 X71.142 Y113.682
G1 Z0.350
G1 F1800.000 E1.00000
G1 X47.778 Y113.682 F840.000 E1.85774
G1 X47.778 Y112.318 E1.90783
G1 X124.713 Y112.318 E4.73228
G1 X124.713 Y114.818 E4.82406
G1 X133.396 Y114.818 E5.14282
G1 X133.676 Y115.566 E5.17216
G1 X133.981 Y116.581 E5.21105
G1 X134.157 Y117.407 E5.24206
G1 X134.280 Y118.135 E5.26918
G1 X134.353 Y118.787 E5.29324
G1 X134.400 Y119.703 E5.32692
G1 X134.390 Y120.596 E5.35972
G1 X134.322 Y121.552 E5.39490
G1 X134.157 Y122.593 E5.43359
G1 X133.981 Y123.419 E5.46459
G1 X133.676 Y124.434 E5.50348
G1 X133.396 Y125.182 E5.53283
G1 X124.713 Y125.182 E5.85159
G1 X124.713 Y127.682 E5.94337
G1 X47.778 Y127.682 E8.76781
G1 X47.778 Y126.318 E8.81790
G1 X71.142 Y126.318 E9.67564
G1 X71.142 Y113.778 E10.13602
G1 X71.142 Y113.047 F7800.000
G1 F1800.000 E9.13602
G1 Z0.450 F7800.000
G92 E0
G1 X132.969 Y115.453
G1 Z0.350
G1 F1800.000 E1.00000
G1 X133.365 Y116.738 F1200.000 E1.04936
G1 X133.597 Y117.888 E1.09242
G1 X133.719 Y118.838 E1.12758
G1 X133.767 Y120.000 E1.17028
G1 X133.719 Y121.162 E1.21298
G1 X133.598 Y122.112 E1.24813
G1 X133.365 Y123.262 E1.29120
G1 X132.969 Y124.547 E1.34056
G1 X124.078 Y124.547 E1.66697
G1 X124.078 Y127.047 E1.75875
G1 X71.777 Y127.047 E3.67879
G1 X71.777 Y112.953 E4.19617
G1 X124.078 Y112.953 E6.11621
G1 X124.078 Y115.453 E6.20799
G1 X132.874 Y115.453 E6.53090
G1 F1800.000 E5.53090
G1 Z0.450 F7800.000
G92 E0
G1 X90.377 Y119.754
G1 Z0.350
G1 F1800.000 E1.00000
G1 X90.388 Y120.124 F720.000 E1.01359
G1 X90.330 Y120.489 E1.02719
G1 X90.205 Y120.838 E1.04078
G1 X90.016 Y121.157 E1.05438
G1 X89.859 Y121.347 E1.06345
G1 X89.692 Y121.505 E1.07188
G1 X89.372 Y121.724 E1.08612
G1 X89.032 Y121.872 E1.09972
G1 X88.671 Y121.952 E1.11333
G1 X88.301 Y121.964 E1.12692
G1 X87.935 Y121.906 E1.14052
G1 X87.586 Y121.781 E1.15411
G1 X87.267 Y121.592 E1.16771
G1 X86.989 Y121.347 E1.18131
G1 X86.832 Y121.156 E1.19040
G1 X86.700 Y120.948 E1.19945
G1 X86.552 Y120.608 E1.21305
G1 X86.472 Y120.246 E1.22666
G1 X86.460 Y119.876 E1.24025
G1 X86.518 Y119.511 E1.25385
G1 X86.643 Y119.162 E1.26745
G1 X86.762 Y118.946 E1.27652
G1 X86.895 Y118.762 E1.28482
G1 X87.170 Y118.484 E1.29920
G1 X87.476 Y118.276 E1.31278
G1 X87.816 Y118.128 E1.32638
G1 X88.178 Y118.048 E1.33998
G1 X88.548 Y118.036 E1.35358
G1 X88.914 Y118.094 E1.36718
G1 X89.262 Y118.219 E1.38077
G1 X89.581 Y118.408 E1.39437
G1 X89.859 Y118.653 E1.40797
G1 X90.086 Y118.946 E1.42157
G1 X90.254 Y119.276 E1.43517
G1 X90.362 Y119.659 E1.44980
G1 X90.077 Y119.971 F7800.000
G1 X91.024 Y119.884
G1 X91.023 Y120.163 F720.000 E1.46005
G1 X90.982 Y120.488 E1.47206
G1 X90.845 Y120.958 E1.49005
G1 X90.623 Y121.395 E1.50805
G1 X90.322 Y121.782 E1.52603
G1 X89.954 Y122.107 E1.54404
G1 X89.533 Y122.356 E1.56203
G1 X89.072 Y122.522 E1.58000
G1 X88.588 Y122.599 E1.59801
G1 X88.098 Y122.583 E1.61598
G1 X87.619 Y122.476 E1.63400
G1 X87.169 Y122.282 E1.65199
G1 X86.893 Y122.107 E1.66399
G1 X86.670 Y121.923 E1.67460
G1 X86.526 Y121.782 E1.68200
G1 X86.317 Y121.529 E1.69405
G1 X86.068 Y121.109 E1.71200
G1 X85.902 Y120.648 E1.72998
G1 X85.825 Y120.163 E1.74798
G1 X85.841 Y119.674 E1.76595
G1 X85.948 Y119.195 E1.78398
G1 X86.142 Y118.746 E1.80196
G1 X86.317 Y118.471 E1.81391
G1 X86.526 Y118.218 E1.82597
G1 X86.894 Y117.893 E1.84396
G1 X87.315 Y117.644 E1.86196
G1 X87.776 Y117.478 E1.87994
G1 X88.261 Y117.401 E1.89794
G1 X88.750 Y117.417 E1.91592
G1 X89.229 Y117.524 E1.93393
G1 X89.679 Y117.718 E1.95193
G1 X90.084 Y117.993 E1.96989
G1 X90.430 Y118.340 E1.98788
G1 X90.706 Y118.746 E2.00589
G1 X90.900 Y119.195 E2.02387
G1 X90.982 Y119.512 E2.03589
G1 X91.018 Y119.789 E2.04615
G1 F1800.000 E1.04615
G1 Z0.450 F7800.000
G92 E0
G1 X78.979 Y101.662
G1 Z0.350
G1 F1800.000 E1.00000
G1 X78.648 Y101.830 F720.000 E1.01360
G1 X78.293 Y101.933 E1.02720
G1 X77.924 Y101.968 E1.04080
G1 X77.555 Y101.933 E1.05439
G1 X77.316 Y101.872 E1.06347
G1 X77.086 Y101.781 E1.07254
G1 X76.767 Y101.592 E1.08614
G1 X76.489 Y101.347 E1.09974
G1 X76.262 Y101.054 E1.11333
G1 X76.094 Y100.724 E1.12693
G1 X75.991 Y100.369 E1.14053
G1 X75.956 Y100.000 E1.15413
G1 X75.991 Y99.631 E1.16773
G1 X76.052 Y99.392 E1.17681
G1 X76.143 Y99.162 E1.18587
G1 X76.332 Y98.844 E1.19945
G1 X76.577 Y98.565 E1.21306
G1 X76.870 Y98.338 E1.22667
G1 X77.200 Y98.170 E1.24027
G1 X77.555 Y98.067 E1.25386
G1 X77.924 Y98.032 E1.26746
G1 X78.316 Y98.072 E1.28192
G1 X78.532 Y98.128 E1.29013
G1 X78.762 Y98.219 E1.29920
G1 X79.081 Y98.408 E1.31279
G1 X79.359 Y98.653 E1.32640
G1 X79.586 Y98.946 E1.33999
G1 X79.754 Y99.276 E1.35359
G1 X79.857 Y99.631 E1.36719
G1 X79.892 Y100.000 E1.38079
G1 X79.857 Y100.369 E1.39439
G1 X79.754 Y100.724 E1.40798
G1 X79.586 Y101.054 E1.42158
G1 X79.359 Y101.347 E1.43518
G1 X79.057 Y101.608 E1.44981
G1 X78.654 Y101.483 F7800.000
G1 X79.072 Y102.336
G1 X78.882 Y102.421 F720.000 E1.45745
G1 X78.572 Y102.522 E1.46943
G1 X78.087 Y102.599 E1.48744
G1 X77.598 Y102.583 E1.50541
G1 X77.119 Y102.476 E1.52343
G1 X76.669 Y102.282 E1.54142
G1 X76.264 Y102.006 E1.55940
G1 X75.918 Y101.660 E1.57740
G1 X75.642 Y101.255 E1.59538
G1 X75.448 Y100.805 E1.61337
G1 X75.341 Y100.326 E1.63139
G1 X75.325 Y99.837 E1.64936
G1 X75.402 Y99.352 E1.66736
G1 X75.568 Y98.891 E1.68535
G1 X75.726 Y98.605 E1.69735
G1 X75.893 Y98.372 E1.70787
G1 X76.026 Y98.218 E1.71536
G1 X76.265 Y97.993 E1.72739
G1 X76.669 Y97.718 E1.74535
G1 X77.119 Y97.524 E1.76334
G1 X77.598 Y97.417 E1.78135
G1 X78.087 Y97.401 E1.79933
G1 X78.572 Y97.478 E1.81733
